( pcb2gcode 2.4.0 )
( Software-independent Gcode )

G94 ( Millimeters per minute feed rate. )
G21 ( Units == Millimeters. )

G90 ( Absolute coordinates. )
G00 S1000 ( RPM spindle speed. )
G64 P0.01016 ( set maximum deviation from commanded toolpath )
G01 F200.00000 ( Feedrate. )


G00 Z0.50000 (Retract to tool change height)
T0
M5      (Spindle stop.)
G04 P1.00000 (Wait for spindle to stop)
(MSG, Change tool bit to mill diameter 0.15000mm)
M6      (Tool change.)
M0      (Temporary machine stop.)
M3 ( Spindle on clockwise. )
G04 P1.00000 (Wait for spindle to get up to speed)
G04 P0 ( dwell for no time -- G64 should not smooth over this point )
G00 Z0.50000 ( retract )

G00 X3.73623 Y5.29503 ( rapid move to begin. )
G01 F100.00000
( Mill infeed pass 1/1 )
G01 Z-0.17000
G04 P0 ( dwell for no time -- G64 should not smooth over this point )
G01 F200.00000
G01 X3.73623 Y5.29503
G01 X3.75500 Y5.00869
G01 X3.81098 Y4.72726
G01 X3.90321 Y4.45553
G01 X4.03013 Y4.19818
G01 X4.18954 Y3.95954
G01 X4.37877 Y3.74382
G01 X4.59449 Y3.55459
G01 X4.83313 Y3.39518
G01 X5.09043 Y3.26828
G01 X5.36612 Y3.17524
G01 X5.64364 Y3.12005
G01 X5.92997 Y3.10128
G01 X6.21631 Y3.12005
G01 X6.49383 Y3.17524
G01 X6.76952 Y3.26828
G01 X7.02682 Y3.39518
G01 X7.26546 Y3.55459
G01 X7.48118 Y3.74382
G01 X7.67041 Y3.95954
G01 X7.82982 Y4.19818
G01 X7.95674 Y4.45553
G01 X8.05194 Y4.74209
G01 X8.10495 Y5.00869
G01 X8.12372 Y5.29503
G01 X8.10495 Y5.58136
G01 X8.04976 Y5.85888
G01 X7.95672 Y6.13457
G01 X7.82982 Y6.39187
G01 X7.67041 Y6.63051
G01 X7.48118 Y6.84623
G01 X7.26546 Y7.03546
G01 X7.02682 Y7.19487
G01 X6.76952 Y7.32177
G01 X6.49383 Y7.41481
G01 X6.21631 Y7.47000
G01 X5.92997 Y7.48877
G01 X5.64364 Y7.47000
G01 X5.36612 Y7.41481
G01 X5.09043 Y7.32177
G01 X4.83313 Y7.19487
G01 X4.59449 Y7.03546
G01 X4.37877 Y6.84623
G01 X4.18954 Y6.63051
G01 X4.03013 Y6.39187
G01 X3.90323 Y6.13457
G01 X3.81019 Y5.85888
G01 X3.75500 Y5.58136
G01 X3.73623 Y5.29503
G01 X3.81083 Y5.29503
G01 X3.82896 Y5.01842
G01 X3.88304 Y4.74656
G01 X3.97214 Y4.48408
G01 X4.09475 Y4.23546
G01 X4.24875 Y4.00498
G01 X4.43150 Y3.79660
G01 X4.63996 Y3.61375
G01 X4.87044 Y3.45977
G01 X5.11890 Y3.33727
G01 X5.38540 Y3.24733
G01 X5.65337 Y3.19404
G01 X5.92997 Y3.17606
G01 X6.20658 Y3.19419
G01 X6.47453 Y3.24748
G01 X6.74100 Y3.33742
G01 X6.98943 Y3.45993
G01 X7.21991 Y3.61390
G01 X7.42832 Y3.79668
G01 X7.61107 Y4.00509
G01 X7.76505 Y4.23554
G01 X7.88765 Y4.48413
G01 X7.97879 Y4.75680
G01 X8.03081 Y5.01844
G01 X8.04894 Y5.29503
G01 X8.03081 Y5.57163
G01 X7.97752 Y5.83958
G01 X7.88758 Y6.10605
G01 X7.76505 Y6.35451
G01 X7.61107 Y6.58496
G01 X7.42832 Y6.79337
G01 X7.21991 Y6.97615
G01 X6.98946 Y7.13012
G01 X6.74100 Y7.25263
G01 X6.47453 Y7.34257
G01 X6.20658 Y7.39591
G01 X5.92997 Y7.41400
G01 X5.65337 Y7.39606
G01 X5.38540 Y7.34272
G01 X5.11890 Y7.25278
G01 X4.87041 Y7.13025
G01 X4.63996 Y6.97630
G01 X4.43150 Y6.79345
G01 X4.24875 Y6.58507
G01 X4.09475 Y6.35459
G01 X3.97222 Y6.10610
G01 X3.88228 Y5.83960
G01 X3.82899 Y5.57163
G01 X3.81083 Y5.29503
G01 X3.88560 Y5.29503
G01 X3.90311 Y5.02815
G01 X3.95528 Y4.76589
G01 X4.04123 Y4.51271
G01 X4.15952 Y4.27283
G01 X4.30806 Y4.05053
G01 X4.48441 Y3.84946
G01 X4.68545 Y3.67311
G01 X4.90778 Y3.52457
G01 X5.14748 Y3.40636
G01 X5.40465 Y3.31957
G01 X5.66315 Y3.26816
G01 X5.92997 Y3.25083
G01 X6.19678 Y3.26831
G01 X6.45525 Y3.31972
G01 X6.71242 Y3.40651
G01 X6.95212 Y3.52472
G01 X7.17440 Y3.67324
G01 X7.37546 Y3.84959
G01 X7.55176 Y4.05063
G01 X7.70033 Y4.27295
G01 X7.81854 Y4.51271
G01 X7.90457 Y4.76607
G01 X7.95669 Y5.02820
G01 X7.97417 Y5.29503
G01 X7.95669 Y5.56183
G01 X7.90528 Y5.82027
G01 X7.81844 Y6.07752
G01 X7.70033 Y6.31710
G01 X7.55176 Y6.53942
G01 X7.37546 Y6.74046
G01 X7.17440 Y6.91682
G01 X6.95212 Y7.06533
G01 X6.71242 Y7.18354
G01 X6.45525 Y7.27033
G01 X6.19683 Y7.32172
G01 X5.92997 Y7.33922
G01 X5.66310 Y7.32189
G01 X5.40465 Y7.27049
G01 X5.14748 Y7.18369
G01 X4.90778 Y7.06548
G01 X4.68545 Y6.91694
G01 X4.48441 Y6.74059
G01 X4.30806 Y6.53952
G01 X4.15952 Y6.31722
G01 X4.04136 Y6.07760
G01 X3.95452 Y5.82030
G01 X3.90311 Y5.56185
G01 X3.88560 Y5.29503
G01 X3.96038 Y5.29503
G01 X3.97725 Y5.03795
G01 X4.02751 Y4.78527
G01 X4.11032 Y4.54131
G01 X4.22426 Y4.31024
G01 X4.36737 Y4.09604
G01 X4.53727 Y3.90232
G01 X4.73099 Y3.73242
G01 X4.94519 Y3.58931
G01 X5.17603 Y3.47547
G01 X5.42398 Y3.39180
G01 X5.67290 Y3.34230
G01 X5.92997 Y3.32559
G01 X6.18702 Y3.34245
G01 X6.43594 Y3.39196
G01 X6.68387 Y3.47565
G01 X6.91468 Y3.58947
G01 X7.12888 Y3.73257
G01 X7.32256 Y3.90245
G01 X7.49246 Y4.09615
G01 X7.63553 Y4.31029
G01 X7.74948 Y4.54138
G01 X7.83233 Y4.78543
G01 X7.88255 Y5.03795
G01 X7.89941 Y5.29503
G01 X7.88255 Y5.55207
G01 X7.83304 Y5.80099
G01 X7.74935 Y6.04897
G01 X7.63553 Y6.27978
G01 X7.49246 Y6.49391
G01 X7.32256 Y6.68761
G01 X7.12888 Y6.85748
G01 X6.91473 Y7.00058
G01 X6.68392 Y7.11440
G01 X6.43594 Y7.19810
G01 X6.18702 Y7.24760
G01 X5.92997 Y7.26447
G01 X5.67290 Y7.24775
G01 X5.42398 Y7.19825
G01 X5.17598 Y7.11455
G01 X4.94517 Y7.00074
G01 X4.73099 Y6.85763
G01 X4.53727 Y6.68773
G01 X4.36737 Y6.49401
G01 X4.22426 Y6.27983
G01 X4.11045 Y6.04900
G01 X4.02675 Y5.80102
G01 X3.97725 Y5.55210
G01 X3.96038 Y5.29503
G01 X4.03516 Y5.29503
G01 X4.05139 Y5.04768
G01 X4.09973 Y4.80463
G01 X4.17941 Y4.56993
G01 X4.28901 Y4.34763
G01 X4.42670 Y4.14156
G01 X4.59015 Y3.95520
G01 X4.77648 Y3.79178
G01 X4.98255 Y3.65408
G01 X5.20458 Y3.54458
G01 X5.44323 Y3.46407
G01 X5.68265 Y3.41642
G01 X5.92997 Y3.40036
G01 X6.17727 Y3.41659
G01 X6.41666 Y3.46422
G01 X6.65532 Y3.54474
G01 X6.87732 Y3.65421
G01 X7.08336 Y3.79190
G01 X7.26970 Y3.95530
G01 X7.43312 Y4.14166
G01 X7.57079 Y4.34771
G01 X7.68039 Y4.56998
G01 X7.76010 Y4.80478
G01 X7.80841 Y5.04771
G01 X7.82464 Y5.29503
G01 X7.80841 Y5.54237
G01 X7.76081 Y5.78169
G01 X7.68024 Y6.02037
G01 X7.57079 Y6.24237
G01 X7.43312 Y6.44839
G01 X7.26972 Y6.63472
G01 X7.08336 Y6.79815
G01 X6.87732 Y6.93584
G01 X6.65532 Y7.04531
G01 X6.41664 Y7.12586
G01 X6.17727 Y7.17346
G01 X5.92997 Y7.18969
G01 X5.68265 Y7.17363
G01 X5.44329 Y7.12601
G01 X5.20458 Y7.04547
G01 X4.98255 Y6.93597
G01 X4.77648 Y6.79827
G01 X4.59012 Y6.63482
G01 X4.42670 Y6.44849
G01 X4.28903 Y6.24245
G01 X4.17956 Y6.02045
G01 X4.09899 Y5.78174
G01 X4.05139 Y5.54240
G01 X4.03516 Y5.29503
G01 X4.10994 Y5.29503
G01 X4.12551 Y5.05746
G01 X4.17196 Y4.82396
G01 X4.24849 Y4.59853
G01 X4.35378 Y4.38499
G01 X4.48601 Y4.18710
G01 X4.64303 Y4.00808
G01 X4.82203 Y3.85106
G01 X5.01994 Y3.71883
G01 X5.23310 Y3.61372
G01 X5.46256 Y3.53628
G01 X5.69238 Y3.49056
G01 X5.92997 Y3.47514
G01 X6.16754 Y3.49074
G01 X6.39736 Y3.53643
G01 X6.62680 Y3.61388
G01 X6.83996 Y3.71898
G01 X7.03782 Y3.85119
G01 X7.21684 Y4.00821
G01 X7.37379 Y4.18718
G01 X7.50602 Y4.38507
G01 X7.61133 Y4.59863
G01 X7.68788 Y4.82413
G01 X7.73426 Y5.05746
G01 X7.74986 Y5.29503
G01 X7.73426 Y5.53259
G01 X7.68854 Y5.76244
G01 X7.61115 Y5.99180
G01 X7.50602 Y6.20498
G01 X7.37379 Y6.40287
G01 X7.21684 Y6.58184
G01 X7.03782 Y6.73886
G01 X6.83990 Y6.87110
G01 X6.62680 Y6.97618
G01 X6.39736 Y7.05362
G01 X6.16754 Y7.09931
G01 X5.92997 Y7.11491
G01 X5.69238 Y7.09949
G01 X5.46256 Y7.05377
G01 X5.23310 Y6.97633
G01 X5.01999 Y6.87125
G01 X4.82203 Y6.73896
G01 X4.64303 Y6.58197
G01 X4.48601 Y6.40295
G01 X4.35378 Y6.20506
G01 X4.24867 Y5.99190
G01 X4.17125 Y5.76246
G01 X4.12551 Y5.53257
G01 X4.10994 Y5.29503
G01 X4.13394 Y5.29500
G01 X4.17278 Y4.92152
G01 X4.28883 Y4.56434
G01 X4.47659 Y4.23910
G01 X4.72792 Y3.95998
G01 X5.03173 Y3.73922
G01 X5.37486 Y3.58649
G01 X5.74219 Y3.50839
G01 X6.11776 Y3.50839
G01 X6.48509 Y3.58649
G01 X6.82822 Y3.73922
G01 X7.13203 Y3.95998
G01 X7.38336 Y4.23910
G01 X7.57112 Y4.56434
G01 X7.68717 Y4.92152
G01 X7.72644 Y5.29500
G01 X7.68717 Y5.66853
G01 X7.57112 Y6.02571
G01 X7.38336 Y6.35095
G01 X7.13203 Y6.63007
G01 X6.82822 Y6.85083
G01 X6.48509 Y7.00356
G01 X6.11776 Y7.08166
G01 X5.74219 Y7.08166
G01 X5.37486 Y7.00356
G01 X5.03173 Y6.85083
G01 X4.72792 Y6.63007
G01 X4.47659 Y6.35095
G01 X4.28883 Y6.02571
G01 X4.17278 Y5.66853
G01 X4.13394 Y5.29500
G04 P0 ( dwell for no time -- G64 should not smooth over this point )
G00 Z0.50000 ( retract )

G00 X6.68463 Y13.41055 ( rapid move to begin. )
G01 F100.00000
( Mill infeed pass 1/1 )
G01 Z-0.17000
G04 P0 ( dwell for no time -- G64 should not smooth over this point )
G01 F200.00000
G01 X6.68463 Y13.41055
G01 X6.61209 Y13.46148
G01 X6.50056 Y13.51271
G01 X6.30429 Y13.51271
G01 X6.34702 Y13.49940
G01 X6.55710 Y13.40586
G01 X6.59144 Y13.38604
G01 X6.79291 Y13.23839
G01 X6.96081 Y13.05346
G01 X6.98413 Y13.02138
G01 X7.10810 Y12.80454
G01 X7.19141 Y12.54815
G01 X7.21961 Y12.28000
G01 X7.19141 Y12.01188
G01 X7.11521 Y11.77401
G01 X7.09911 Y11.73781
G01 X6.97331 Y11.52201
G01 X6.80694 Y11.33568
G01 X6.77750 Y11.30916
G01 X6.57480 Y11.16316
G01 X6.34702 Y11.06062
G01 X6.30932 Y11.04838
G01 X6.06480 Y10.99748
G01 X5.81501 Y10.99641
G01 X5.77559 Y11.00058
G01 X5.53147 Y11.05351
G01 X5.28517 Y11.16316
G01 X5.08248 Y11.30916
G01 X5.05304 Y11.33568
G01 X4.88667 Y11.52201
G01 X4.76086 Y11.73781
G01 X4.74476 Y11.77401
G01 X4.66856 Y12.01188
G01 X4.64037 Y12.28000
G01 X4.66546 Y12.52854
G01 X4.67369 Y12.56730
G01 X4.75187 Y12.80454
G01 X4.87585 Y13.02138
G01 X4.89917 Y13.05346
G01 X5.06706 Y13.23839
G01 X5.26853 Y13.38604
G01 X5.30287 Y13.40586
G01 X5.51296 Y13.49940
G01 X5.55568 Y13.51271
G01 X5.35941 Y13.51271
G01 X5.24788 Y13.46148
G01 X5.17587 Y13.41096
G01 X5.22020 Y13.47235
G01 X5.24318 Y13.51271
G01 X6.61682 Y13.51271
G01 X6.63988 Y13.47256
G01 X6.73386 Y13.34238
G01 X6.86053 Y13.21190
G01 X6.98176 Y13.07365
G01 X7.00978 Y13.03507
G01 X7.10381 Y12.87703
G01 X7.14257 Y12.79237
G01 X7.18153 Y12.68668
G01 X7.22347 Y12.52818
G01 X7.23053 Y12.48701
G01 X7.24892 Y12.28003
G01 X7.23058 Y12.07345
G01 X7.21196 Y11.98185
G01 X7.17998 Y11.86918
G01 X7.14257 Y11.76768
G01 X7.10381 Y11.68307
G01 X6.99703 Y11.50477
G01 X6.86050 Y11.34812
G01 X6.79195 Y11.28511
G01 X6.70351 Y11.21538
G01 X6.60983 Y11.15280
G01 X6.52870 Y11.10708
G01 X6.33757 Y11.02565
G01 X6.13942 Y10.98021
G01 X6.04245 Y10.96867
G01 X5.92997 Y10.96408
G01 X5.76637 Y10.97345
G01 X5.72053 Y10.98021
G01 X5.54555 Y11.01975
G01 X5.50023 Y11.03449
G01 X5.33125 Y11.10708
G01 X5.25012 Y11.15280
G01 X5.15644 Y11.21538
G01 X5.06800 Y11.28511
G01 X4.99945 Y11.34812
G01 X4.86292 Y11.50477
G01 X4.75614 Y11.68307
G01 X4.71738 Y11.76768
G01 X4.67996 Y11.86918
G01 X4.64799 Y11.98185
G01 X4.62937 Y12.07345
G01 X4.61103 Y12.28003
G01 X4.71499 Y12.28000
G01 X4.74153 Y12.53263
G01 X4.82002 Y12.77421
G01 X4.94702 Y12.99417
G01 X5.12634 Y13.19051
G01 X5.33320 Y13.33771
G01 X5.55454 Y13.43555
G01 X5.79109 Y13.48647
G01 X6.05700 Y13.48835
G01 X6.30544 Y13.43555
G01 X6.54758 Y13.32567
G01 X6.74298 Y13.18294
G01 X6.90536 Y13.00352
G01 X7.03995 Y12.77421
G01 X7.12032 Y12.52074
G01 X7.14498 Y12.28000
G01 X7.12032 Y12.03928
G01 X7.03995 Y11.78582
G01 X6.91295 Y11.56585
G01 X6.75149 Y11.38564
G01 X6.73363 Y11.36951
G01 X6.52677 Y11.22232
G01 X6.30544 Y11.12450
G01 X6.05700 Y11.07172
G01 X5.80297 Y11.07172
G01 X5.56617 Y11.12135
G01 X5.33320 Y11.22232
G01 X5.31240 Y11.23441
G01 X5.11700 Y11.37708
G01 X4.95461 Y11.55656
G01 X4.94047 Y11.57594
G01 X4.81573 Y11.79707
G01 X4.74153 Y12.02740
G01 X4.71499 Y12.28000
G01 X4.61103 Y12.28003
G01 X4.62942 Y12.48701
G01 X4.64783 Y12.57832
G01 X4.67842 Y12.68668
G01 X4.71738 Y12.79237
G01 X4.75614 Y12.87703
G01 X4.86292 Y13.05528
G01 X4.99942 Y13.21190
G01 X5.12533 Y13.34147
G01 X5.17587 Y13.41096
G01 X5.17532 Y13.68945
G01 X5.24788 Y13.63854
G01 X5.35936 Y13.58734
G01 X5.55558 Y13.58734
G01 X5.51296 Y13.60062
G01 X5.28517 Y13.70316
G01 X5.06706 Y13.86163
G01 X4.88667 Y14.06199
G01 X4.75187 Y14.29549
G01 X4.66856 Y14.55188
G01 X4.64037 Y14.82000
G01 X4.66856 Y15.08815
G01 X4.74476 Y15.32602
G01 X4.76086 Y15.36224
G01 X4.88667 Y15.57804
G01 X5.06706 Y15.77839
G01 X5.28517 Y15.93686
G01 X5.51296 Y16.03940
G01 X5.55568 Y16.05271
G01 X5.35941 Y16.05271
G01 X5.24788 Y16.00148
G01 X5.17587 Y15.95096
G01 X5.24788 Y16.00148
G01 X5.35941 Y16.05271
G01 X6.30429 Y16.05271
G01 X6.32850 Y16.04652
G01 X6.55710 Y15.94586
G01 X6.59144 Y15.92604
G01 X6.79291 Y15.77839
G01 X6.96081 Y15.59346
G01 X6.98413 Y15.56138
G01 X7.10810 Y15.34454
G01 X7.18628 Y15.10730
G01 X7.19451 Y15.06854
G01 X7.21857 Y14.83984
G01 X7.21857 Y14.80019
G01 X7.19141 Y14.55188
G01 X7.11521 Y14.31401
G01 X7.09911 Y14.27779
G01 X6.97331 Y14.06199
G01 X6.79291 Y13.86163
G01 X6.57480 Y13.70316
G01 X6.34702 Y13.60062
G01 X6.30440 Y13.58734
G01 X6.61677 Y13.58734
G01 X6.63975 Y13.62770
G01 X6.73462 Y13.75858
G01 X6.86053 Y13.88815
G01 X6.99703 Y14.04477
G01 X7.10381 Y14.22302
G01 X7.14257 Y14.30768
G01 X7.18156 Y14.41337
G01 X7.21212 Y14.52173
G01 X7.22977 Y14.60860
G01 X7.24892 Y14.82041
G01 X7.23053 Y15.02701
G01 X7.21212 Y15.11832
G01 X7.18156 Y15.22668
G01 X7.14257 Y15.33237
G01 X7.10381 Y15.41703
G01 X6.99703 Y15.59528
G01 X6.86053 Y15.75190
G01 X6.73709 Y15.87849
G01 X6.63988 Y16.01256
G01 X6.61682 Y16.05271
G01 X6.30429 Y16.05271
G01 X6.50056 Y16.05271
G01 X6.61209 Y16.00148
G01 X6.68463 Y15.95055
G01 X6.61209 Y16.00148
G01 X6.50056 Y16.05271
G01 X5.24318 Y16.05271
G01 X5.22020 Y16.01235
G01 X5.12533 Y15.88147
G01 X4.99942 Y15.75190
G01 X4.86292 Y15.59528
G01 X4.75614 Y15.41703
G01 X4.71738 Y15.33237
G01 X4.67839 Y15.22668
G01 X4.64783 Y15.11832
G01 X4.62942 Y15.02701
G01 X4.61103 Y14.82041
G01 X4.71499 Y14.82000
G01 X4.74153 Y15.07263
G01 X4.82002 Y15.31421
G01 X4.94702 Y15.53417
G01 X5.11700 Y15.72294
G01 X5.32248 Y15.87225
G01 X5.55454 Y15.97555
G01 X5.80297 Y16.02835
G01 X6.05700 Y16.02835
G01 X6.30544 Y15.97555
G01 X6.53749 Y15.87225
G01 X6.74298 Y15.72294
G01 X6.91295 Y15.53417
G01 X7.03995 Y15.31421
G01 X7.11844 Y15.07263
G01 X7.14498 Y14.82000
G01 X7.11844 Y14.56740
G01 X7.03995 Y14.32582
G01 X6.91951 Y14.11594
G01 X6.73363 Y13.90951
G01 X6.53749 Y13.76778
G01 X6.30544 Y13.66448
G01 X6.05700 Y13.61167
G01 X5.80297 Y13.61167
G01 X5.55454 Y13.66448
G01 X5.33320 Y13.76232
G01 X5.10849 Y13.92562
G01 X4.94702 Y14.10585
G01 X4.82002 Y14.32582
G01 X4.74153 Y14.56740
G01 X4.71499 Y14.82000
G01 X4.61103 Y14.82041
G01 X4.63018 Y14.60860
G01 X4.64783 Y14.52173
G01 X4.67839 Y14.41337
G01 X4.71738 Y14.30768
G01 X4.75614 Y14.22302
G01 X4.85017 Y14.06499
G01 X4.87819 Y14.02640
G01 X4.99942 Y13.88815
G01 X5.12609 Y13.75767
G01 X5.22007 Y13.62750
G01 X5.24313 Y13.58734
G01 X6.50061 Y13.58734
G01 X6.61209 Y13.63854
G01 X6.68400 Y13.68901
G04 P0 ( dwell for no time -- G64 should not smooth over this point )
G00 Z0.50000 ( retract )

G00 X6.68463 Y18.49055 ( rapid move to begin. )
G01 F100.00000
( Mill infeed pass 1/1 )
G01 Z-0.17000
G04 P0 ( dwell for no time -- G64 should not smooth over this point )
G01 F200.00000
G01 X6.68463 Y18.49055
G01 X6.61209 Y18.54148
G01 X6.50056 Y18.59271
G01 X6.30429 Y18.59271
G01 X6.34702 Y18.57940
G01 X6.55710 Y18.48586
G01 X6.59144 Y18.46604
G01 X6.79291 Y18.31839
G01 X6.97331 Y18.11804
G01 X7.10810 Y17.88454
G01 X7.18628 Y17.64730
G01 X7.19451 Y17.60854
G01 X7.21857 Y17.37984
G01 X7.21857 Y17.34019
G01 X7.19141 Y17.09188
G01 X7.11521 Y16.85401
G01 X7.09911 Y16.81779
G01 X6.97331 Y16.60199
G01 X6.79291 Y16.40163
G01 X6.59144 Y16.25398
G01 X6.55710 Y16.23417
G01 X6.34702 Y16.14062
G01 X6.30440 Y16.12734
G01 X6.50061 Y16.12734
G01 X6.61209 Y16.17854
G01 X6.68400 Y16.22901
G01 X6.61209 Y16.17854
G01 X6.50061 Y16.12734
G01 X5.35936 Y16.12734
G01 X5.24788 Y16.17854
G01 X5.17532 Y16.22945
G01 X5.24788 Y16.17854
G01 X5.35936 Y16.12734
G01 X5.55558 Y16.12734
G01 X5.51296 Y16.14062
G01 X5.28517 Y16.24316
G01 X5.06706 Y16.40163
G01 X4.88667 Y16.60199
G01 X4.76086 Y16.81779
G01 X4.74476 Y16.85401
G01 X4.66856 Y17.09188
G01 X4.64141 Y17.34019
G01 X4.64141 Y17.37984
G01 X4.66546 Y17.60854
G01 X4.67369 Y17.64730
G01 X4.75187 Y17.88454
G01 X4.87585 Y18.10138
G01 X4.89917 Y18.13346
G01 X5.06706 Y18.31839
G01 X5.26853 Y18.46604
G01 X5.30287 Y18.48586
G01 X5.51296 Y18.57940
G01 X5.55568 Y18.59271
G01 X5.35941 Y18.59271
G01 X5.24788 Y18.54148
G01 X5.17587 Y18.49096
G01 X5.22020 Y18.55235
G01 X5.24318 Y18.59271
G01 X6.61682 Y18.59271
G01 X6.63988 Y18.55256
G01 X6.73386 Y18.42238
G01 X6.86053 Y18.29190
G01 X6.98176 Y18.15365
G01 X7.00978 Y18.11507
G01 X7.10381 Y17.95703
G01 X7.14257 Y17.87237
G01 X7.18156 Y17.76668
G01 X7.22347 Y17.60818
G01 X7.23053 Y17.56701
G01 X7.24892 Y17.36041
G01 X7.22977 Y17.14860
G01 X7.21212 Y17.06173
G01 X7.18156 Y16.95337
G01 X7.14257 Y16.84768
G01 X7.10381 Y16.76302
G01 X6.99703 Y16.58477
G01 X6.86053 Y16.42815
G01 X6.73462 Y16.29858
G01 X6.63975 Y16.16770
G01 X6.61677 Y16.12734
G01 X5.24313 Y16.12734
G01 X5.22007 Y16.16750
G01 X5.12286 Y16.30156
G01 X4.99942 Y16.42815
G01 X4.86292 Y16.58477
G01 X4.75614 Y16.76302
G01 X4.71738 Y16.84768
G01 X4.67839 Y16.95337
G01 X4.64783 Y17.06173
G01 X4.63018 Y17.14860
G01 X4.61103 Y17.36041
G01 X4.71499 Y17.36000
G01 X4.74153 Y17.10740
G01 X4.82002 Y16.86582
G01 X4.94702 Y16.64585
G01 X5.10849 Y16.46562
G01 X5.33320 Y16.30232
G01 X5.55454 Y16.20448
G01 X5.81501 Y16.15104
G01 X6.05700 Y16.15167
G01 X6.30544 Y16.20448
G01 X6.53749 Y16.30778
G01 X6.74298 Y16.45708
G01 X6.91295 Y16.64585
G01 X7.03995 Y16.86582
G01 X7.11844 Y17.10740
G01 X7.14498 Y17.36000
G01 X7.11844 Y17.61263
G01 X7.03995 Y17.85421
G01 X6.91295 Y18.07417
G01 X6.75149 Y18.25441
G01 X6.52677 Y18.41771
G01 X6.30544 Y18.51555
G01 X6.04496 Y18.56899
G01 X5.80297 Y18.56835
G01 X5.55454 Y18.51555
G01 X5.32248 Y18.41225
G01 X5.11700 Y18.26294
G01 X4.94702 Y18.07417
G01 X4.82002 Y17.85421
G01 X4.74153 Y17.61263
G01 X4.71499 Y17.36000
G01 X4.61103 Y17.36041
G01 X4.62942 Y17.56701
G01 X4.64783 Y17.65832
G01 X4.67839 Y17.76668
G01 X4.71738 Y17.87237
G01 X4.75614 Y17.95703
G01 X4.86292 Y18.13528
G01 X4.99942 Y18.29190
G01 X5.12533 Y18.42147
G01 X5.17587 Y18.49096
G04 P0 ( dwell for no time -- G64 should not smooth over this point )
G00 Z0.50000 ( retract )

G00 X6.68463 Y21.03055 ( rapid move to begin. )
G01 F100.00000
( Mill infeed pass 1/1 )
G01 Z-0.17000
G04 P0 ( dwell for no time -- G64 should not smooth over this point )
G01 F200.00000
G01 X6.68463 Y21.03055
G01 X6.61209 Y21.08148
G01 X6.50056 Y21.13271
G01 X6.30429 Y21.13271
G01 X6.34702 Y21.11940
G01 X6.55710 Y21.02586
G01 X6.59144 Y21.00604
G01 X6.79291 Y20.85839
G01 X6.97331 Y20.65804
G01 X7.10810 Y20.42454
G01 X7.18628 Y20.18730
G01 X7.19451 Y20.14854
G01 X7.21857 Y19.91984
G01 X7.21857 Y19.88019
G01 X7.19141 Y19.63188
G01 X7.11521 Y19.39401
G01 X7.09911 Y19.35779
G01 X6.97331 Y19.14199
G01 X6.79291 Y18.94163
G01 X6.59144 Y18.79398
G01 X6.55710 Y18.77417
G01 X6.34702 Y18.68062
G01 X6.30440 Y18.66734
G01 X6.50061 Y18.66734
G01 X6.61209 Y18.71854
G01 X6.68400 Y18.76901
G01 X6.61209 Y18.71854
G01 X6.50061 Y18.66734
G01 X5.35936 Y18.66734
G01 X5.24788 Y18.71854
G01 X5.17532 Y18.76945
G01 X5.24788 Y18.71854
G01 X5.35936 Y18.66734
G01 X5.55558 Y18.66734
G01 X5.51296 Y18.68062
G01 X5.28517 Y18.78316
G01 X5.06706 Y18.94163
G01 X4.88667 Y19.14199
G01 X4.76086 Y19.35779
G01 X4.74476 Y19.39401
G01 X4.66856 Y19.63188
G01 X4.64141 Y19.88019
G01 X4.64141 Y19.91984
G01 X4.66546 Y20.14854
G01 X4.67369 Y20.18730
G01 X4.75187 Y20.42454
G01 X4.87585 Y20.64138
G01 X4.89917 Y20.67346
G01 X5.06706 Y20.85839
G01 X5.26853 Y21.00604
G01 X5.30287 Y21.02586
G01 X5.51296 Y21.11940
G01 X5.55568 Y21.13271
G01 X5.35941 Y21.13271
G01 X5.24788 Y21.08148
G01 X5.17587 Y21.03096
G01 X5.22020 Y21.09235
G01 X5.24318 Y21.13271
G01 X6.61682 Y21.13271
G01 X6.63988 Y21.09256
G01 X6.73386 Y20.96238
G01 X6.86053 Y20.83190
G01 X6.98176 Y20.69365
G01 X7.00978 Y20.65507
G01 X7.10381 Y20.49703
G01 X7.14257 Y20.41237
G01 X7.18156 Y20.30668
G01 X7.22347 Y20.14818
G01 X7.23053 Y20.10701
G01 X7.24892 Y19.90041
G01 X7.22977 Y19.68860
G01 X7.21212 Y19.60173
G01 X7.18156 Y19.49337
G01 X7.14257 Y19.38768
G01 X7.10381 Y19.30302
G01 X6.99703 Y19.12477
G01 X6.86053 Y18.96815
G01 X6.73462 Y18.83858
G01 X6.63975 Y18.70770
G01 X6.61677 Y18.66734
G01 X5.24313 Y18.66734
G01 X5.22007 Y18.70750
G01 X5.12286 Y18.84156
G01 X4.99942 Y18.96815
G01 X4.86292 Y19.12477
G01 X4.75614 Y19.30302
G01 X4.71738 Y19.38768
G01 X4.67839 Y19.49337
G01 X4.64783 Y19.60173
G01 X4.63018 Y19.68860
G01 X4.61103 Y19.90041
G01 X4.71499 Y19.90000
G01 X4.74153 Y19.64740
G01 X4.82002 Y19.40582
G01 X4.94702 Y19.18585
G01 X5.10849 Y19.00562
G01 X5.33320 Y18.84232
G01 X5.55454 Y18.74448
G01 X5.81501 Y18.69104
G01 X6.05700 Y18.69167
G01 X6.30544 Y18.74448
G01 X6.53749 Y18.84778
G01 X6.74298 Y18.99708
G01 X6.91295 Y19.18585
G01 X7.03995 Y19.40582
G01 X7.11844 Y19.64740
G01 X7.14498 Y19.90000
G01 X7.11844 Y20.15263
G01 X7.03995 Y20.39421
G01 X6.91295 Y20.61417
G01 X6.75149 Y20.79441
G01 X6.52677 Y20.95771
G01 X6.30544 Y21.05555
G01 X6.04496 Y21.10899
G01 X5.80297 Y21.10835
G01 X5.55454 Y21.05555
G01 X5.32248 Y20.95225
G01 X5.11700 Y20.80294
G01 X4.94702 Y20.61417
G01 X4.82002 Y20.39421
G01 X4.74153 Y20.15263
G01 X4.71499 Y19.90000
G01 X4.61103 Y19.90041
G01 X4.62942 Y20.10701
G01 X4.64773 Y20.19794
G01 X4.67839 Y20.30668
G01 X4.71738 Y20.41237
G01 X4.75614 Y20.49703
G01 X4.86292 Y20.67528
G01 X4.99942 Y20.83190
G01 X5.12533 Y20.96147
G01 X5.17587 Y21.03096
G04 P0 ( dwell for no time -- G64 should not smooth over this point )
G00 Z0.50000 ( retract )

G00 X6.68463 Y23.57055 ( rapid move to begin. )
G01 F100.00000
( Mill infeed pass 1/1 )
G01 Z-0.17000
G04 P0 ( dwell for no time -- G64 should not smooth over this point )
G01 F200.00000
G01 X6.68463 Y23.57055
G01 X6.61209 Y23.62148
G01 X6.50056 Y23.67271
G01 X6.30429 Y23.67271
G01 X6.34702 Y23.65940
G01 X6.55710 Y23.56586
G01 X6.59144 Y23.54604
G01 X6.79291 Y23.39839
G01 X6.97331 Y23.19804
G01 X7.10810 Y22.96454
G01 X7.18628 Y22.72730
G01 X7.19451 Y22.68854
G01 X7.21857 Y22.45984
G01 X7.21857 Y22.42019
G01 X7.19141 Y22.17188
G01 X7.11521 Y21.93401
G01 X7.09911 Y21.89779
G01 X6.97331 Y21.68199
G01 X6.79291 Y21.48163
G01 X6.59144 Y21.33398
G01 X6.55710 Y21.31417
G01 X6.34702 Y21.22062
G01 X6.30440 Y21.20734
G01 X6.50061 Y21.20734
G01 X6.61209 Y21.25854
G01 X6.68400 Y21.30901
G01 X6.61209 Y21.25854
G01 X6.50061 Y21.20734
G01 X5.35936 Y21.20734
G01 X5.24788 Y21.25854
G01 X5.17532 Y21.30945
G01 X5.24788 Y21.25854
G01 X5.35936 Y21.20734
G01 X5.55558 Y21.20734
G01 X5.51296 Y21.22062
G01 X5.28517 Y21.32316
G01 X5.06706 Y21.48163
G01 X4.88667 Y21.68199
G01 X4.76086 Y21.89779
G01 X4.74476 Y21.93401
G01 X4.66856 Y22.17188
G01 X4.64141 Y22.42019
G01 X4.64141 Y22.45984
G01 X4.66546 Y22.68854
G01 X4.67369 Y22.72730
G01 X4.75187 Y22.96454
G01 X4.87585 Y23.18138
G01 X4.89917 Y23.21346
G01 X5.06706 Y23.39839
G01 X5.26853 Y23.54604
G01 X5.30287 Y23.56586
G01 X5.51296 Y23.65940
G01 X5.55568 Y23.67271
G01 X5.35941 Y23.67271
G01 X5.24788 Y23.62148
G01 X5.17587 Y23.57096
G01 X5.22020 Y23.63235
G01 X5.24318 Y23.67271
G01 X6.61682 Y23.67271
G01 X6.63988 Y23.63256
G01 X6.73386 Y23.50238
G01 X6.86053 Y23.37190
G01 X6.98176 Y23.23365
G01 X7.00978 Y23.19507
G01 X7.10381 Y23.03703
G01 X7.14257 Y22.95237
G01 X7.18156 Y22.84668
G01 X7.22347 Y22.68818
G01 X7.23053 Y22.64701
G01 X7.24892 Y22.44041
G01 X7.22977 Y22.22860
G01 X7.21212 Y22.14173
G01 X7.18156 Y22.03337
G01 X7.14257 Y21.92768
G01 X7.10381 Y21.84302
G01 X6.99703 Y21.66477
G01 X6.86053 Y21.50815
G01 X6.73462 Y21.37858
G01 X6.63975 Y21.24770
G01 X6.61677 Y21.20734
G01 X5.24313 Y21.20734
G01 X5.22007 Y21.24750
G01 X5.12286 Y21.38156
G01 X4.99942 Y21.50815
G01 X4.86292 Y21.66477
G01 X4.75614 Y21.84302
G01 X4.71738 Y21.92768
G01 X4.67839 Y22.03337
G01 X4.64783 Y22.14173
G01 X4.63018 Y22.22860
G01 X4.61103 Y22.44041
G01 X4.71499 Y22.44000
G01 X4.74153 Y22.18740
G01 X4.82002 Y21.94582
G01 X4.94702 Y21.72585
G01 X5.10849 Y21.54562
G01 X5.33320 Y21.38232
G01 X5.55454 Y21.28448
G01 X5.81501 Y21.23104
G01 X6.05700 Y21.23167
G01 X6.30544 Y21.28448
G01 X6.53749 Y21.38778
G01 X6.74298 Y21.53708
G01 X6.91295 Y21.72585
G01 X7.03995 Y21.94582
G01 X7.11844 Y22.18740
G01 X7.14498 Y22.44000
G01 X7.11844 Y22.69263
G01 X7.03995 Y22.93421
G01 X6.91295 Y23.15417
G01 X6.75149 Y23.33441
G01 X6.52677 Y23.49771
G01 X6.30544 Y23.59555
G01 X6.04496 Y23.64899
G01 X5.80297 Y23.64835
G01 X5.55454 Y23.59555
G01 X5.32248 Y23.49225
G01 X5.11700 Y23.34294
G01 X4.94702 Y23.15417
G01 X4.82002 Y22.93421
G01 X4.74153 Y22.69263
G01 X4.71499 Y22.44000
G01 X4.61103 Y22.44041
G01 X4.62942 Y22.64701
G01 X4.64783 Y22.73832
G01 X4.67839 Y22.84668
G01 X4.71738 Y22.95237
G01 X4.75614 Y23.03703
G01 X4.86292 Y23.21528
G01 X4.99942 Y23.37190
G01 X5.12533 Y23.50147
G01 X5.17587 Y23.57096
G04 P0 ( dwell for no time -- G64 should not smooth over this point )
G00 Z0.50000 ( retract )

G00 X6.68463 Y26.11055 ( rapid move to begin. )
G01 F100.00000
( Mill infeed pass 1/1 )
G01 Z-0.17000
G04 P0 ( dwell for no time -- G64 should not smooth over this point )
G01 F200.00000
G01 X6.68463 Y26.11055
G01 X6.61209 Y26.16148
G01 X6.50056 Y26.21271
G01 X6.30429 Y26.21271
G01 X6.34702 Y26.19940
G01 X6.55710 Y26.10586
G01 X6.59144 Y26.08604
G01 X6.79291 Y25.93839
G01 X6.97331 Y25.73804
G01 X7.10810 Y25.50454
G01 X7.18628 Y25.26730
G01 X7.19451 Y25.22854
G01 X7.21857 Y24.99984
G01 X7.21857 Y24.96019
G01 X7.19141 Y24.71188
G01 X7.11521 Y24.47401
G01 X7.09911 Y24.43779
G01 X6.97331 Y24.22199
G01 X6.79291 Y24.02163
G01 X6.59144 Y23.87398
G01 X6.55710 Y23.85417
G01 X6.34702 Y23.76062
G01 X6.30440 Y23.74734
G01 X6.50061 Y23.74734
G01 X6.61209 Y23.79854
G01 X6.68400 Y23.84901
G01 X6.61209 Y23.79854
G01 X6.50061 Y23.74734
G01 X5.35936 Y23.74734
G01 X5.24788 Y23.79854
G01 X5.17532 Y23.84945
G01 X5.24788 Y23.79854
G01 X5.35936 Y23.74734
G01 X5.55558 Y23.74734
G01 X5.51296 Y23.76062
G01 X5.28517 Y23.86316
G01 X5.06706 Y24.02163
G01 X4.88667 Y24.22199
G01 X4.76086 Y24.43779
G01 X4.74476 Y24.47401
G01 X4.66856 Y24.71188
G01 X4.64141 Y24.96019
G01 X4.64141 Y24.99984
G01 X4.66546 Y25.22854
G01 X4.67369 Y25.26730
G01 X4.75187 Y25.50454
G01 X4.87585 Y25.72138
G01 X4.89917 Y25.75346
G01 X5.06706 Y25.93839
G01 X5.26853 Y26.08604
G01 X5.30287 Y26.10586
G01 X5.51296 Y26.19940
G01 X5.55568 Y26.21271
G01 X5.35941 Y26.21271
G01 X5.24788 Y26.16148
G01 X5.17587 Y26.11096
G01 X5.22020 Y26.17235
G01 X5.24318 Y26.21271
G01 X6.61682 Y26.21271
G01 X6.63988 Y26.17256
G01 X6.73386 Y26.04238
G01 X6.86053 Y25.91190
G01 X6.98176 Y25.77365
G01 X7.00978 Y25.73507
G01 X7.10361 Y25.57736
G01 X7.14237 Y25.49237
G01 X7.18278 Y25.38234
G01 X7.22347 Y25.22818
G01 X7.23053 Y25.18701
G01 X7.24892 Y24.98041
G01 X7.22977 Y24.76860
G01 X7.21212 Y24.68173
G01 X7.18156 Y24.57337
G01 X7.14257 Y24.46768
G01 X7.10381 Y24.38302
G01 X6.99703 Y24.20477
G01 X6.86053 Y24.04815
G01 X6.73462 Y23.91858
G01 X6.63975 Y23.78770
G01 X6.61677 Y23.74734
G01 X5.24313 Y23.74734
G01 X5.22007 Y23.78750
G01 X5.12286 Y23.92156
G01 X4.99942 Y24.04815
G01 X4.86292 Y24.20477
G01 X4.75614 Y24.38302
G01 X4.71738 Y24.46768
G01 X4.67839 Y24.57337
G01 X4.64783 Y24.68173
G01 X4.63018 Y24.76860
G01 X4.61103 Y24.98041
G01 X4.71499 Y24.98000
G01 X4.74153 Y24.72740
G01 X4.82002 Y24.48582
G01 X4.94702 Y24.26585
G01 X5.10849 Y24.08562
G01 X5.33320 Y23.92232
G01 X5.55454 Y23.82448
G01 X5.81501 Y23.77104
G01 X6.05700 Y23.77167
G01 X6.30544 Y23.82448
G01 X6.53749 Y23.92778
G01 X6.74298 Y24.07708
G01 X6.91295 Y24.26585
G01 X7.03995 Y24.48582
G01 X7.11844 Y24.72740
G01 X7.14498 Y24.98000
G01 X7.11844 Y25.23263
G01 X7.03995 Y25.47421
G01 X6.91295 Y25.69417
G01 X6.75149 Y25.87441
G01 X6.52677 Y26.03771
G01 X6.30544 Y26.13555
G01 X6.04496 Y26.18899
G01 X5.80297 Y26.18835
G01 X5.55454 Y26.13555
G01 X5.32248 Y26.03225
G01 X5.11700 Y25.88294
G01 X4.94702 Y25.69417
G01 X4.82002 Y25.47421
G01 X4.74153 Y25.23263
G01 X4.71499 Y24.98000
G01 X4.61103 Y24.98041
G01 X4.62942 Y25.18701
G01 X4.64783 Y25.27832
G01 X4.67717 Y25.38234
G01 X4.71758 Y25.49237
G01 X4.75634 Y25.57736
G01 X4.86292 Y25.75528
G01 X4.99942 Y25.91190
G01 X5.12533 Y26.04147
G01 X5.17587 Y26.11096
G04 P0 ( dwell for no time -- G64 should not smooth over this point )
G00 Z0.50000 ( retract )

G00 X4.84705 Y28.45010 ( rapid move to begin. )
G01 F100.00000
( Mill infeed pass 1/1 )
G01 Z-0.17000
G04 P0 ( dwell for no time -- G64 should not smooth over this point )
G01 F200.00000
G01 X4.84705 Y28.45010
G01 X4.80829 Y28.36176
G01 X4.66930 Y28.10999
G01 X4.60788 Y27.95114
G01 X4.57537 Y27.83773
G01 X4.55525 Y27.73529
G01 X4.53600 Y27.52246
G01 X4.55502 Y27.30471
G01 X4.57527 Y27.20433
G01 X4.60679 Y27.09163
G01 X4.64844 Y26.97913
G01 X4.68967 Y26.88863
G01 X4.80376 Y26.69877
G01 X4.94430 Y26.53786
G01 X5.06709 Y26.41195
G01 X5.12690 Y26.32907
G01 X5.13160 Y26.21728
G01 X5.12749 Y26.17139
G01 X5.13160 Y26.21728
G01 X5.12690 Y26.32907
G01 X5.17854 Y26.24997
G01 X5.15840 Y26.21424
G01 X5.06942 Y26.09095
G01 X4.94430 Y25.96219
G01 X4.80077 Y25.79742
G01 X4.69145 Y25.61424
G01 X4.66998 Y25.57174
G01 X4.60663 Y25.40672
G01 X4.56302 Y25.24380
G01 X4.55525 Y25.19532
G01 X4.53823 Y25.01020
G01 X4.53780 Y24.95076
G01 X4.55601 Y24.76024
G01 X4.57488 Y24.66423
G01 X4.60788 Y24.54891
G01 X4.64844 Y24.43913
G01 X4.68987 Y24.34871
G01 X4.80371 Y24.15874
G01 X4.94430 Y23.99786
G01 X5.06709 Y23.87195
G01 X5.12690 Y23.78907
G01 X5.13160 Y23.67728
G01 X5.12749 Y23.63141
G01 X5.13160 Y23.67728
G01 X5.12690 Y23.78907
G01 X5.17854 Y23.70997
G01 X5.15840 Y23.67424
G01 X5.06942 Y23.55095
G01 X4.94430 Y23.42219
G01 X4.80077 Y23.25742
G01 X4.68987 Y23.07134
G01 X4.64844 Y22.98092
G01 X4.60788 Y22.87114
G01 X4.57527 Y22.75572
G01 X4.55525 Y22.65529
G01 X4.53595 Y22.43792
G01 X4.55601 Y22.22024
G01 X4.57488 Y22.12423
G01 X4.60788 Y22.00891
G01 X4.64844 Y21.89913
G01 X4.68987 Y21.80871
G01 X4.80371 Y21.61874
G01 X4.94430 Y21.45786
G01 X5.06709 Y21.33195
G01 X5.12690 Y21.24907
G01 X5.13160 Y21.13728
G01 X5.12749 Y21.09139
G01 X5.13160 Y21.13728
G01 X5.12690 Y21.24907
G01 X5.17854 Y21.16997
G01 X5.15840 Y21.13424
G01 X5.06942 Y21.01095
G01 X4.94430 Y20.88219
G01 X4.80077 Y20.71742
G01 X4.68987 Y20.53134
G01 X4.64844 Y20.44092
G01 X4.60788 Y20.33114
G01 X4.57516 Y20.21534
G01 X4.55525 Y20.11532
G01 X4.53595 Y19.89792
G01 X4.55601 Y19.68024
G01 X4.57488 Y19.58423
G01 X4.60788 Y19.46891
G01 X4.64844 Y19.35913
G01 X4.68987 Y19.26871
G01 X4.80371 Y19.07874
G01 X4.94430 Y18.91786
G01 X5.06709 Y18.79195
G01 X5.12690 Y18.70907
G01 X5.13160 Y18.59728
G01 X5.12749 Y18.55139
G01 X5.13160 Y18.59728
G01 X5.12690 Y18.70907
G01 X5.17854 Y18.62997
G01 X5.15837 Y18.59416
G01 X5.06947 Y18.47100
G01 X4.94430 Y18.34219
G01 X4.80077 Y18.17742
G01 X4.68987 Y17.99134
G01 X4.64844 Y17.90092
G01 X4.60788 Y17.79114
G01 X4.57527 Y17.67572
G01 X4.55525 Y17.57529
G01 X4.53595 Y17.35792
G01 X4.55601 Y17.14024
G01 X4.57488 Y17.04423
G01 X4.60788 Y16.92891
G01 X4.64844 Y16.81913
G01 X4.68987 Y16.72871
G01 X4.80371 Y16.53874
G01 X4.94430 Y16.37786
G01 X5.06709 Y16.25195
G01 X5.12690 Y16.16907
G01 X5.13160 Y16.05728
G01 X5.12749 Y16.01141
G01 X5.13160 Y16.05728
G01 X5.12690 Y16.16907
G01 X5.17854 Y16.08997
G01 X5.15840 Y16.05424
G01 X5.06947 Y15.93100
G01 X4.94430 Y15.80219
G01 X4.80376 Y15.64128
G01 X4.69106 Y15.45401
G01 X4.64844 Y15.36092
G01 X4.60770 Y15.25122
G01 X4.57527 Y15.13572
G01 X4.55540 Y15.03824
G01 X4.53612 Y14.81792
G01 X4.55568 Y14.60016
G01 X4.57527 Y14.50433
G01 X4.60788 Y14.38891
G01 X4.64727 Y14.28076
G01 X4.68987 Y14.18871
G01 X4.80364 Y13.99869
G01 X4.94430 Y13.83786
G01 X5.06709 Y13.71195
G01 X5.12690 Y13.62907
G01 X5.13160 Y13.51728
G01 X5.12749 Y13.47141
G01 X5.13160 Y13.51728
G01 X5.12690 Y13.62907
G01 X5.17854 Y13.54997
G01 X5.15840 Y13.51424
G01 X5.06942 Y13.39095
G01 X4.94430 Y13.26219
G01 X4.80069 Y13.09747
G01 X4.68987 Y12.91134
G01 X4.64727 Y12.81929
G01 X4.60788 Y12.71114
G01 X4.57527 Y12.59572
G01 X4.55489 Y12.49537
G01 X4.53640 Y12.27756
G01 X4.50648 Y12.28003
G01 X4.52396 Y12.05762
G01 X4.57791 Y11.83586
G01 X4.66163 Y11.63377
G01 X4.77834 Y11.44332
G01 X4.92337 Y11.27347
G01 X5.09325 Y11.12839
G01 X5.28372 Y11.01168
G01 X5.49007 Y10.92621
G01 X5.70272 Y10.87515
G01 X5.93000 Y10.85658
G01 X6.15713 Y10.87535
G01 X6.36980 Y10.92646
G01 X6.57613 Y11.01185
G01 X6.76657 Y11.12859
G01 X6.93637 Y11.27363
G01 X7.08141 Y11.44345
G01 X7.19812 Y11.63387
G01 X7.28181 Y11.83593
G01 X7.33574 Y12.05762
G01 X7.35324 Y12.28003
G01 X7.33571 Y12.50271
G01 X7.28359 Y12.71985
G01 X7.19812 Y12.92620
G01 X7.08166 Y13.11678
G01 X6.93640 Y13.28642
G01 X6.88951 Y13.32899
G01 X6.83429 Y13.41002
G01 X6.81755 Y13.44195
G01 X6.80716 Y13.47644
G01 X6.80297 Y13.58330
G01 X6.80622 Y13.61965
G01 X6.81636 Y13.65470
G01 X6.87237 Y13.74835
G01 X6.88905 Y13.77055
G01 X6.93640 Y13.81363
G01 X7.08166 Y13.98322
G01 X7.19812 Y14.17385
G01 X7.28359 Y14.38020
G01 X7.33465 Y14.59287
G01 X7.35321 Y14.82028
G01 X7.33571 Y15.04271
G01 X7.28359 Y15.25985
G01 X7.19812 Y15.46620
G01 X7.08166 Y15.65678
G01 X6.93640 Y15.82642
G01 X6.88951 Y15.86899
G01 X6.83429 Y15.95002
G01 X6.81755 Y15.98195
G01 X6.80716 Y16.01644
G01 X6.80297 Y16.12330
G01 X6.80622 Y16.15965
G01 X6.81636 Y16.19470
G01 X6.87237 Y16.28835
G01 X6.88905 Y16.31055
G01 X6.93640 Y16.35363
G01 X7.08166 Y16.52322
G01 X7.19812 Y16.71385
G01 X7.28359 Y16.92020
G01 X7.33465 Y17.13287
G01 X7.35321 Y17.36028
G01 X7.33571 Y17.58271
G01 X7.28359 Y17.79985
G01 X7.19812 Y18.00620
G01 X7.08166 Y18.19678
G01 X6.93640 Y18.36642
G01 X6.88951 Y18.40899
G01 X6.83429 Y18.49002
G01 X6.81755 Y18.52195
G01 X6.80716 Y18.55644
G01 X6.80297 Y18.66330
G01 X6.80622 Y18.69965
G01 X6.81636 Y18.73470
G01 X6.87237 Y18.82835
G01 X6.88905 Y18.85055
G01 X6.93640 Y18.89363
G01 X7.08166 Y19.06325
G01 X7.19812 Y19.25385
G01 X7.28359 Y19.46020
G01 X7.33465 Y19.67287
G01 X7.35321 Y19.90028
G01 X7.33571 Y20.12271
G01 X7.31181 Y20.22233
G01 X7.28359 Y20.33983
G01 X7.19812 Y20.54620
G01 X7.08164 Y20.73680
G01 X6.93640 Y20.90642
G01 X6.88951 Y20.94899
G01 X6.83429 Y21.03002
G01 X6.81755 Y21.06195
G01 X6.80716 Y21.09644
G01 X6.80297 Y21.20330
G01 X6.80622 Y21.23965
G01 X6.81636 Y21.27470
G01 X6.87237 Y21.36835
G01 X6.88905 Y21.39055
G01 X6.93640 Y21.43363
G01 X7.08166 Y21.60325
G01 X7.19812 Y21.79385
G01 X7.28359 Y22.00020
G01 X7.33465 Y22.21287
G01 X7.35321 Y22.44028
G01 X7.33571 Y22.66271
G01 X7.28359 Y22.87985
G01 X7.19812 Y23.08620
G01 X7.08164 Y23.27680
G01 X6.93640 Y23.44642
G01 X6.88951 Y23.48899
G01 X6.83429 Y23.57002
G01 X6.81755 Y23.60195
G01 X6.80716 Y23.63644
G01 X6.80297 Y23.74330
G01 X6.80622 Y23.77965
G01 X6.81636 Y23.81470
G01 X6.87237 Y23.90835
G01 X6.88905 Y23.93055
G01 X6.93640 Y23.97363
G01 X7.08166 Y24.14325
G01 X7.19812 Y24.33385
G01 X7.28359 Y24.54020
G01 X7.33465 Y24.75287
G01 X7.35321 Y24.98028
G01 X7.33571 Y25.20273
G01 X7.28468 Y25.41531
G01 X7.19799 Y25.62640
G01 X7.08166 Y25.81678
G01 X6.93640 Y25.98642
G01 X6.88951 Y26.02899
G01 X6.83429 Y26.11002
G01 X6.81755 Y26.14195
G01 X6.80716 Y26.17644
G01 X6.80297 Y26.28330
G01 X6.80622 Y26.31965
G01 X6.81636 Y26.35470
G01 X6.87237 Y26.44835
G01 X6.88905 Y26.47055
G01 X6.93640 Y26.51363
G01 X7.08166 Y26.68325
G01 X7.19812 Y26.87385
G01 X7.28359 Y27.08020
G01 X7.33465 Y27.29287
G01 X7.35321 Y27.52028
G01 X7.33571 Y27.74271
G01 X7.28359 Y27.95985
G01 X7.19812 Y28.16618
G01 X7.11694 Y28.30235
G01 X7.08948 Y28.39643
G01 X7.08344 Y28.43194
G01 X7.08420 Y28.46798
G01 X7.09177 Y28.50321
G01 X7.12388 Y28.59744
G01 X7.15654 Y28.64425
G01 X7.20919 Y28.69579
G01 X7.25779 Y28.73222
G01 X7.31412 Y28.80443
G01 X7.34580 Y28.89394
G01 X7.34971 Y28.92198
G01 X7.34971 Y31.19807
G01 X7.34580 Y31.22611
G01 X7.31354 Y31.31524
G01 X7.25832 Y31.38837
G01 X7.18504 Y31.44328
G01 X7.09632 Y31.47702
G01 X7.06784 Y31.47889
G01 X4.79200 Y31.47976
G01 X4.76386 Y31.47582
G01 X4.67476 Y31.44361
G01 X4.60163 Y31.38837
G01 X4.54672 Y31.31509
G01 X4.51298 Y31.22634
G01 X4.51024 Y28.92203
G01 X4.51415 Y28.89394
G01 X4.54641 Y28.80481
G01 X4.60186 Y28.73191
G01 X4.67118 Y28.67806
G01 X4.73137 Y28.60080
G01 X4.75014 Y28.56999
G01 X4.76274 Y28.53618
G01 X4.77369 Y28.42978
G01 X4.76912 Y28.37293
G01 X4.74481 Y28.30669
G01 X4.66165 Y28.16628
G01 X4.57613 Y27.95988
G01 X4.52398 Y27.74271
G01 X4.50648 Y27.52000
G01 X4.52398 Y27.29734
G01 X4.57613 Y27.08017
G01 X4.66160 Y26.87377
G01 X4.77829 Y26.68330
G01 X4.92355 Y26.51363
G01 X4.97044 Y26.47106
G01 X5.02566 Y26.39003
G01 X5.04240 Y26.35810
G01 X5.05279 Y26.32361
G01 X5.05698 Y26.21675
G01 X5.05373 Y26.18040
G01 X5.04359 Y26.14535
G01 X4.98758 Y26.05170
G01 X4.97090 Y26.02950
G01 X4.92355 Y25.98640
G01 X4.77826 Y25.81678
G01 X4.66175 Y25.62651
G01 X4.57506 Y25.41541
G01 X4.52401 Y25.20271
G01 X4.50648 Y24.98028
G01 X4.52508 Y24.75282
G01 X4.57613 Y24.54017
G01 X4.66160 Y24.33377
G01 X4.77829 Y24.14330
G01 X4.92355 Y23.97363
G01 X4.97044 Y23.93106
G01 X5.02566 Y23.85003
G01 X5.04240 Y23.81810
G01 X5.05279 Y23.78361
G01 X5.05698 Y23.67675
G01 X5.05373 Y23.64040
G01 X5.04359 Y23.60535
G01 X4.98758 Y23.51170
G01 X4.97090 Y23.48950
G01 X4.92355 Y23.44640
G01 X4.77826 Y23.27680
G01 X4.66160 Y23.08628
G01 X4.57613 Y22.87988
G01 X4.52398 Y22.66271
G01 X4.50648 Y22.44028
G01 X4.52508 Y22.21282
G01 X4.57613 Y22.00017
G01 X4.66160 Y21.79377
G01 X4.77829 Y21.60330
G01 X4.92355 Y21.43365
G01 X4.97044 Y21.39106
G01 X5.02566 Y21.31003
G01 X5.04240 Y21.27810
G01 X5.05279 Y21.24361
G01 X5.05698 Y21.13675
G01 X5.05373 Y21.10040
G01 X5.04359 Y21.06535
G01 X4.98758 Y20.97170
G01 X4.97090 Y20.94950
G01 X4.92355 Y20.90640
G01 X4.77826 Y20.73680
G01 X4.66160 Y20.54628
G01 X4.57613 Y20.33988
G01 X4.52398 Y20.12271
G01 X4.50648 Y19.90028
G01 X4.52508 Y19.67282
G01 X4.57613 Y19.46017
G01 X4.66160 Y19.25377
G01 X4.77829 Y19.06330
G01 X4.92355 Y18.89365
G01 X4.97044 Y18.85106
G01 X5.02566 Y18.77003
G01 X5.04240 Y18.73810
G01 X5.05279 Y18.70361
G01 X5.05698 Y18.59675
G01 X5.05373 Y18.56040
G01 X5.04359 Y18.52535
G01 X4.98758 Y18.43170
G01 X4.97090 Y18.40950
G01 X4.92355 Y18.36640
G01 X4.77826 Y18.19678
G01 X4.66160 Y18.00628
G01 X4.57613 Y17.79990
G01 X4.52398 Y17.58271
G01 X4.50648 Y17.36028
G01 X4.52508 Y17.13282
G01 X4.57613 Y16.92017
G01 X4.66160 Y16.71377
G01 X4.77829 Y16.52327
G01 X4.92355 Y16.35365
G01 X4.97044 Y16.31106
G01 X5.02566 Y16.23003
G01 X5.04240 Y16.19810
G01 X5.05279 Y16.16361
G01 X5.05698 Y16.05675
G01 X5.05373 Y16.02040
G01 X5.04359 Y15.98535
G01 X4.98758 Y15.89170
G01 X4.97090 Y15.86950
G01 X4.92355 Y15.82642
G01 X4.77826 Y15.65678
G01 X4.66160 Y15.46628
G01 X4.57613 Y15.25988
G01 X4.52398 Y15.04271
G01 X4.50648 Y14.82028
G01 X4.52508 Y14.59282
G01 X4.57613 Y14.38017
G01 X4.66160 Y14.17377
G01 X4.77836 Y13.98332
G01 X4.92355 Y13.81365
G01 X4.97044 Y13.77106
G01 X5.02566 Y13.69003
G01 X5.04240 Y13.65810
G01 X5.05279 Y13.62361
G01 X5.05698 Y13.51675
G01 X5.05373 Y13.48040
G01 X5.04359 Y13.44535
G01 X4.98758 Y13.35170
G01 X4.97090 Y13.32950
G01 X4.92355 Y13.28642
G01 X4.77829 Y13.11675
G01 X4.66160 Y12.92628
G01 X4.57613 Y12.71988
G01 X4.52398 Y12.50271
G01 X4.50648 Y12.28003
G01 X4.43186 Y12.28003
G01 X4.45030 Y12.51439
G01 X4.50519 Y12.74297
G01 X4.59513 Y12.96014
G01 X4.71799 Y13.16062
G01 X4.87062 Y13.33933
G01 X4.90272 Y13.36674
G01 X4.92480 Y13.39204
G01 X4.97425 Y13.47291
G01 X4.98238 Y13.51622
G01 X4.97963 Y13.60895
G01 X4.96317 Y13.64924
G01 X4.91441 Y13.72178
G01 X4.87062 Y13.76072
G01 X4.71799 Y13.93943
G01 X4.59513 Y14.13992
G01 X4.50519 Y14.35709
G01 X4.45142 Y14.58104
G01 X4.43188 Y14.82018
G01 X4.45030 Y15.05439
G01 X4.50519 Y15.28297
G01 X4.59513 Y15.50014
G01 X4.71799 Y15.70062
G01 X4.87062 Y15.87933
G01 X4.90272 Y15.90674
G01 X4.92480 Y15.93204
G01 X4.97425 Y16.01291
G01 X4.98238 Y16.05622
G01 X4.97963 Y16.14895
G01 X4.96317 Y16.18924
G01 X4.91441 Y16.26178
G01 X4.87062 Y16.30072
G01 X4.71799 Y16.47943
G01 X4.59513 Y16.67992
G01 X4.50519 Y16.89709
G01 X4.45142 Y17.12104
G01 X4.43188 Y17.36018
G01 X4.45030 Y17.59439
G01 X4.50519 Y17.82297
G01 X4.59513 Y18.04014
G01 X4.71799 Y18.24062
G01 X4.87064 Y18.41936
G01 X4.90272 Y18.44674
G01 X4.92480 Y18.47204
G01 X4.97425 Y18.55291
G01 X4.98238 Y18.59622
G01 X4.97963 Y18.68895
G01 X4.96317 Y18.72924
G01 X4.91441 Y18.80178
G01 X4.87062 Y18.84072
G01 X4.71799 Y19.01943
G01 X4.59513 Y19.21992
G01 X4.50519 Y19.43709
G01 X4.45142 Y19.66104
G01 X4.43188 Y19.90018
G01 X4.45030 Y20.13437
G01 X4.47560 Y20.23978
G01 X4.50519 Y20.36297
G01 X4.59513 Y20.58016
G01 X4.71799 Y20.78062
G01 X4.87064 Y20.95936
G01 X4.90272 Y20.98674
G01 X4.92480 Y21.01204
G01 X4.97425 Y21.09291
G01 X4.98238 Y21.13622
G01 X4.97963 Y21.22895
G01 X4.96317 Y21.26924
G01 X4.91441 Y21.34178
G01 X4.87064 Y21.38069
G01 X4.71799 Y21.55943
G01 X4.59513 Y21.75989
G01 X4.50519 Y21.97709
G01 X4.45142 Y22.20104
G01 X4.43188 Y22.44018
G01 X4.45030 Y22.67439
G01 X4.50519 Y22.90297
G01 X4.59513 Y23.12014
G01 X4.71799 Y23.32062
G01 X4.87062 Y23.49933
G01 X4.90272 Y23.52674
G01 X4.92480 Y23.55204
G01 X4.97425 Y23.63291
G01 X4.98238 Y23.67622
G01 X4.97963 Y23.76895
G01 X4.96317 Y23.80924
G01 X4.91441 Y23.88178
G01 X4.87064 Y23.92069
G01 X4.71799 Y24.09943
G01 X4.59513 Y24.29992
G01 X4.50519 Y24.51709
G01 X4.45142 Y24.74104
G01 X4.43188 Y24.98018
G01 X4.45030 Y25.21437
G01 X4.50407 Y25.43834
G01 X4.59523 Y25.66031
G01 X4.71799 Y25.86062
G01 X4.87062 Y26.03933
G01 X4.90272 Y26.06674
G01 X4.92480 Y26.09204
G01 X4.97425 Y26.17291
G01 X4.98238 Y26.21622
G01 X4.97963 Y26.30895
G01 X4.96317 Y26.34924
G01 X4.91441 Y26.42178
G01 X4.87062 Y26.46072
G01 X4.71799 Y26.63943
G01 X4.59513 Y26.83992
G01 X4.50519 Y27.05709
G01 X4.45030 Y27.28566
G01 X4.43186 Y27.52000
G01 X4.45030 Y27.75439
G01 X4.50519 Y27.98297
G01 X4.59513 Y28.20014
G01 X4.67557 Y28.33453
G01 X4.69650 Y28.39005
G01 X4.69927 Y28.42452
G01 X4.69426 Y28.49533
G01 X4.68301 Y28.53742
G01 X4.61839 Y28.62533
G01 X4.54888 Y28.67893
G01 X4.48126 Y28.76912
G01 X4.44100 Y28.87651
G01 X4.43648 Y28.91814
G01 X4.43648 Y31.20191
G01 X4.44100 Y31.24351
G01 X4.48126 Y31.35093
G01 X4.54888 Y31.44113
G01 X4.63907 Y31.50874
G01 X4.74646 Y31.54900
G01 X4.78809 Y31.55352
G01 X7.07186 Y31.55352
G01 X7.11349 Y31.54900
G01 X7.22088 Y31.50874
G01 X7.31107 Y31.44113
G01 X7.37869 Y31.35093
G01 X7.41895 Y31.24351
G01 X7.42347 Y31.20191
G01 X7.42347 Y28.91814
G01 X7.41895 Y28.87651
G01 X7.37869 Y28.76912
G01 X7.31107 Y28.67893
G01 X7.23957 Y28.62330
G01 X7.19964 Y28.57941
G01 X7.18433 Y28.54834
G01 X7.16289 Y28.48068
G01 X7.15784 Y28.43745
G01 X7.18547 Y28.33189
G01 X7.26482 Y28.20014
G01 X7.35476 Y27.98297
G01 X7.40965 Y27.75439
G01 X7.42807 Y27.52018
G01 X7.40853 Y27.28104
G01 X7.35476 Y27.05709
G01 X7.26482 Y26.83992
G01 X7.14196 Y26.63943
G01 X6.98933 Y26.46072
G01 X6.94526 Y26.42148
G01 X6.89584 Y26.34682
G01 X6.87955 Y26.30588
G01 X6.87808 Y26.21284
G01 X6.88661 Y26.17017
G01 X6.93559 Y26.09135
G01 X6.95723 Y26.06674
G01 X6.98933 Y26.03933
G01 X7.14196 Y25.86062
G01 X7.26472 Y25.66031
G01 X7.35588 Y25.43834
G01 X7.40965 Y25.21437
G01 X7.42807 Y24.98018
G01 X7.40853 Y24.74104
G01 X7.35476 Y24.51709
G01 X7.26482 Y24.29992
G01 X7.14196 Y24.09943
G01 X6.98931 Y23.92069
G01 X6.94526 Y23.88148
G01 X6.89584 Y23.80682
G01 X6.87955 Y23.76588
G01 X6.87808 Y23.67284
G01 X6.88661 Y23.63017
G01 X6.93559 Y23.55135
G01 X6.95723 Y23.52674
G01 X6.98933 Y23.49933
G01 X7.14196 Y23.32062
G01 X7.26482 Y23.12014
G01 X7.35476 Y22.90297
G01 X7.40965 Y22.67439
G01 X7.42807 Y22.44018
G01 X7.40853 Y22.20104
G01 X7.35476 Y21.97709
G01 X7.26482 Y21.75989
G01 X7.14196 Y21.55943
G01 X6.98931 Y21.38069
G01 X6.94526 Y21.34148
G01 X6.89584 Y21.26682
G01 X6.87955 Y21.22588
G01 X6.87808 Y21.13284
G01 X6.88661 Y21.09017
G01 X6.93559 Y21.01135
G01 X6.95723 Y20.98674
G01 X6.98931 Y20.95936
G01 X7.14196 Y20.78062
G01 X7.26482 Y20.58016
G01 X7.35476 Y20.36297
G01 X7.38435 Y20.23978
G01 X7.40965 Y20.13437
G01 X7.42807 Y19.90018
G01 X7.40853 Y19.66104
G01 X7.35476 Y19.43709
G01 X7.26482 Y19.21992
G01 X7.14196 Y19.01943
G01 X6.98933 Y18.84072
G01 X6.94526 Y18.80148
G01 X6.89584 Y18.72682
G01 X6.87955 Y18.68588
G01 X6.87808 Y18.59284
G01 X6.88661 Y18.55017
G01 X6.93559 Y18.47135
G01 X6.95723 Y18.44674
G01 X6.98931 Y18.41936
G01 X7.14196 Y18.24062
G01 X7.26482 Y18.04014
G01 X7.35476 Y17.82297
G01 X7.40965 Y17.59439
G01 X7.42807 Y17.36018
G01 X7.40853 Y17.12104
G01 X7.35476 Y16.89709
G01 X7.26482 Y16.67992
G01 X7.14196 Y16.47943
G01 X6.98933 Y16.30072
G01 X6.95723 Y16.27331
G01 X6.93515 Y16.24801
G01 X6.88570 Y16.16714
G01 X6.87757 Y16.12383
G01 X6.88032 Y16.03110
G01 X6.89677 Y15.99081
G01 X6.94554 Y15.91827
G01 X6.98933 Y15.87933
G01 X7.14196 Y15.70062
G01 X7.26482 Y15.50014
G01 X7.35476 Y15.28297
G01 X7.40965 Y15.05439
G01 X7.42807 Y14.82018
G01 X7.40853 Y14.58104
G01 X7.35476 Y14.35709
G01 X7.26482 Y14.13992
G01 X7.14196 Y13.93943
G01 X6.98933 Y13.76072
G01 X6.95723 Y13.73331
G01 X6.93515 Y13.70801
G01 X6.88570 Y13.62714
G01 X6.87757 Y13.58383
G01 X6.88032 Y13.49110
G01 X6.89677 Y13.45081
G01 X6.94554 Y13.37827
G01 X6.98933 Y13.33933
G01 X7.14196 Y13.16062
G01 X7.26482 Y12.96014
G01 X7.35476 Y12.74297
G01 X7.40965 Y12.51439
G01 X7.42809 Y12.28003
G01 X7.40965 Y12.04584
G01 X7.35296 Y11.81269
G01 X7.26482 Y11.59989
G01 X7.14196 Y11.39943
G01 X6.98931 Y11.22069
G01 X6.81054 Y11.06801
G01 X6.61011 Y10.94518
G01 X6.39292 Y10.85529
G01 X6.16896 Y10.80147
G01 X5.93000 Y10.78193
G01 X5.69099 Y10.80147
G01 X5.46703 Y10.85529
G01 X5.24986 Y10.94518
G01 X5.04941 Y11.06801
G01 X4.87064 Y11.22069
G01 X4.71799 Y11.39943
G01 X4.59513 Y11.59989
G01 X4.50699 Y11.81269
G01 X4.45030 Y12.04584
G01 X4.43186 Y12.28003
G01 X4.53640 Y12.27756
G01 X4.55520 Y12.06514
G01 X4.56328 Y12.01625
G01 X4.60857 Y11.84739
G01 X4.64806 Y11.73898
G01 X4.69127 Y11.64614
G01 X4.80079 Y11.46263
G01 X4.94618 Y11.29557
G01 X5.01954 Y11.22836
G01 X5.11364 Y11.15402
G01 X5.21113 Y11.08917
G01 X5.29767 Y11.04010
G01 X5.50165 Y10.95392
G01 X5.70546 Y10.90708
G01 X5.81344 Y10.89369
G01 X5.93150 Y10.88950
G01 X6.10148 Y10.89926
G01 X6.15454 Y10.90677
G01 X6.36307 Y10.95503
G01 X6.56216 Y11.04040
G01 X6.64905 Y11.08882
G01 X6.74854 Y11.15587
G01 X6.84041 Y11.22836
G01 X6.91362 Y11.29572
G01 X7.03907 Y11.43814
G01 X7.07366 Y11.48640
G01 X7.17033 Y11.64861
G01 X7.21151 Y11.73913
G01 X7.25138 Y11.84739
G01 X7.28451 Y11.96433
G01 X7.30434 Y12.06220
G01 X7.32388 Y12.27759
G01 X7.30470 Y12.49529
G01 X7.28468 Y12.59572
G01 X7.25296 Y12.70835
G01 X7.21151 Y12.82092
G01 X7.16868 Y12.91391
G01 X7.05918 Y13.09742
G01 X6.91565 Y13.26219
G01 X6.79279 Y13.38818
G01 X6.73302 Y13.47096
G01 X6.72835 Y13.58277
G01 X6.73246 Y13.62864
G01 X6.72835 Y13.58277
G01 X6.73302 Y13.47096
G01 X6.68141 Y13.55008
G01 X6.70155 Y13.58581
G01 X6.79053 Y13.70911
G01 X6.91565 Y13.83786
G01 X7.05624 Y13.99874
G01 X7.17008 Y14.18871
G01 X7.21151 Y14.27913
G01 X7.25207 Y14.38891
G01 X7.28506 Y14.50423
G01 X7.30394 Y14.60024
G01 X7.32400 Y14.81792
G01 X7.30470 Y15.03529
G01 X7.28468 Y15.13572
G01 X7.25207 Y15.25114
G01 X7.21151 Y15.36092
G01 X7.17008 Y15.45134
G01 X7.05918 Y15.63742
G01 X6.91565 Y15.80219
G01 X6.79279 Y15.92818
G01 X6.73305 Y16.01098
G01 X6.72835 Y16.12277
G01 X6.73244 Y16.16864
G01 X6.72835 Y16.12277
G01 X6.73305 Y16.01098
G01 X6.79279 Y15.92818
G01 X6.70173 Y16.05436
G01 X6.68141 Y16.09008
G01 X6.70155 Y16.12581
G01 X6.79053 Y16.24911
G01 X6.91565 Y16.37786
G01 X7.05624 Y16.53874
G01 X7.17008 Y16.72871
G01 X7.21151 Y16.81913
G01 X7.25207 Y16.92891
G01 X7.28506 Y17.04423
G01 X7.30394 Y17.14024
G01 X7.32400 Y17.35792
G01 X7.30470 Y17.57529
G01 X7.28468 Y17.67572
G01 X7.25207 Y17.79114
G01 X7.21151 Y17.90092
G01 X7.17008 Y17.99134
G01 X7.05918 Y18.17742
G01 X6.91565 Y18.34219
G01 X6.79279 Y18.46818
G01 X6.73302 Y18.55096
G01 X6.72835 Y18.66277
G01 X6.73244 Y18.70864
G01 X6.72835 Y18.66277
G01 X6.73302 Y18.55096
G01 X6.68141 Y18.63008
G01 X6.70155 Y18.66581
G01 X6.79053 Y18.78911
G01 X6.91565 Y18.91786
G01 X7.05624 Y19.07874
G01 X7.17008 Y19.26871
G01 X7.21151 Y19.35913
G01 X7.25207 Y19.46891
G01 X7.28506 Y19.58423
G01 X7.30394 Y19.68024
G01 X7.32400 Y19.89792
G01 X7.30470 Y20.11532
G01 X7.28479 Y20.21534
G01 X7.25207 Y20.33114
G01 X7.21151 Y20.44092
G01 X7.17008 Y20.53134
G01 X7.05918 Y20.71742
G01 X6.91565 Y20.88219
G01 X6.79279 Y21.00818
G01 X6.73302 Y21.09096
G01 X6.72835 Y21.20277
G01 X6.73246 Y21.24866
G01 X6.72835 Y21.20277
G01 X6.73302 Y21.09096
G01 X6.68141 Y21.17008
G01 X6.70158 Y21.20589
G01 X6.79053 Y21.32911
G01 X6.91565 Y21.45786
G01 X7.05624 Y21.61874
G01 X7.17008 Y21.80871
G01 X7.21151 Y21.89913
G01 X7.25207 Y22.00891
G01 X7.28506 Y22.12423
G01 X7.30394 Y22.22024
G01 X7.32400 Y22.43792
G01 X7.30470 Y22.65529
G01 X7.28468 Y22.75572
G01 X7.25207 Y22.87114
G01 X7.21151 Y22.98092
G01 X7.17008 Y23.07134
G01 X7.05918 Y23.25742
G01 X6.91565 Y23.42219
G01 X6.79279 Y23.54818
G01 X6.73302 Y23.63096
G01 X6.72835 Y23.74277
G01 X6.73246 Y23.78864
G01 X6.72835 Y23.74277
G01 X6.73302 Y23.63096
G01 X6.68141 Y23.71008
G01 X6.70153 Y23.74579
G01 X6.79048 Y23.86905
G01 X6.91565 Y23.99786
G01 X7.05624 Y24.15874
G01 X7.17008 Y24.34871
G01 X7.21151 Y24.43913
G01 X7.25207 Y24.54891
G01 X7.28506 Y24.66423
G01 X7.30394 Y24.76024
G01 X7.32400 Y24.97792
G01 X7.30470 Y25.19532
G01 X7.28468 Y25.29572
G01 X7.25331 Y25.40672
G01 X7.21209 Y25.51901
G01 X7.16993 Y25.61162
G01 X7.05918 Y25.79742
G01 X6.91565 Y25.96219
G01 X6.79279 Y26.08820
G01 X6.73302 Y26.17096
G01 X6.72835 Y26.28277
G01 X6.73246 Y26.32864
G01 X6.72835 Y26.28277
G01 X6.73302 Y26.17096
G01 X6.68141 Y26.25008
G01 X6.70155 Y26.28581
G01 X6.79048 Y26.40905
G01 X6.91565 Y26.53786
G01 X7.05624 Y26.69874
G01 X7.16868 Y26.88614
G01 X7.21151 Y26.97913
G01 X7.25207 Y27.08891
G01 X7.28506 Y27.20423
G01 X7.30394 Y27.30024
G01 X7.32395 Y27.51792
G01 X7.30470 Y27.73529
G01 X7.28420 Y27.83763
G01 X7.25207 Y27.95114
G01 X7.19045 Y28.10992
G01 X7.16868 Y28.15391
G01 X7.10467 Y28.26153
G01 X7.03965 Y28.38914
G01 X7.00998 Y28.47103
G01 X7.02065 Y28.52574
G01 X7.05779 Y28.63186
G01 X7.02065 Y28.52574
G01 X7.01008 Y28.47664
G01 X7.03965 Y28.38914
G01 X6.97409 Y28.57603
G01 X7.15641 Y28.69229
G01 X7.24133 Y28.75612
G01 X7.29042 Y28.82376
G01 X7.31699 Y28.90029
G01 X7.32002 Y28.92061
G01 X7.32095 Y31.19960
G01 X7.31580 Y31.22362
G01 X7.28781 Y31.30107
G01 X7.23762 Y31.36767
G01 X7.17102 Y31.41786
G01 X7.09357 Y31.44585
G01 X7.06955 Y31.45101
G01 X4.79040 Y31.45101
G01 X4.76638 Y31.44585
G01 X4.68893 Y31.41786
G01 X4.62233 Y31.36767
G01 X4.57214 Y31.30107
G01 X4.54415 Y31.22362
G01 X4.53899 Y31.19960
G01 X4.53899 Y28.92045
G01 X4.54415 Y28.89643
G01 X4.57217 Y28.81901
G01 X4.62193 Y28.75248
G01 X4.72977 Y28.67382
G01 X4.88776 Y28.57631
G01 X4.84705 Y28.45010
G01 X4.83483 Y28.55543
G01 X4.81728 Y28.60255
G01 X4.79901 Y28.63148
G01 X4.83701 Y28.69579
G01 X5.11679 Y28.69579
G01 X5.26670 Y28.74136
G01 X5.49861 Y28.79071
G01 X5.81501 Y28.82432
G01 X6.08326 Y28.82236
G01 X6.31712 Y28.79777
G01 X6.59324 Y28.74136
G01 X6.74316 Y28.69579
G01 X7.01930 Y28.69579
G01 X7.11407 Y28.75373
G01 X7.18379 Y28.80562
G01 X7.22103 Y28.85533
G01 X7.24440 Y28.91850
G01 X7.24691 Y28.96064
G01 X7.24691 Y31.15941
G01 X7.24440 Y31.20155
G01 X7.22103 Y31.26472
G01 X7.18402 Y31.31407
G01 X7.13467 Y31.35108
G01 X7.06109 Y31.37590
G01 X4.83059 Y31.37696
G01 X4.78845 Y31.37445
G01 X4.72528 Y31.35108
G01 X4.67593 Y31.31407
G01 X4.63892 Y31.26472
G01 X4.61410 Y31.19114
G01 X4.61304 Y28.96064
G01 X4.71499 Y28.96000
G01 X4.72373 Y28.91601
G01 X4.74867 Y28.87870
G01 X4.78598 Y28.85375
G01 X4.82998 Y28.84502
G01 X7.03000 Y28.84502
G01 X7.07399 Y28.85375
G01 X7.11130 Y28.87870
G01 X7.13625 Y28.91601
G01 X7.14498 Y28.96000
G01 X7.14277 Y31.18245
G01 X7.13625 Y31.20402
G01 X7.11130 Y31.24133
G01 X7.07399 Y31.26627
G01 X7.03000 Y31.27501
G01 X4.82998 Y31.27501
G01 X4.78598 Y31.26627
G01 X4.74867 Y31.24133
G01 X4.72373 Y31.20402
G01 X4.71499 Y31.16002
G01 X4.71499 Y28.96000
G01 X4.61304 Y28.96064
G01 X4.61410 Y28.92891
G01 X4.63892 Y28.85533
G01 X4.67615 Y28.80562
G01 X4.77176 Y28.73552
G01 X4.93513 Y28.63460
G01 X5.21194 Y28.72665
G01 X5.40303 Y28.77039
G01 X4.82998 Y28.77039
G01 X4.79299 Y28.77405
G01 X4.75743 Y28.78484
G01 X4.72464 Y28.80234
G01 X4.69592 Y28.82594
G01 X4.67232 Y28.85467
G01 X4.65482 Y28.88746
G01 X4.64402 Y28.92302
G01 X4.64037 Y28.96000
G01 X4.64037 Y31.16002
G01 X4.64402 Y31.19701
G01 X4.65482 Y31.23257
G01 X4.67232 Y31.26536
G01 X4.69592 Y31.29408
G01 X4.72464 Y31.31768
G01 X4.75743 Y31.33518
G01 X4.79299 Y31.34598
G01 X4.82998 Y31.34963
G01 X7.03000 Y31.34963
G01 X7.06698 Y31.34598
G01 X7.10254 Y31.33518
G01 X7.13533 Y31.31768
G01 X7.16406 Y31.29408
G01 X7.18766 Y31.26536
G01 X7.20516 Y31.23257
G01 X7.21595 Y31.19701
G01 X7.21961 Y31.16002
G01 X7.21961 Y28.96000
G01 X7.21595 Y28.92302
G01 X7.20516 Y28.88746
G01 X7.18766 Y28.85467
G01 X7.16406 Y28.82594
G01 X7.13533 Y28.80234
G01 X7.10254 Y28.78484
G01 X7.06698 Y28.77405
G01 X7.03000 Y28.77039
G01 X6.45687 Y28.77039
G01 X6.64801 Y28.72665
G01 X6.92667 Y28.63379
G01 X7.01930 Y28.69579
G01 X6.72004 Y28.62482
G01 X6.84283 Y28.53384
G01 X6.95032 Y28.41659
G01 X6.84283 Y28.53384
G01 X6.72004 Y28.62482
G01 X6.57483 Y28.66905
G01 X6.30640 Y28.72393
G01 X6.04397 Y28.74969
G01 X5.78156 Y28.74789
G01 X5.51316 Y28.71751
G01 X5.23224 Y28.65485
G01 X4.96221 Y28.56506
G01 X4.91756 Y28.42531
G01 X4.87587 Y28.33016
G01 X4.82066 Y28.22554
G01 X4.75614 Y28.11703
G01 X4.71738 Y28.03237
G01 X4.67842 Y27.92668
G01 X4.64783 Y27.81832
G01 X4.62942 Y27.72701
G01 X4.61103 Y27.52000
G01 X4.71499 Y27.52000
G01 X4.74153 Y27.26740
G01 X4.82002 Y27.02582
G01 X4.94702 Y26.80585
G01 X5.12634 Y26.60951
G01 X5.33320 Y26.46232
G01 X5.55454 Y26.36448
G01 X5.79109 Y26.31355
G01 X6.05700 Y26.31167
G01 X6.31669 Y26.36880
G01 X6.53749 Y26.46778
G01 X6.73363 Y26.60951
G01 X6.90536 Y26.79651
G01 X7.03995 Y27.02582
G01 X7.12032 Y27.27928
G01 X7.14498 Y27.52000
G01 X7.12032 Y27.76074
G01 X7.03995 Y28.01421
G01 X6.90536 Y28.24352
G01 X6.74298 Y28.42294
G01 X6.54758 Y28.56567
G01 X6.30544 Y28.67555
G01 X6.04496 Y28.72899
G01 X5.80297 Y28.72835
G01 X5.56617 Y28.67867
G01 X5.32248 Y28.57225
G01 X5.11700 Y28.42294
G01 X4.94702 Y28.23417
G01 X4.82002 Y28.01421
G01 X4.74466 Y27.78426
G01 X4.71499 Y27.52000
G01 X4.61103 Y27.52000
G01 X4.62942 Y27.31304
G01 X4.64783 Y27.22173
G01 X4.67839 Y27.11337
G01 X4.71738 Y27.00768
G01 X4.75614 Y26.92302
G01 X4.86292 Y26.74477
G01 X4.99942 Y26.58815
G01 X5.12286 Y26.46156
G01 X5.22007 Y26.32750
G01 X5.24313 Y26.28734
G01 X6.50061 Y26.28734
G01 X6.61209 Y26.33854
G01 X6.68400 Y26.38901
G01 X6.61209 Y26.33854
G01 X6.50061 Y26.28734
G01 X6.30440 Y26.28734
G01 X6.61677 Y26.28734
G01 X6.63975 Y26.32770
G01 X6.73150 Y26.45483
G01 X6.86053 Y26.58815
G01 X6.98176 Y26.72640
G01 X7.00978 Y26.76499
G01 X7.10381 Y26.92302
G01 X7.14257 Y27.00768
G01 X7.18156 Y27.11337
G01 X7.21212 Y27.22173
G01 X7.22977 Y27.30860
G01 X7.24892 Y27.52041
G01 X7.23053 Y27.72701
G01 X7.21212 Y27.81832
G01 X7.18153 Y27.92668
G01 X7.14257 Y28.03237
G01 X7.10381 Y28.11703
G01 X7.03901 Y28.22607
G01 X6.97280 Y28.35586
G01 X6.90630 Y28.53816
G01 X6.90036 Y28.56397
G01 X6.62771 Y28.65485
G01 X6.44130 Y28.69742
G01 X6.57480 Y28.63686
G01 X6.79291 Y28.47839
G01 X6.97331 Y28.27804
G01 X7.09911 Y28.06224
G01 X7.11521 Y28.02602
G01 X7.18628 Y27.80730
G01 X7.19451 Y27.76854
G01 X7.21961 Y27.52000
G01 X7.19141 Y27.25188
G01 X7.11521 Y27.01401
G01 X7.09911 Y26.97779
G01 X6.97331 Y26.76199
G01 X6.80694 Y26.57568
G01 X6.77750 Y26.54916
G01 X6.57480 Y26.40316
G01 X6.34702 Y26.30062
G01 X6.30440 Y26.28734
G01 X5.35936 Y26.28734
G01 X5.24788 Y26.33854
G01 X5.17532 Y26.38945
G01 X5.24788 Y26.33854
G01 X5.35936 Y26.28734
G01 X5.55558 Y26.28734
G01 X5.51296 Y26.30062
G01 X5.30287 Y26.39417
G01 X5.26853 Y26.41398
G01 X5.06706 Y26.56163
G01 X4.89917 Y26.74657
G01 X4.87585 Y26.77865
G01 X4.75187 Y26.99549
G01 X4.66856 Y27.25188
G01 X4.64037 Y27.52000
G01 X4.66546 Y27.76854
G01 X4.67369 Y27.80730
G01 X4.75187 Y28.04454
G01 X4.87585 Y28.26138
G01 X4.89917 Y28.29346
G01 X5.05304 Y28.46435
G01 X5.08248 Y28.49086
G01 X5.28517 Y28.63686
G01 X5.41865 Y28.69742
G01 X5.28512 Y28.66905
G01 X5.13996 Y28.62485
G01 X5.01715 Y28.53384
G01 X4.91756 Y28.42531
G04 P0 ( dwell for no time -- G64 should not smooth over this point )
G00 Z0.50000 ( retract )

G00 X11.99542 Y28.52805 ( rapid move to begin. )
G01 F100.00000
( Mill infeed pass 1/1 )
G01 Z-0.17000
G04 P0 ( dwell for no time -- G64 should not smooth over this point )
G01 F200.00000
G01 X11.99542 Y28.52805
G01 X12.14142 Y28.55909
G01 X12.19636 Y28.56485
G01 X12.39123 Y28.56341
G01 X12.56440 Y28.52808
G01 X12.44782 Y28.62914
G01 X12.36362 Y28.63948
G01 X12.19636 Y28.63948
G01 X12.11249 Y28.62922
G01 X12.20068 Y28.71408
G01 X12.35943 Y28.71408
G01 X12.44782 Y28.62914
G01 X12.33512 Y28.73770
G01 X12.22488 Y28.73770
G01 X12.06070 Y28.58162
G01 X11.99288 Y28.52607
G01 X11.85364 Y28.43183
G01 X11.77063 Y28.38744
G01 X11.62460 Y28.28403
G01 X11.50045 Y28.15828
G01 X11.44307 Y28.08182
G01 X11.39946 Y28.01340
G01 X11.36204 Y27.94149
G01 X11.32448 Y27.85350
G01 X11.27764 Y27.68309
G01 X11.26110 Y27.50501
G01 X11.29037 Y27.50501
G01 X11.31201 Y27.29925
G01 X11.37594 Y27.10250
G01 X11.46857 Y26.93997
G01 X11.49186 Y26.90791
G01 X11.61780 Y26.76958
G01 X11.76855 Y26.65879
G01 X11.80286 Y26.63898
G01 X11.97418 Y26.56384
G01 X12.15694 Y26.52391
G01 X12.19636 Y26.51977
G01 X12.38343 Y26.52081
G01 X12.56661 Y26.55869
G01 X12.60433 Y26.57095
G01 X12.75711 Y26.63898
G01 X12.79143 Y26.65879
G01 X12.94218 Y26.76958
G01 X13.06811 Y26.90791
G01 X13.09140 Y26.93997
G01 X13.18404 Y27.10250
G01 X13.24284 Y27.28010
G01 X13.25109 Y27.31886
G01 X13.26961 Y27.50501
G01 X13.25109 Y27.69117
G01 X13.24284 Y27.72993
G01 X13.18404 Y27.90753
G01 X13.09140 Y28.07004
G01 X13.06811 Y28.10212
G01 X12.94218 Y28.24045
G01 X12.79143 Y28.35124
G01 X12.75711 Y28.37105
G01 X12.60433 Y28.43907
G01 X12.56661 Y28.45134
G01 X12.38343 Y28.48921
G01 X12.19636 Y28.49025
G01 X12.15694 Y28.48609
G01 X11.97418 Y28.44619
G01 X11.78518 Y28.36204
G01 X11.63324 Y28.25294
G01 X11.60378 Y28.22640
G01 X11.49186 Y28.10212
G01 X11.46857 Y28.07004
G01 X11.37594 Y27.90753
G01 X11.31714 Y27.72993
G01 X11.30888 Y27.69117
G01 X11.29037 Y27.50501
G01 X11.36499 Y27.50501
G01 X11.38498 Y27.69526
G01 X11.44409 Y27.87717
G01 X11.53974 Y28.04283
G01 X11.65922 Y28.17649
G01 X11.83321 Y28.30288
G01 X11.99725 Y28.37522
G01 X12.17246 Y28.41311
G01 X12.38752 Y28.41311
G01 X12.56273 Y28.37522
G01 X12.73748 Y28.29742
G01 X12.90075 Y28.17649
G01 X13.02023 Y28.04283
G01 X13.11589 Y27.87717
G01 X13.17499 Y27.69526
G01 X13.19498 Y27.50501
G01 X13.17499 Y27.31477
G01 X13.11043 Y27.12213
G01 X13.02023 Y26.96719
G01 X12.88289 Y26.81746
G01 X12.73748 Y26.71261
G01 X12.57398 Y26.63910
G01 X12.38752 Y26.59691
G01 X12.18434 Y26.59503
G01 X11.99725 Y26.63478
G01 X11.82250 Y26.71261
G01 X11.67708 Y26.81746
G01 X11.53974 Y26.96719
G01 X11.44409 Y27.13285
G01 X11.38498 Y27.31477
G01 X11.36499 Y27.50501
G01 X11.26110 Y27.50501
G01 X11.27906 Y27.31972
G01 X11.32628 Y27.15198
G01 X11.36204 Y27.06857
G01 X11.39946 Y26.99668
G01 X11.47289 Y26.88645
G01 X11.50045 Y26.85178
G01 X11.62460 Y26.72602
G01 X11.77063 Y26.62262
G01 X11.85549 Y26.57703
G01 X11.99552 Y26.48193
G01 X12.14142 Y26.45094
G01 X12.19636 Y26.44517
G01 X12.39123 Y26.44662
G01 X12.56448 Y26.48193
G01 X12.49925 Y26.42844
G01 X12.35925 Y26.29592
G01 X12.20052 Y26.29592
G01 X12.35925 Y26.29592
G01 X12.33507 Y26.27233
G01 X12.22483 Y26.27233
G01 X12.06750 Y26.42257
G01 X11.99552 Y26.48193
G01 X12.11213 Y26.38089
G01 X12.19636 Y26.37055
G01 X12.36362 Y26.37055
G01 X12.44744 Y26.38081
G01 X12.50088 Y26.42983
G01 X12.61820 Y26.52094
G01 X12.70631 Y26.57822
G01 X12.78932 Y26.62262
G01 X12.93535 Y26.72602
G01 X13.05950 Y26.85178
G01 X13.11688 Y26.92823
G01 X13.16049 Y26.99666
G01 X13.19791 Y27.06857
G01 X13.23547 Y27.15655
G01 X13.28231 Y27.32696
G01 X13.29884 Y27.50501
G01 X13.28231 Y27.68309
G01 X13.23545 Y27.85355
G01 X13.19791 Y27.94149
G01 X13.16049 Y28.01337
G01 X13.11688 Y28.08182
G01 X13.05950 Y28.15828
G01 X12.94101 Y28.27921
G01 X12.78932 Y28.38744
G01 X12.70446 Y28.43300
G01 X12.56440 Y28.52808
G04 P0 ( dwell for no time -- G64 should not smooth over this point )
G00 Z0.50000 ( retract )

G00 X12.76710 Y30.98827 ( rapid move to begin. )
G01 F100.00000
( Mill infeed pass 1/1 )
G01 Z-0.17000
G04 P0 ( dwell for no time -- G64 should not smooth over this point )
G01 F200.00000
G01 X12.76710 Y30.98827
G01 X12.60885 Y31.05715
G01 X12.41856 Y31.09909
G01 X12.36362 Y31.10485
G01 X12.19636 Y31.10485
G01 X12.14142 Y31.09909
G01 X11.95112 Y31.05715
G01 X11.79148 Y30.98766
G01 X11.89141 Y31.11552
G01 X11.98871 Y31.25870
G01 X12.10002 Y31.27041
G01 X12.19732 Y31.27552
G01 X12.36263 Y31.27552
G01 X12.45993 Y31.27041
G01 X12.57030 Y31.25880
G01 X12.67050 Y31.11296
G01 X12.60106 Y31.21286
G01 X12.40682 Y31.25182
G01 X12.19636 Y31.25408
G01 X12.11040 Y31.24506
G01 X11.95645 Y31.21232
G01 X11.88937 Y31.11293
G01 X11.96232 Y31.13729
G01 X12.12592 Y31.17206
G01 X12.19636 Y31.17948
G01 X12.39902 Y31.17763
G01 X12.59765 Y31.13729
G01 X12.67050 Y31.11296
G01 X12.77266 Y30.98166
G01 X12.88035 Y30.87173
G01 X12.97812 Y30.78339
G01 X13.06001 Y30.69762
G01 X13.11688 Y30.62182
G01 X13.16049 Y30.55340
G01 X13.21924 Y30.43470
G01 X13.23545 Y30.39350
G01 X13.28094 Y30.23041
G01 X13.29884 Y30.04504
G01 X13.28089 Y29.85972
G01 X13.23367 Y29.69198
G01 X13.21924 Y29.65535
G01 X13.16049 Y29.53668
G01 X13.08706 Y29.42645
G01 X13.05950 Y29.39178
G01 X12.93537 Y29.26602
G01 X12.78932 Y29.16262
G01 X12.70631 Y29.11822
G01 X12.61820 Y29.06094
G01 X12.50088 Y28.96983
G01 X12.44744 Y28.92081
G01 X12.36362 Y28.91055
G01 X12.19636 Y28.91055
G01 X12.11213 Y28.92089
G01 X11.99552 Y29.02193
G01 X12.06750 Y28.96257
G01 X12.22483 Y28.81233
G01 X12.33507 Y28.81233
G01 X12.35925 Y28.83592
G01 X12.20055 Y28.83592
G01 X12.14101 Y28.89368
G01 X12.20055 Y28.83592
G01 X12.35925 Y28.83592
G01 X12.49925 Y28.96844
G01 X12.56448 Y29.02193
G01 X12.41856 Y28.99094
G01 X12.36362 Y28.98517
G01 X12.16875 Y28.98662
G01 X11.99552 Y29.02193
G01 X11.85549 Y29.11703
G01 X11.77063 Y29.16262
G01 X11.61894 Y29.27085
G01 X11.50045 Y29.39178
G01 X11.47289 Y29.42645
G01 X11.39946 Y29.53668
G01 X11.36204 Y29.60857
G01 X11.32628 Y29.69198
G01 X11.27906 Y29.85972
G01 X11.26110 Y30.04504
G01 X11.29037 Y30.04501
G01 X11.31201 Y30.25075
G01 X11.37594 Y30.44753
G01 X11.47937 Y30.62670
G01 X11.60378 Y30.76640
G01 X11.63324 Y30.79294
G01 X11.78518 Y30.90204
G01 X11.95564 Y30.97907
G01 X11.99336 Y30.99134
G01 X12.17655 Y31.02921
G01 X12.36362 Y31.03025
G01 X12.40304 Y31.02609
G01 X12.58579 Y30.98619
G01 X12.75711 Y30.91105
G01 X12.79143 Y30.89124
G01 X12.94218 Y30.78045
G01 X13.08061 Y30.62670
G01 X13.18404 Y30.44753
G01 X13.24284 Y30.26993
G01 X13.25109 Y30.23117
G01 X13.26961 Y30.04501
G01 X13.25109 Y29.85886
G01 X13.24284 Y29.82010
G01 X13.19115 Y29.66102
G01 X13.17505 Y29.62482
G01 X13.08061 Y29.46333
G01 X12.94218 Y29.30958
G01 X12.77479 Y29.18799
G01 X12.60433 Y29.11095
G01 X12.56661 Y29.09869
G01 X12.38343 Y29.06081
G01 X12.19636 Y29.05977
G01 X12.15694 Y29.06391
G01 X11.97418 Y29.10384
G01 X11.80286 Y29.17898
G01 X11.76855 Y29.19879
G01 X11.63324 Y29.29709
G01 X11.60378 Y29.32363
G01 X11.47937 Y29.46333
G01 X11.37594 Y29.64250
G01 X11.31201 Y29.83925
G01 X11.29037 Y30.04501
G01 X11.36499 Y30.04501
G01 X11.38498 Y30.23526
G01 X11.43977 Y30.40595
G01 X11.53974 Y30.58283
G01 X11.67708 Y30.73257
G01 X11.82250 Y30.83742
G01 X11.98600 Y30.91093
G01 X12.18434 Y30.95499
G01 X12.38752 Y30.95311
G01 X12.56273 Y30.91522
G01 X12.72676 Y30.84288
G01 X12.89224 Y30.72500
G01 X13.02023 Y30.58283
G01 X13.12021 Y30.40595
G01 X13.17499 Y30.23526
G01 X13.19435 Y30.05703
G01 X13.17499 Y29.85477
G01 X13.11589 Y29.67285
G01 X13.01266 Y29.49782
G01 X12.89224 Y29.36503
G01 X12.74759 Y29.25916
G01 X12.56273 Y29.17478
G01 X12.36362 Y29.13440
G01 X12.18434 Y29.13503
G01 X12.00886 Y29.17169
G01 X11.82250 Y29.25261
G01 X11.66773 Y29.36503
G01 X11.53974 Y29.50719
G01 X11.44409 Y29.67285
G01 X11.38498 Y29.85477
G01 X11.36499 Y30.04501
G01 X11.26110 Y30.04504
G01 X11.27901 Y30.23041
G01 X11.32450 Y30.39350
G01 X11.34071 Y30.43470
G01 X11.39946 Y30.55340
G01 X11.44307 Y30.62182
G01 X11.49956 Y30.69716
G01 X11.58201 Y30.78314
G01 X11.70939 Y30.90031
G01 X11.79148 Y30.98766
G01 X11.91904 Y31.37155
G01 X11.97723 Y31.33254
G01 X12.09318 Y31.34471
G01 X12.19633 Y31.35029
G01 X12.36557 Y31.35009
G01 X12.46677 Y31.34471
G01 X12.58173 Y31.33264
G01 X12.67553 Y31.39845
G01 X12.75272 Y31.44587
G01 X12.93857 Y31.52807
G01 X13.01678 Y31.54976
G01 X13.11596 Y31.56899
G01 X13.18475 Y31.59403
G01 X13.23402 Y31.63096
G01 X13.27103 Y31.68032
G01 X13.29440 Y31.74351
G01 X13.29691 Y31.78565
G01 X13.29440 Y33.42654
G01 X13.27103 Y33.48974
G01 X13.23402 Y33.53909
G01 X13.18467 Y33.57610
G01 X13.11109 Y33.60091
G01 X11.48059 Y33.60198
G01 X11.43847 Y33.59946
G01 X11.37528 Y33.57610
G01 X11.32593 Y33.53909
G01 X11.28892 Y33.48974
G01 X11.26410 Y33.41613
G01 X11.26303 Y31.78565
G01 X11.29037 Y31.78502
G01 X11.29402 Y31.74803
G01 X11.30482 Y31.71245
G01 X11.32232 Y31.67966
G01 X11.34592 Y31.65093
G01 X11.37464 Y31.62736
G01 X11.40743 Y31.60983
G01 X11.44299 Y31.59904
G01 X11.47998 Y31.59540
G01 X13.08000 Y31.59540
G01 X13.11698 Y31.59904
G01 X13.15254 Y31.60983
G01 X13.18533 Y31.62736
G01 X13.21406 Y31.65093
G01 X13.23766 Y31.67966
G01 X13.25516 Y31.71245
G01 X13.26595 Y31.74803
G01 X13.26961 Y31.78502
G01 X13.26961 Y33.38501
G01 X13.26595 Y33.42199
G01 X13.25516 Y33.45758
G01 X13.23766 Y33.49035
G01 X13.21406 Y33.51910
G01 X13.18533 Y33.54267
G01 X13.15254 Y33.56020
G01 X13.11698 Y33.57099
G01 X13.08000 Y33.57462
G01 X11.47998 Y33.57462
G01 X11.44299 Y33.57099
G01 X11.40743 Y33.56020
G01 X11.37464 Y33.54267
G01 X11.34592 Y33.51910
G01 X11.32232 Y33.49035
G01 X11.30482 Y33.45758
G01 X11.29402 Y33.42199
G01 X11.29037 Y33.38501
G01 X11.29037 Y31.78502
G01 X11.36499 Y31.78502
G01 X11.37375 Y31.74100
G01 X11.39867 Y31.70368
G01 X11.43598 Y31.67877
G01 X11.47998 Y31.67000
G01 X13.08000 Y31.67000
G01 X13.12399 Y31.67877
G01 X13.16130 Y31.70368
G01 X13.18622 Y31.74100
G01 X13.19498 Y31.78502
G01 X13.19498 Y33.38501
G01 X13.19277 Y33.40744
G01 X13.17560 Y33.44889
G01 X13.14388 Y33.48064
G01 X13.10243 Y33.49781
G01 X13.08000 Y33.50002
G01 X11.47998 Y33.50002
G01 X11.45755 Y33.49781
G01 X11.41610 Y33.48064
G01 X11.38437 Y33.44889
G01 X11.36720 Y33.40744
G01 X11.36499 Y31.78502
G01 X11.26303 Y31.78565
G01 X11.26555 Y31.74351
G01 X11.28892 Y31.68032
G01 X11.32593 Y31.63096
G01 X11.37515 Y31.59406
G01 X11.44769 Y31.56795
G01 X11.56629 Y31.54412
G01 X11.74099 Y31.48029
G01 X11.63050 Y31.52078
G01 X12.92209 Y31.52078
G01 X12.75391 Y31.44618
G01 X11.80614 Y31.44618
G01 X11.74099 Y31.48029
G01 X11.81546 Y31.44102
G01 X11.91904 Y31.37155
G01 X12.63717 Y31.37155
G04 P0 ( dwell for no time -- G64 should not smooth over this point )
G00 Z0.50000 ( retract )

G00 X15.73905 Y28.83155 ( rapid move to begin. )
G01 F100.00000
( Mill infeed pass 1/1 )
G01 Z-0.17000
G04 P0 ( dwell for no time -- G64 should not smooth over this point )
G01 F200.00000
G01 X15.73905 Y28.83155
G01 X15.79724 Y28.79254
G01 X15.91319 Y28.80471
G01 X16.01634 Y28.81029
G01 X16.18555 Y28.81009
G01 X16.28675 Y28.80471
G01 X16.40173 Y28.79264
G01 X16.49554 Y28.85845
G01 X16.57273 Y28.90587
G01 X16.75858 Y28.98807
G01 X16.83679 Y29.00976
G01 X16.93592 Y29.02899
G01 X17.00476 Y29.05403
G01 X17.05403 Y29.09096
G01 X17.09101 Y29.14032
G01 X17.11441 Y29.20351
G01 X17.11692 Y29.24565
G01 X17.11586 Y30.87613
G01 X17.09101 Y30.94974
G01 X17.05403 Y30.99909
G01 X17.00468 Y31.03607
G01 X16.94148 Y31.05946
G01 X16.89935 Y31.06198
G01 X15.26887 Y31.06091
G01 X15.19529 Y31.03610
G01 X15.14593 Y30.99909
G01 X15.10890 Y30.94971
G01 X15.08553 Y30.88654
G01 X15.08302 Y30.84440
G01 X15.08302 Y29.24565
G01 X15.11037 Y29.24502
G01 X15.11401 Y29.20803
G01 X15.12480 Y29.17245
G01 X15.14233 Y29.13966
G01 X15.16590 Y29.11093
G01 X15.19465 Y29.08736
G01 X15.22742 Y29.06983
G01 X15.26300 Y29.05904
G01 X15.29998 Y29.05540
G01 X16.89998 Y29.05540
G01 X16.93699 Y29.05904
G01 X16.97255 Y29.06983
G01 X17.00534 Y29.08736
G01 X17.03407 Y29.11093
G01 X17.05764 Y29.13966
G01 X17.07516 Y29.17245
G01 X17.08596 Y29.20803
G01 X17.08959 Y29.24502
G01 X17.08959 Y30.84501
G01 X17.08596 Y30.88199
G01 X17.07516 Y30.91758
G01 X17.05764 Y30.95035
G01 X17.03407 Y30.97910
G01 X17.00534 Y31.00267
G01 X16.97255 Y31.02020
G01 X16.93699 Y31.03099
G01 X16.89998 Y31.03462
G01 X15.29998 Y31.03462
G01 X15.26300 Y31.03099
G01 X15.22742 Y31.02020
G01 X15.19465 Y31.00267
G01 X15.16590 Y30.97910
G01 X15.14233 Y30.95035
G01 X15.12480 Y30.91758
G01 X15.11401 Y30.88199
G01 X15.11037 Y30.84501
G01 X15.11037 Y29.24502
G01 X15.18500 Y29.24502
G01 X15.19374 Y29.20100
G01 X15.21868 Y29.16368
G01 X15.25599 Y29.13877
G01 X15.29998 Y29.13000
G01 X16.89998 Y29.13000
G01 X16.94400 Y29.13877
G01 X16.98131 Y29.16368
G01 X17.00623 Y29.20100
G01 X17.01499 Y29.24502
G01 X17.01499 Y30.84501
G01 X17.00623 Y30.88903
G01 X16.99561 Y30.90889
G01 X16.96389 Y30.94064
G01 X16.92243 Y30.95781
G01 X16.89998 Y30.96002
G01 X15.29998 Y30.96002
G01 X15.25599 Y30.95126
G01 X15.21868 Y30.92632
G01 X15.19374 Y30.88903
G01 X15.18500 Y30.84501
G01 X15.18500 Y29.24502
G01 X15.08302 Y29.24565
G01 X15.08553 Y29.20351
G01 X15.10890 Y29.14034
G01 X15.14593 Y29.09096
G01 X15.19516 Y29.05406
G01 X15.26770 Y29.02795
G01 X15.38629 Y29.00412
G01 X15.56099 Y28.94029
G01 X15.45050 Y28.98078
G01 X16.74209 Y28.98078
G01 X16.57392 Y28.90618
G01 X15.62615 Y28.90618
G01 X15.56099 Y28.94029
G01 X15.63547 Y28.90102
G01 X15.73905 Y28.83155
G01 X16.45718 Y28.83155
G01 X16.58710 Y28.44827
G01 X16.42886 Y28.51715
G01 X16.23854 Y28.55909
G01 X16.18360 Y28.56485
G01 X16.01637 Y28.56485
G01 X15.96143 Y28.55909
G01 X15.77113 Y28.51715
G01 X15.61146 Y28.44766
G01 X15.71131 Y28.57540
G01 X15.80872 Y28.71870
G01 X15.92002 Y28.73041
G01 X16.01733 Y28.73552
G01 X16.18261 Y28.73552
G01 X16.27992 Y28.73041
G01 X16.39030 Y28.71880
G01 X16.49051 Y28.57296
G01 X16.42106 Y28.67286
G01 X16.22683 Y28.71182
G01 X16.01637 Y28.71408
G01 X15.93041 Y28.70506
G01 X15.77646 Y28.67232
G01 X15.70938 Y28.57293
G01 X15.78233 Y28.59729
G01 X15.94591 Y28.63206
G01 X16.01637 Y28.63948
G01 X16.21903 Y28.63763
G01 X16.41766 Y28.59729
G01 X16.49051 Y28.57296
G01 X16.53554 Y28.51101
G01 X16.63587 Y28.39551
G01 X16.79813 Y28.24339
G01 X16.87966 Y28.15800
G01 X16.93668 Y28.08172
G01 X17.02871 Y27.94090
G01 X17.11992 Y27.81921
G01 X17.11586 Y27.80819
G01 X17.10691 Y27.83575
G01 X17.11586 Y27.80819
G01 X17.05482 Y27.64746
G01 X17.01814 Y27.53138
G01 X16.99500 Y27.31477
G01 X16.94019 Y27.14408
G01 X16.92830 Y27.11845
G01 X16.91111 Y26.97781
G01 X16.89749 Y26.74400
G01 X16.89744 Y26.67642
G01 X16.83569 Y26.65262
G01 X16.86866 Y26.66534
G01 X16.89744 Y26.69524
G01 X16.86866 Y26.66534
G01 X16.67034 Y26.59884
G01 X16.60968 Y26.58254
G01 X16.39371 Y26.53926
G01 X16.22840 Y26.52183
G01 X16.01733 Y26.51937
G01 X15.80616 Y26.53910
G01 X15.55515 Y26.59163
G01 X15.38787 Y26.71413
G01 X15.28490 Y26.82635
G01 X15.27667 Y26.85447
G01 X15.28490 Y26.82635
G01 X15.38787 Y26.71413
G01 X15.54469 Y26.59844
G01 X15.55515 Y26.59163
G01 X15.59010 Y26.58223
G01 X15.52935 Y26.59854
G01 X15.33110 Y26.66422
G01 X15.27486 Y26.85932
G01 X15.21482 Y27.00535
G01 X15.18203 Y27.06859
G01 X15.14449 Y27.15655
G01 X15.09762 Y27.32696
G01 X15.08111 Y27.50504
G01 X15.11037 Y27.50501
G01 X15.13199 Y27.71075
G01 X15.18881 Y27.88899
G01 X15.20494 Y27.92521
G01 X15.28855 Y28.07004
G01 X15.31187 Y28.10212
G01 X15.43780 Y28.24045
G01 X15.60519 Y28.36204
G01 X15.79419 Y28.44619
G01 X15.97694 Y28.48609
G01 X16.01637 Y28.49025
G01 X16.20344 Y28.48921
G01 X16.38662 Y28.45134
G01 X16.42431 Y28.43907
G01 X16.57712 Y28.37105
G01 X16.61144 Y28.35124
G01 X16.76216 Y28.24045
G01 X16.90059 Y28.08670
G01 X17.00404 Y27.90753
G01 X17.06285 Y27.72993
G01 X17.07120 Y27.68995
G01 X17.02586 Y27.55853
G01 X17.01438 Y27.51675
G01 X17.01499 Y27.50501
G01 X16.99500 Y27.69526
G01 X16.94019 Y27.86595
G01 X16.84024 Y28.04283
G01 X16.70288 Y28.19257
G01 X16.55749 Y28.29742
G01 X16.39399 Y28.37093
G01 X16.19564 Y28.41499
G01 X16.00435 Y28.41499
G01 X15.81723 Y28.37522
G01 X15.63239 Y28.29086
G01 X15.48774 Y28.18500
G01 X15.35317 Y28.03275
G01 X15.26409 Y27.87717
G01 X15.20809 Y27.70687
G01 X15.18561 Y27.51703
G01 X15.20499 Y27.31477
G01 X15.26409 Y27.13285
G01 X15.35972 Y26.96719
G01 X15.48774 Y26.82503
G01 X15.64248 Y26.71261
G01 X15.81723 Y26.63478
G01 X16.00435 Y26.59503
G01 X16.20753 Y26.59691
G01 X16.38274 Y26.63478
G01 X16.54677 Y26.70712
G01 X16.70288 Y26.81746
G01 X16.84024 Y26.96719
G01 X16.93041 Y27.12213
G01 X16.92109 Y27.07276
G01 X16.91126 Y26.97982
G01 X16.90079 Y26.81048
G01 X16.81210 Y26.71413
G01 X16.64575 Y26.59224
G01 X16.81210 Y26.71413
G01 X16.90079 Y26.81048
G01 X16.90897 Y26.93623
G01 X16.88812 Y26.90791
G01 X16.76216 Y26.76958
G01 X16.61144 Y26.65879
G01 X16.57712 Y26.63898
G01 X16.42431 Y26.57095
G01 X16.38662 Y26.55869
G01 X16.20344 Y26.52081
G01 X15.99655 Y26.52081
G01 X15.79419 Y26.56384
G01 X15.60519 Y26.64799
G01 X15.43780 Y26.76958
G01 X15.31187 Y26.90791
G01 X15.28855 Y26.93997
G01 X15.19592 Y27.10250
G01 X15.13199 Y27.29925
G01 X15.11037 Y27.50501
G01 X15.18500 Y27.50501
G01 X15.08111 Y27.50504
G01 X15.09762 Y27.68309
G01 X15.11101 Y27.74047
G01 X15.14449 Y27.85348
G01 X15.16072 Y27.89473
G01 X15.21947 Y28.01337
G01 X15.26303 Y28.08177
G01 X15.31957 Y28.15716
G01 X15.40199 Y28.24314
G01 X15.52945 Y28.36038
G01 X15.61146 Y28.44766
G04 P0 ( dwell for no time -- G64 should not smooth over this point )
G00 Z0.50000 ( retract )

G00 X16.42355 Y25.81774 ( rapid move to begin. )
G01 F100.00000
( Mill infeed pass 1/1 )
G01 Z-0.17000
G04 P0 ( dwell for no time -- G64 should not smooth over this point )
G01 F200.00000
G01 X16.42355 Y25.81774
G01 X16.60239 Y25.77764
G01 X16.81964 Y25.70395
G01 X16.98507 Y25.63029
G01 X17.05873 Y25.59262
G01 X17.28108 Y25.46166
G01 X17.35606 Y25.32856
G01 X17.46889 Y25.14444
G01 X17.69696 Y24.79925
G01 X17.67097 Y24.77583
G01 X17.67659 Y24.82935
G01 X17.67097 Y24.77583
G01 X17.49642 Y24.63090
G01 X17.58746 Y24.70494
G01 X17.60801 Y24.89059
G01 X17.61011 Y24.93126
G01 X17.53216 Y25.04723
G01 X17.53729 Y24.96501
G01 X17.53381 Y24.89839
G01 X17.51631 Y24.73207
G01 X17.49642 Y24.63090
G01 X17.32243 Y24.50375
G01 X17.21878 Y24.43616
G01 X17.04786 Y24.33786
G01 X17.21878 Y24.43616
G01 X17.32243 Y24.50375
G01 X17.39559 Y24.55691
G01 X17.43290 Y24.68170
G01 X17.44212 Y24.73987
G01 X17.46267 Y24.96501
G01 X17.44214 Y25.18985
G01 X17.29945 Y25.42755
G01 X17.35992 Y25.23281
G01 X17.38540 Y25.01604
G01 X17.38807 Y24.96501
G01 X17.38540 Y24.91399
G01 X17.36790 Y24.74767
G01 X17.35992 Y24.69720
G01 X17.34669 Y24.64787
G01 X17.29350 Y24.48490
G01 X17.17679 Y24.41193
G01 X17.20854 Y24.47147
G01 X17.22406 Y24.51185
G01 X17.27572 Y24.67091
G01 X17.29371 Y24.75546
G01 X17.31344 Y24.96501
G01 X17.29371 Y25.17456
G01 X17.27572 Y25.25912
G01 X17.22406 Y25.41818
G01 X17.20854 Y25.45856
G01 X17.17128 Y25.52762
G01 X17.04293 Y25.60070
G01 X17.14037 Y25.42823
G01 X17.21395 Y25.20179
G01 X17.23884 Y24.96501
G01 X17.21395 Y24.72824
G01 X17.14037 Y24.50179
G01 X17.04786 Y24.33786
G01 X16.98083 Y24.30357
G01 X16.81540 Y24.22991
G01 X16.71558 Y24.19445
G01 X16.81540 Y24.22991
G01 X16.89698 Y24.26626
G01 X16.94357 Y24.31797
G01 X16.97603 Y24.36268
G01 X17.07222 Y24.53215
G01 X17.13381 Y24.71703
G01 X17.14529 Y24.77106
G01 X17.16422 Y24.96501
G01 X17.14529 Y25.15897
G01 X17.13381 Y25.21299
G01 X17.07222 Y25.39788
G01 X16.97603 Y25.56735
G01 X16.94357 Y25.61205
G01 X16.88837 Y25.67334
G01 X16.81964 Y25.70395
G01 X16.70239 Y25.74515
G01 X16.77621 Y25.68640
G01 X16.90059 Y25.54670
G01 X16.99503 Y25.38521
G01 X17.01116 Y25.34899
G01 X17.06798 Y25.17075
G01 X17.08858 Y24.98483
G01 X17.08858 Y24.94520
G01 X17.06798 Y24.75925
G01 X17.00404 Y24.56250
G01 X16.91141 Y24.39997
G01 X16.88812 Y24.36791
G01 X16.76216 Y24.22958
G01 X16.71558 Y24.19445
G01 X16.56320 Y24.14696
G01 X16.44502 Y24.12184
G01 X16.37110 Y24.09169
G01 X16.18360 Y24.05440
G01 X16.00435 Y24.05503
G01 X15.82886 Y24.09169
G01 X15.64248 Y24.17261
G01 X15.49709 Y24.27746
G01 X15.35972 Y24.42719
G01 X15.26409 Y24.59285
G01 X15.20499 Y24.77477
G01 X15.18500 Y24.96501
G01 X15.20499 Y25.15526
G01 X15.26409 Y25.33717
G01 X15.35972 Y25.50283
G01 X15.49709 Y25.65257
G01 X15.64248 Y25.75742
G01 X15.80600 Y25.83093
G01 X15.99246 Y25.87311
G01 X16.19564 Y25.87499
G01 X16.38274 Y25.83522
G01 X16.55749 Y25.75742
G01 X16.70288 Y25.65257
G01 X16.84024 Y25.50283
G01 X16.94019 Y25.32595
G01 X16.99500 Y25.15526
G01 X17.01499 Y24.96501
G01 X16.99188 Y24.76313
G01 X16.93587 Y24.59285
G01 X16.84024 Y24.42719
G01 X16.71225 Y24.28503
G01 X16.56757 Y24.17916
G01 X16.37110 Y24.09169
G01 X16.19564 Y24.05503
G01 X16.00435 Y24.05503
G01 X15.81723 Y24.09478
G01 X15.75500 Y24.12181
G01 X15.60064 Y24.15666
G01 X15.43526 Y24.21041
G01 X15.30301 Y24.26623
G01 X15.25642 Y24.31797
G01 X15.22394 Y24.36268
G01 X15.14032 Y24.50751
G01 X15.11787 Y24.55798
G01 X15.05901 Y24.74375
G01 X15.03575 Y24.96501
G01 X15.05901 Y25.18627
G01 X15.11787 Y25.37205
G01 X15.14032 Y25.42252
G01 X15.20908 Y25.54162
G01 X15.26272 Y25.60639
G01 X15.33702 Y25.68467
G01 X15.43217 Y25.72392
G01 X15.59754 Y25.77764
G01 X15.77646 Y25.81777
G01 X15.63476 Y25.78764
G01 X15.49762 Y25.74518
G01 X15.43780 Y25.70045
G01 X15.29937 Y25.54670
G01 X15.20494 Y25.38521
G01 X15.18881 Y25.34899
G01 X15.13199 Y25.17075
G01 X15.11037 Y24.96501
G01 X15.13199 Y24.75925
G01 X15.18881 Y24.58102
G01 X15.20494 Y24.54482
G01 X15.29937 Y24.38333
G01 X15.42378 Y24.24363
G01 X15.48444 Y24.19443
G01 X15.63674 Y24.14696
G01 X15.75500 Y24.12181
G01 X15.60064 Y24.15666
G01 X15.38454 Y24.22994
G01 X15.21911 Y24.30357
G01 X15.14669 Y24.34061
G01 X14.98116 Y24.43616
G01 X14.88251 Y24.50050
G01 X14.89008 Y24.53456
G01 X14.90644 Y24.48488
G01 X14.89008 Y24.53456
G01 X14.94390 Y24.80385
G01 X14.96859 Y24.97456
G01 X14.96300 Y24.92961
G01 X14.98604 Y24.72824
G01 X15.04690 Y24.53492
G01 X15.07570 Y24.47020
G01 X15.15213 Y24.33784
G01 X15.21911 Y24.30357
G01 X15.14669 Y24.34061
G01 X15.02320 Y24.41190
G01 X14.99142 Y24.47147
G01 X14.97593 Y24.51185
G01 X14.92033 Y24.68549
G01 X14.94423 Y24.80576
G01 X14.96859 Y24.97456
G01 X15.03575 Y24.96501
G01 X15.18500 Y24.96501
G01 X15.03575 Y24.96501
G01 X14.96859 Y24.97456
G01 X14.98050 Y25.05242
G01 X14.99610 Y25.22922
G01 X15.08411 Y25.37289
G01 X15.20908 Y25.54162
G01 X15.14964 Y25.58673
G01 X14.84471 Y25.28180
G01 X14.83933 Y25.28399
G01 X14.84471 Y25.28180
G01 X14.85421 Y25.17751
G01 X14.83971 Y25.03941
G01 X14.79678 Y24.90736
G01 X14.72737 Y24.78709
G01 X14.65401 Y24.70344
G01 X14.61294 Y24.66649
G01 X14.52211 Y24.60228
G01 X14.40608 Y24.54995
G01 X13.84708 Y24.60926
G01 X13.76702 Y24.66649
G01 X13.72597 Y24.70344
G01 X13.65262 Y24.78709
G01 X13.59575 Y24.88269
G01 X13.57327 Y24.93316
G01 X13.54027 Y25.03941
G01 X13.52722 Y25.14990
G01 X13.52722 Y25.20512
G01 X13.54027 Y25.31561
G01 X13.57619 Y25.42950
G01 X13.46852 Y25.33583
G01 X13.45688 Y25.25000
G01 X13.46247 Y25.17225
G01 X13.44980 Y25.32150
G01 X13.55559 Y25.40941
G01 X13.70291 Y25.55772
G01 X13.77537 Y25.63659
G01 X13.88548 Y25.71569
G01 X13.99882 Y25.76588
G01 X14.12988 Y25.79349
G01 X14.23407 Y25.79778
G01 X14.29541 Y25.80428
G01 X14.31330 Y25.81114
G01 X14.31441 Y25.80857
G01 X14.31330 Y25.81114
G01 X14.38830 Y25.86699
G01 X14.44563 Y25.91678
G01 X14.92706 Y26.39793
G01 X14.98099 Y26.43425
G01 X15.14073 Y26.50588
G01 X15.26503 Y26.57083
G01 X15.30280 Y26.59511
G01 X15.30814 Y26.59315
G01 X15.29976 Y26.59315
G01 X15.53912 Y26.51866
G01 X15.16478 Y26.51845
G01 X15.53912 Y26.51866
G01 X15.74090 Y26.47395
G01 X15.79739 Y26.46478
G01 X16.01441 Y26.44482
G01 X16.18555 Y26.44487
G01 X16.40448 Y26.46542
G01 X16.62619 Y26.50977
G01 X16.69251 Y26.52760
G01 X16.85972 Y26.58198
G01 X16.93427 Y26.61065
G01 X16.97684 Y26.59409
G01 X16.89124 Y26.59407
G01 X16.97684 Y26.59409
G01 X17.10115 Y26.55140
G01 X17.23193 Y26.51965
G01 X16.66196 Y26.51932
G01 X17.23193 Y26.51965
G01 X17.31852 Y26.50458
G01 X17.40602 Y26.49524
G01 X17.60925 Y26.49389
G01 X17.64191 Y26.49935
G01 X17.70265 Y26.52589
G01 X18.16361 Y26.74213
G01 X18.29149 Y26.71370
G01 X18.40102 Y26.66697
G01 X18.46236 Y26.63156
G01 X18.55756 Y26.56008
G01 X18.63861 Y26.47286
G01 X18.68024 Y26.41556
G01 X18.73815 Y26.31152
G01 X18.77671 Y26.19890
G01 X18.79144 Y26.12960
G01 X18.80018 Y26.04642
G01 X18.80018 Y25.97560
G01 X18.78588 Y25.85739
G01 X18.75088 Y25.74360
G01 X18.72205 Y25.67891
G01 X18.66094 Y25.57672
G01 X18.58265 Y25.48703
G01 X18.53000 Y25.43961
G01 X18.43262 Y25.37116
G01 X18.29149 Y25.30832
G01 X18.14042 Y25.27621
G01 X18.02137 Y25.27436
G01 X17.95093 Y25.28175
G01 X17.86914 Y25.29915
G01 X17.80176 Y25.32105
G01 X17.69376 Y25.37116
G01 X17.59637 Y25.43961
G01 X17.54372 Y25.48703
G01 X17.46546 Y25.57672
G01 X17.41126 Y25.66689
G01 X17.41532 Y25.67492
G01 X17.41126 Y25.66689
G01 X17.07740 Y25.66689
G01 X16.91873 Y25.74149
G01 X17.09355 Y25.65864
G01 X17.26244 Y25.56118
G01 X17.33864 Y25.51106
G01 X17.42048 Y25.36623
G01 X17.53196 Y25.18432
G01 X17.76729 Y24.82846
G01 X17.84763 Y24.82003
G01 X18.02233 Y24.81084
G01 X18.10402 Y24.81084
G01 X18.27872 Y24.82003
G01 X18.36038 Y24.82862
G01 X18.54057 Y24.85724
G01 X18.72690 Y24.90022
G01 X18.84519 Y24.99923
G01 X18.98260 Y25.12963
G01 X19.03884 Y25.18889
G01 X19.16312 Y25.33446
G01 X19.21326 Y25.39981
G01 X19.32766 Y25.56646
G01 X19.37155 Y25.63811
G01 X19.47745 Y25.83349
G01 X19.56383 Y26.02201
G01 X19.65187 Y27.01065
G01 X19.62517 Y27.01264
G01 X19.64836 Y26.97692
G01 X19.62517 Y27.01264
G01 X19.43650 Y27.02673
G01 X19.53180 Y27.01962
G01 X19.58489 Y26.93786
G01 X19.63650 Y26.84619
G01 X19.62466 Y26.70512
G01 X19.56210 Y26.82813
G01 X19.52027 Y26.90054
G01 X19.43650 Y27.02673
G01 X19.23376 Y27.03849
G01 X19.33444 Y27.03438
G01 X19.38529 Y26.97159
G01 X19.45565 Y26.86323
G01 X19.49749 Y26.79082
G01 X19.55613 Y26.67570
G01 X19.60897 Y26.53491
G01 X19.59068 Y26.32272
G01 X19.55730 Y26.45251
G01 X19.53147 Y26.53204
G01 X19.48796 Y26.64535
G01 X19.43287 Y26.75350
G01 X19.39103 Y26.82592
G01 X19.32494 Y26.92772
G01 X19.23376 Y27.03849
G01 X19.02990 Y27.03613
G01 X19.13284 Y27.03857
G01 X19.19309 Y26.97212
G01 X19.26457 Y26.88388
G01 X19.32642 Y26.78863
G01 X19.41979 Y26.61502
G01 X19.46050 Y26.50898
G01 X19.51572 Y26.31975
G01 X19.53350 Y26.20758
G01 X19.54818 Y26.01101
G01 X19.54674 Y25.98360
G01 X19.45431 Y25.79079
G01 X19.46802 Y25.90540
G01 X19.47356 Y26.01101
G01 X19.46802 Y26.11662
G01 X19.44275 Y26.30425
G01 X19.38954 Y26.48594
G01 X19.35164 Y26.58467
G01 X19.30361 Y26.67890
G01 X19.20422 Y26.84002
G01 X19.13764 Y26.92221
G01 X19.02990 Y27.03613
G01 X18.88621 Y27.03275
G01 X18.80732 Y27.02653
G01 X18.92012 Y27.03354
G01 X18.95700 Y27.00367
G01 X19.08220 Y26.87227
G01 X19.14384 Y26.79615
G01 X19.19718 Y26.71401
G01 X19.28347 Y26.55432
G01 X19.34440 Y26.38335
G01 X19.36975 Y26.28874
G01 X19.38509 Y26.19199
G01 X19.39896 Y26.01101
G01 X19.38509 Y25.83004
G01 X19.36975 Y25.73329
G01 X19.34440 Y25.63867
G01 X19.31341 Y25.54568
G01 X19.21326 Y25.39981
G01 X19.16312 Y25.33446
G01 X19.03884 Y25.18889
G01 X18.98260 Y25.12963
G01 X18.84519 Y24.99923
G01 X18.72690 Y24.90022
G01 X18.59119 Y24.86799
G01 X18.69375 Y24.91884
G01 X18.76937 Y24.96791
G01 X18.90706 Y25.07380
G01 X18.97079 Y25.13753
G01 X19.08347 Y25.26974
G01 X19.17437 Y25.41774
G01 X19.21529 Y25.49806
G01 X19.24760 Y25.58221
G01 X19.29678 Y25.74881
G01 X19.31087 Y25.83783
G01 X19.32433 Y26.01101
G01 X19.31087 Y26.18419
G01 X19.29678 Y26.27322
G01 X19.27346 Y26.36029
G01 X19.21529 Y26.52396
G01 X19.13256 Y26.67669
G01 X19.08347 Y26.75229
G01 X19.02675 Y26.82234
G01 X18.90706 Y26.94822
G01 X18.80732 Y27.02653
G01 X18.76386 Y27.02305
G01 X18.63655 Y26.96265
G01 X18.71514 Y27.00029
G01 X18.79314 Y26.94459
G01 X18.85713 Y26.89277
G01 X18.97130 Y26.77243
G01 X19.02312 Y26.70844
G01 X19.10976 Y26.56697
G01 X19.14714 Y26.49361
G01 X19.20249 Y26.33722
G01 X19.22380 Y26.25770
G01 X19.23668 Y26.17639
G01 X19.24971 Y26.01101
G01 X19.24542 Y25.92879
G01 X19.22380 Y25.76433
G01 X19.20249 Y25.68480
G01 X19.14714 Y25.52841
G01 X19.06795 Y25.38264
G01 X19.02312 Y25.31358
G01 X18.97130 Y25.24960
G01 X18.85713 Y25.12925
G01 X18.72550 Y25.02829
G01 X18.65647 Y24.98345
G01 X18.58311 Y24.94607
G01 X18.42985 Y24.88254
G01 X18.26853 Y24.84386
G01 X18.18720 Y24.83098
G01 X18.10501 Y24.82666
G01 X17.93917 Y24.83098
G01 X17.85784 Y24.84386
G01 X17.73826 Y24.87136
G01 X17.67306 Y24.97136
G01 X17.71959 Y24.95351
G01 X17.87336 Y24.91683
G01 X17.94697 Y24.90520
G01 X18.10501 Y24.90129
G01 X18.17940 Y24.90520
G01 X18.25301 Y24.91683
G01 X18.40678 Y24.95351
G01 X18.47636 Y24.98023
G01 X18.61915 Y25.04807
G01 X18.68164 Y25.08864
G01 X18.80722 Y25.18470
G01 X18.85990 Y25.23738
G01 X18.96274 Y25.35744
G01 X19.00333 Y25.41993
G01 X19.07897 Y25.55876
G01 X19.10569 Y25.62834
G01 X19.15080 Y25.77982
G01 X19.17120 Y25.93659
G01 X19.17511 Y26.01101
G01 X19.16246 Y26.16859
G01 X19.15080 Y26.24220
G01 X19.13152 Y26.31416
G01 X19.07897 Y26.46326
G01 X19.04514 Y26.52968
G01 X18.96274 Y26.66458
G01 X18.85990 Y26.78464
G01 X18.80722 Y26.83732
G01 X18.74930 Y26.88424
G01 X18.63655 Y26.96265
G01 X18.46635 Y26.88289
G01 X18.55444 Y26.92330
G01 X18.63780 Y26.87301
G01 X18.75728 Y26.78188
G01 X18.80445 Y26.73471
G01 X18.90239 Y26.62071
G01 X18.93871 Y26.56478
G01 X19.01082 Y26.43293
G01 X19.03472 Y26.37065
G01 X19.07783 Y26.22668
G01 X19.09700 Y26.07764
G01 X19.10048 Y26.01101
G01 X19.08827 Y25.86123
G01 X19.07783 Y25.79534
G01 X19.06056 Y25.73090
G01 X19.01082 Y25.58909
G01 X18.93871 Y25.45724
G01 X18.90239 Y25.40131
G01 X18.86040 Y25.34947
G01 X18.75728 Y25.24015
G01 X18.63780 Y25.14901
G01 X18.58184 Y25.11269
G01 X18.52241 Y25.08239
G01 X18.38372 Y25.02448
G01 X18.23749 Y24.98983
G01 X18.17161 Y24.97939
G01 X18.10501 Y24.97591
G01 X17.95477 Y24.97939
G01 X17.80707 Y25.00720
G01 X17.74265 Y25.02448
G01 X17.59553 Y25.08668
G01 X17.50587 Y25.22867
G01 X17.58184 Y25.17731
G01 X17.63432 Y25.15056
G01 X17.76569 Y25.09544
G01 X17.82258 Y25.08020
G01 X17.96256 Y25.05361
G01 X18.02137 Y25.05051
G01 X18.16381 Y25.05361
G01 X18.22200 Y25.06280
G01 X18.36068 Y25.09544
G01 X18.41565 Y25.11655
G01 X18.54453 Y25.17731
G01 X18.59393 Y25.20939
G01 X18.70734 Y25.29560
G01 X18.74900 Y25.33725
G01 X18.84201 Y25.44515
G01 X18.87409 Y25.49455
G01 X18.94265 Y25.61945
G01 X18.96376 Y25.67444
G01 X19.00483 Y25.81086
G01 X19.01405 Y25.86903
G01 X19.02588 Y26.01101
G01 X19.02279 Y26.06984
G01 X19.00483 Y26.21116
G01 X18.98959 Y26.26806
G01 X18.94265 Y26.40258
G01 X18.91590 Y26.45505
G01 X18.84201 Y26.57687
G01 X18.80496 Y26.62264
G01 X18.70734 Y26.72643
G01 X18.66157 Y26.76349
G01 X18.54453 Y26.84472
G01 X18.46635 Y26.88289
G01 X18.27808 Y26.79442
G01 X18.37529 Y26.84116
G01 X18.50722 Y26.78010
G01 X18.61773 Y26.70314
G01 X18.65743 Y26.67098
G01 X18.69355 Y26.63486
G01 X18.78166 Y26.53301
G01 X18.85128 Y26.41774
G01 X18.87448 Y26.37222
G01 X18.91862 Y26.24500
G01 X18.93185 Y26.19564
G01 X18.93985 Y26.14520
G01 X18.95126 Y26.01101
G01 X18.94859 Y25.95998
G01 X18.93185 Y25.82638
G01 X18.89279 Y25.69750
G01 X18.87448 Y25.64980
G01 X18.85128 Y25.60428
G01 X18.78166 Y25.48902
G01 X18.69355 Y25.38716
G01 X18.65743 Y25.35104
G01 X18.61773 Y25.31889
G01 X18.50722 Y25.24192
G01 X18.38532 Y25.18472
G01 X18.33762 Y25.16641
G01 X18.20648 Y25.13580
G01 X18.15601 Y25.12780
G01 X18.10501 Y25.12514
G01 X17.97036 Y25.12780
G01 X17.83810 Y25.15318
G01 X17.78875 Y25.16641
G01 X17.74105 Y25.18472
G01 X17.61916 Y25.24192
G01 X17.50864 Y25.31889
G01 X17.46894 Y25.35104
G01 X17.37687 Y25.44932
G01 X17.33056 Y25.52132
G01 X17.20857 Y25.59227
G01 X17.36818 Y25.59227
G01 X17.37267 Y25.60083
G01 X17.36818 Y25.59227
G01 X17.40509 Y25.53288
G01 X17.48827 Y25.43710
G01 X17.51888 Y25.40649
G01 X17.62017 Y25.33011
G01 X17.69503 Y25.28688
G01 X17.81182 Y25.23738
G01 X17.97816 Y25.20202
G01 X18.14821 Y25.20202
G01 X18.27275 Y25.22618
G01 X18.35497 Y25.25287
G01 X18.46993 Y25.30654
G01 X18.57387 Y25.37926
G01 X18.60750 Y25.40649
G01 X18.69406 Y25.49925
G01 X18.74486 Y25.56918
G01 X18.80633 Y25.68015
G01 X18.85888 Y25.84187
G01 X18.87666 Y26.01101
G01 X18.86564 Y26.13740
G01 X18.84768 Y26.22193
G01 X18.80633 Y26.34187
G01 X18.74486 Y26.45284
G01 X18.72129 Y26.48914
G01 X18.63810 Y26.58492
G01 X18.57387 Y26.64276
G01 X18.46993 Y26.71548
G01 X18.35497 Y26.76915
G01 X18.27808 Y26.79442
G01 X18.01466 Y26.67271
G01 X18.13262 Y26.67161
G01 X18.26846 Y26.64273
G01 X18.39530 Y26.58625
G01 X18.50765 Y26.50464
G01 X18.60056 Y26.40143
G01 X18.66998 Y26.28119
G01 X18.71291 Y26.14911
G01 X18.72741 Y26.01101
G01 X18.71291 Y25.87291
G01 X18.67991 Y25.76666
G01 X18.65743 Y25.71619
G01 X18.60056 Y25.62059
G01 X18.52721 Y25.53695
G01 X18.48616 Y25.49999
G01 X18.39530 Y25.43578
G01 X18.26846 Y25.37929
G01 X18.13262 Y25.35043
G01 X17.99376 Y25.35043
G01 X17.85794 Y25.37929
G01 X17.75571 Y25.42320
G01 X17.70788 Y25.45084
G01 X17.61872 Y25.51739
G01 X17.54321 Y25.59910
G01 X17.51075 Y25.64378
G01 X17.46894 Y25.71619
G01 X17.45614 Y25.74149
G01 X17.46147 Y25.75104
G01 X17.45614 Y25.74149
G01 X16.91873 Y25.74149
G01 X16.79366 Y25.79392
G01 X16.62454 Y25.84891
G01 X16.43907 Y25.89074
G01 X16.58360 Y25.85996
G01 X16.72546 Y25.81612
G01 X17.50887 Y25.81612
G01 X17.51517 Y25.82668
G01 X17.50887 Y25.81612
G01 X17.52454 Y25.77118
G01 X17.57537 Y25.68109
G01 X17.59866 Y25.64901
G01 X17.65461 Y25.58688
G01 X17.68408 Y25.56036
G01 X17.76838 Y25.50040
G01 X17.86246 Y25.45737
G01 X17.90016 Y25.44512
G01 X18.00155 Y25.42463
G01 X18.12482 Y25.42463
G01 X18.24539 Y25.45026
G01 X18.34031 Y25.49138
G01 X18.37463 Y25.51119
G01 X18.44229 Y25.56036
G01 X18.47176 Y25.58688
G01 X18.54019 Y25.66445
G01 X18.60183 Y25.77118
G01 X18.63991 Y25.88843
G01 X18.65177 Y25.99120
G01 X18.65177 Y26.03082
G01 X18.64303 Y26.11401
G01 X18.63478 Y26.15277
G01 X18.60183 Y26.25084
G01 X18.55101 Y26.34093
G01 X18.52771 Y26.37301
G01 X18.47176 Y26.43514
G01 X18.44229 Y26.46168
G01 X18.35799 Y26.52163
G01 X18.24539 Y26.57177
G01 X18.12482 Y26.59740
G01 X18.02137 Y26.59844
G01 X17.98194 Y26.59430
G01 X17.90016 Y26.57690
G01 X17.86246 Y26.56466
G01 X17.76838 Y26.52163
G01 X17.68408 Y26.46168
G01 X17.66477 Y26.44530
G01 X17.66599 Y26.44159
G01 X17.66477 Y26.44530
G01 X15.12350 Y26.44380
G01 X15.09391 Y26.44147
G01 X15.02782 Y26.42244
G01 X14.97497 Y26.39552
G01 X14.92071 Y26.35320
G01 X14.31830 Y25.75079
G01 X14.32092 Y25.74363
G01 X14.31830 Y25.75079
G01 X14.25162 Y25.76389
G01 X14.14817 Y25.76494
G01 X14.10875 Y25.76080
G01 X14.02696 Y25.74340
G01 X13.98927 Y25.73115
G01 X13.89519 Y25.68813
G01 X13.79547 Y25.61569
G01 X13.71297 Y25.52407
G01 X13.66036 Y25.43502
G01 X13.64423 Y25.39880
G01 X13.61325 Y25.30009
G01 X13.60141 Y25.19732
G01 X13.60141 Y25.15770
G01 X13.61325 Y25.05493
G01 X13.65135 Y24.93768
G01 X13.70217 Y24.84759
G01 X13.72546 Y24.81551
G01 X13.79547 Y24.73934
G01 X13.87852 Y24.67769
G01 X13.91286 Y24.65788
G01 X14.00778 Y24.61675
G01 X14.12836 Y24.59113
G01 X14.23179 Y24.59008
G01 X14.27123 Y24.59422
G01 X14.37220 Y24.61675
G01 X14.46712 Y24.65788
G01 X14.50143 Y24.67769
G01 X14.58452 Y24.73934
G01 X14.65449 Y24.81551
G01 X14.67781 Y24.84759
G01 X14.72864 Y24.93768
G01 X14.76158 Y25.03575
G01 X14.76984 Y25.07454
G01 X14.77961 Y25.17751
G01 X14.76671 Y25.30009
G01 X14.76476 Y25.30738
G01 X14.75741 Y25.31005
G01 X14.76476 Y25.30738
G01 X15.27349 Y25.81612
G01 X15.27115 Y25.82181
G01 X15.27349 Y25.81612
G01 X15.47446 Y25.81612
G01 X15.61634 Y25.85996
G01 X15.76087 Y25.89074
G01 X15.24258 Y25.89074
G01 X14.68017 Y25.32834
G01 X14.69562 Y25.27271
G01 X14.70435 Y25.16550
G01 X14.69374 Y25.07045
G01 X14.65500 Y24.95732
G01 X14.60664 Y24.87479
G01 X14.53458 Y24.79478
G01 X14.44748 Y24.73151
G01 X14.34913 Y24.68772
G01 X14.23179 Y24.66471
G01 X14.13616 Y24.66534
G01 X14.04248 Y24.68460
G01 X13.93250 Y24.73151
G01 X13.84538 Y24.79478
G01 X13.76679 Y24.88490
G01 X13.71952 Y24.96804
G01 X13.68934 Y25.05882
G01 X13.67499 Y25.17751
G01 X13.68934 Y25.29620
G01 X13.71952 Y25.38698
G01 X13.76679 Y25.47012
G01 X13.85475 Y25.56781
G01 X13.93250 Y25.62351
G01 X14.01960 Y25.66298
G01 X14.12427 Y25.68780
G01 X14.24383 Y25.68970
G01 X14.34220 Y25.66915
G01 X14.97347 Y26.30044
G01 X15.03422 Y26.34456
G01 X15.10560 Y26.36778
G01 X17.69701 Y26.37070
G01 X17.72794 Y26.40131
G01 X17.80569 Y26.45701
G01 X17.91568 Y26.50392
G01 X18.00935 Y26.52320
G01 X18.10501 Y26.52381
G01 X18.22233 Y26.50080
G01 X18.33079 Y26.45046
G01 X18.40780 Y26.39374
G01 X18.47984 Y26.31373
G01 X18.53798 Y26.20923
G01 X18.56693 Y26.11810
G01 X18.57818 Y26.01101
G01 X18.56693 Y25.90395
G01 X18.53798 Y25.81279
G01 X18.47984 Y25.70829
G01 X18.40780 Y25.62828
G01 X18.33079 Y25.57157
G01 X18.22233 Y25.52122
G01 X18.11702 Y25.49885
G01 X18.00935 Y25.49885
G01 X17.90404 Y25.52122
G01 X17.80569 Y25.56501
G01 X17.71860 Y25.62828
G01 X17.64654 Y25.70829
G01 X17.59271 Y25.80154
G01 X17.56307 Y25.89074
G01 X15.76087 Y25.89074
G01 X15.57725 Y25.84947
G01 X15.40628 Y25.79392
G01 X15.28698 Y25.74299
G01 X15.16638 Y25.60845
G01 X15.06247 Y25.47312
G01 X15.02099 Y25.41269
G01 X14.92317 Y25.24886
G01 X14.92655 Y25.25813
G01 X14.92046 Y25.25503
G01 X14.92335 Y25.24985
G01 X14.91500 Y25.14299
G01 X14.88386 Y24.90101
G01 X14.81718 Y24.55051
G01 X14.77583 Y24.51076
G01 X14.75292 Y24.51320
G01 X14.77583 Y24.51076
G01 X14.81718 Y24.55051
G01 X14.80862 Y24.51221
G01 X14.79856 Y24.50832
G01 X14.55302 Y24.53438
G01 X14.66813 Y24.52211
G01 X14.73430 Y24.57299
G01 X14.82086 Y24.66575
G01 X14.84670 Y24.69765
G01 X14.87070 Y24.81843
G01 X14.88901 Y24.94508
G01 X14.86496 Y24.87700
G01 X14.84885 Y24.84541
G01 X14.80705 Y24.77296
G01 X14.76542 Y24.71566
G01 X14.68436 Y24.62844
G01 X14.58916 Y24.55696
G01 X14.55302 Y24.53438
G01 X13.70004 Y24.62486
G01 X13.61457 Y24.71566
G01 X13.57294 Y24.77296
G01 X13.51502 Y24.87700
G01 X13.49089 Y24.94523
G01 X13.48515 Y24.98566
G01 X13.50923 Y24.81841
G01 X13.53324 Y24.69770
G01 X13.58487 Y24.63715
G01 X13.71276 Y24.62349
G01 X13.54365 Y24.64147
G01 X13.49613 Y24.90090
G01 X13.47357 Y25.06087
G01 X13.46247 Y25.17225
G01 X13.52577 Y25.17751
G01 X13.67499 Y25.17751
G04 P0 ( dwell for no time -- G64 should not smooth over this point )
G00 Z0.50000 ( retract )

G00 X13.22171 Y24.20398 ( rapid move to begin. )
G01 F100.00000
( Mill infeed pass 1/1 )
G01 Z-0.17000
G04 P0 ( dwell for no time -- G64 should not smooth over this point )
G01 F200.00000
G01 X13.22171 Y24.20398
G01 X13.09196 Y24.06324
G01 X12.92300 Y23.93769
G01 X12.84815 Y23.89448
G01 X12.65495 Y23.81094
G01 X12.40682 Y23.75821
G01 X12.20055 Y23.75592
G01 X12.06750 Y23.88257
G01 X12.11213 Y23.84089
G01 X12.19636 Y23.83055
G01 X12.39902 Y23.83240
G01 X12.63192 Y23.88191
G01 X12.84942 Y23.97873
G01 X13.01447 Y24.09636
G01 X13.06710 Y24.14376
G01 X13.20133 Y24.29562
G01 X13.30428 Y24.47020
G01 X13.33308 Y24.53492
G01 X13.39394 Y24.72824
G01 X13.41716 Y24.93357
G01 X13.39943 Y25.05242
G01 X13.38264 Y25.24259
G01 X13.35246 Y25.33547
G01 X13.38264 Y25.24259
G01 X13.35246 Y25.33547
G01 X13.23491 Y25.43072
G01 X13.26212 Y25.37205
G01 X13.31381 Y25.21299
G01 X13.32529 Y25.15897
G01 X13.34421 Y24.96501
G01 X13.32529 Y24.77106
G01 X13.31381 Y24.71703
G01 X13.25221 Y24.53215
G01 X13.14096 Y24.33946
G01 X12.99209 Y24.17413
G01 X12.83529 Y24.05844
G01 X12.78747 Y24.03080
G01 X12.60885 Y23.95287
G01 X12.39123 Y23.90662
G01 X12.16875 Y23.90662
G01 X11.99552 Y23.94193
G01 X12.06750 Y23.88257
G01 X11.99476 Y23.94259
G01 X11.94078 Y23.98140
G01 X11.85341 Y24.03827
G01 X11.77063 Y24.08262
G01 X11.61894 Y24.19085
G01 X11.50045 Y24.31178
G01 X11.47289 Y24.34645
G01 X11.39946 Y24.45666
G01 X11.36204 Y24.52857
G01 X11.32448 Y24.61658
G01 X11.27901 Y24.77964
G01 X11.26110 Y24.96501
G01 X11.36499 Y24.96501
G01 X11.38498 Y24.77477
G01 X11.43977 Y24.60408
G01 X11.54731 Y24.41782
G01 X11.66773 Y24.28503
G01 X11.81239 Y24.17916
G01 X11.99725 Y24.09478
G01 X12.19636 Y24.05440
G01 X12.37563 Y24.05503
G01 X12.56273 Y24.09478
G01 X12.73748 Y24.17261
G01 X12.88289 Y24.27746
G01 X13.02679 Y24.43728
G01 X13.12021 Y24.60408
G01 X13.17499 Y24.77477
G01 X13.19435 Y24.95300
G01 X13.17499 Y25.15526
G01 X13.11043 Y25.34789
G01 X13.02023 Y25.50283
G01 X12.90075 Y25.63649
G01 X12.73748 Y25.75742
G01 X12.55112 Y25.83834
G01 X12.37563 Y25.87499
G01 X12.19636 Y25.87563
G01 X11.99725 Y25.83522
G01 X11.81239 Y25.75086
G01 X11.66773 Y25.64500
G01 X11.54731 Y25.51218
G01 X11.44409 Y25.33717
G01 X11.38498 Y25.15526
G01 X11.36499 Y24.96501
G01 X11.29037 Y24.96501
G01 X11.30888 Y24.77886
G01 X11.31714 Y24.74010
G01 X11.37594 Y24.56250
G01 X11.47937 Y24.38333
G01 X11.61780 Y24.22958
G01 X11.76855 Y24.11879
G01 X11.80286 Y24.09898
G01 X11.97418 Y24.02384
G01 X12.15694 Y23.98391
G01 X12.19636 Y23.97977
G01 X12.38343 Y23.98081
G01 X12.58579 Y24.02384
G01 X12.75711 Y24.09898
G01 X12.79143 Y24.11879
G01 X12.94218 Y24.22958
G01 X13.06811 Y24.36791
G01 X13.09140 Y24.39997
G01 X13.17505 Y24.54482
G01 X13.19115 Y24.58102
G01 X13.24797 Y24.75925
G01 X13.26961 Y24.96501
G01 X13.24797 Y25.17075
G01 X13.18404 Y25.36753
G01 X13.08061 Y25.54670
G01 X12.94218 Y25.70045
G01 X12.77479 Y25.82204
G01 X12.60433 Y25.89907
G01 X12.56661 Y25.91134
G01 X12.38343 Y25.94921
G01 X12.17655 Y25.94921
G01 X11.97418 Y25.90619
G01 X11.80286 Y25.83105
G01 X11.76855 Y25.81124
G01 X11.61780 Y25.70045
G01 X11.49186 Y25.56212
G01 X11.46857 Y25.53004
G01 X11.38493 Y25.38521
G01 X11.36883 Y25.34899
G01 X11.31201 Y25.17075
G01 X11.29037 Y24.96501
G01 X11.26110 Y24.96501
G01 X11.27899 Y25.15041
G01 X11.32448 Y25.31350
G01 X11.36204 Y25.40149
G01 X11.39946 Y25.47340
G01 X11.47289 Y25.58361
G01 X11.50045 Y25.61828
G01 X11.62460 Y25.74403
G01 X11.77063 Y25.84744
G01 X11.85364 Y25.89183
G01 X11.99542 Y25.98805
G01 X12.14142 Y26.01909
G01 X12.19636 Y26.02485
G01 X12.39123 Y26.02341
G01 X12.56440 Y25.98808
G01 X12.39123 Y26.02341
G01 X12.19636 Y26.02485
G01 X12.14142 Y26.01909
G01 X11.99542 Y25.98805
G01 X12.11249 Y26.08922
G01 X12.19636 Y26.09948
G01 X12.36362 Y26.09948
G01 X12.44782 Y26.08914
G01 X12.35943 Y26.17408
G01 X12.20068 Y26.17408
G01 X12.11249 Y26.08922
G01 X12.22488 Y26.19770
G01 X12.33512 Y26.19770
G01 X12.49242 Y26.04749
G01 X12.56717 Y25.98594
G01 X12.70446 Y25.89300
G01 X12.78932 Y25.84744
G01 X12.93535 Y25.74403
G01 X13.06049 Y25.61721
G01 X13.18830 Y25.47395
G01 X13.25249 Y25.41454
G01 X13.37517 Y25.31866
G01 X13.39961 Y25.05104
G01 X13.43570 Y24.80573
G01 X13.45960 Y24.68541
G01 X13.40095 Y24.50383
G01 X13.45960 Y24.68541
G01 X13.47256 Y24.61556
G01 X13.32135 Y24.37942
G01 X13.19095 Y24.15059
G01 X13.10283 Y23.97617
G01 X12.92402 Y23.84950
G01 X12.72572 Y23.75829
G01 X12.64947 Y23.73233
G01 X12.85087 Y23.73233
G01 X12.96133 Y23.78488
G01 X13.03222 Y23.83258
G01 X13.10283 Y23.97617
G01 X13.04609 Y23.86362
G01 X12.98714 Y23.73233
G01 X12.22483 Y23.73233
G01 X12.14101 Y23.81368
G01 X11.99542 Y23.44805
G01 X11.85364 Y23.35183
G01 X11.75087 Y23.29410
G01 X11.62458 Y23.20403
G01 X11.58158 Y23.16377
G01 X11.50045 Y23.07828
G01 X11.44307 Y23.00182
G01 X11.40007 Y22.93433
G01 X11.36248 Y22.86141
G01 X11.32161 Y22.76380
G01 X11.27764 Y22.60309
G01 X11.26110 Y22.42501
G01 X11.36499 Y22.42501
G01 X11.38498 Y22.23477
G01 X11.43977 Y22.06408
G01 X11.54731 Y21.87782
G01 X11.67708 Y21.73746
G01 X11.82250 Y21.63261
G01 X11.98600 Y21.55910
G01 X12.18434 Y21.51503
G01 X12.37563 Y21.51503
G01 X12.57398 Y21.55910
G01 X12.73748 Y21.63261
G01 X12.88289 Y21.73746
G01 X13.02023 Y21.88719
G01 X13.11589 Y22.05285
G01 X13.17687 Y22.24666
G01 X13.19498 Y22.42501
G01 X13.17687 Y22.60337
G01 X13.11589 Y22.79717
G01 X13.02023 Y22.96283
G01 X12.88289 Y23.11257
G01 X12.73748 Y23.21742
G01 X12.57398 Y23.29093
G01 X12.37563 Y23.33499
G01 X12.18434 Y23.33499
G01 X11.98600 Y23.29093
G01 X11.82250 Y23.21742
G01 X11.67708 Y23.11257
G01 X11.53974 Y22.96283
G01 X11.44409 Y22.79717
G01 X11.38498 Y22.61526
G01 X11.36499 Y22.42501
G01 X11.29037 Y22.42501
G01 X11.30888 Y22.23886
G01 X11.31714 Y22.20010
G01 X11.37594 Y22.02250
G01 X11.47937 Y21.84333
G01 X11.61780 Y21.68958
G01 X11.76855 Y21.57879
G01 X11.80286 Y21.55898
G01 X11.97418 Y21.48384
G01 X12.15694 Y21.44391
G01 X12.19636 Y21.43977
G01 X12.36362 Y21.43977
G01 X12.40304 Y21.44391
G01 X12.58579 Y21.48384
G01 X12.75711 Y21.55898
G01 X12.79143 Y21.57879
G01 X12.94218 Y21.68958
G01 X13.06811 Y21.82791
G01 X13.09140 Y21.85997
G01 X13.17505 Y22.00482
G01 X13.19115 Y22.04102
G01 X13.24797 Y22.21925
G01 X13.26961 Y22.42501
G01 X13.24797 Y22.63075
G01 X13.19115 Y22.80899
G01 X13.17505 Y22.84521
G01 X13.09140 Y22.99004
G01 X13.06811 Y23.02212
G01 X12.94218 Y23.16045
G01 X12.79143 Y23.27124
G01 X12.75711 Y23.29105
G01 X12.58579 Y23.36619
G01 X12.40304 Y23.40609
G01 X12.36362 Y23.41025
G01 X12.17655 Y23.40921
G01 X11.99336 Y23.37134
G01 X11.95564 Y23.35907
G01 X11.78518 Y23.28204
G01 X11.63324 Y23.17294
G01 X11.60378 Y23.14640
G01 X11.47937 Y23.00670
G01 X11.38493 Y22.84521
G01 X11.36883 Y22.80899
G01 X11.31201 Y22.63075
G01 X11.29037 Y22.42501
G01 X11.26110 Y22.42501
G01 X11.27901 Y22.23964
G01 X11.32448 Y22.07660
G01 X11.36204 Y21.98857
