( pcb2gcode 2.4.0 )
( Software-independent Gcode )

G94 ( Millimeters per minute feed rate. )
G21 ( Units == Millimeters. )

G90 ( Absolute coordinates. )
G00 S1000 ( RPM spindle speed. )
G64 P0.01016 ( set maximum deviation from commanded toolpath )
G01 F200.00000 ( Feedrate. )


G00 Z0.50000 (Retract to tool change height)
T0
M5      (Spindle stop.)
G04 P1.00000 (Wait for spindle to stop)
(MSG, Change tool bit to mill diameter 0.15000mm)
M6      (Tool change.)
M0      (Temporary machine stop.)
M3 ( Spindle on clockwise. )
G04 P1.00000 (Wait for spindle to get up to speed)
G04 P0 ( dwell for no time -- G64 should not smooth over this point )
G00 Z0.50000 ( retract )

G00 X60.52174 Y65.80552 ( rapid move to begin. )
G01 F100.00000
( Mill infeed pass 1/1 )
G01 Z-0.17000
G04 P0 ( dwell for no time -- G64 should not smooth over this point )
G01 F200.00000
G01 X60.52174 Y65.80552
G01 X60.54000 Y65.62000
G01 X60.54000 Y5.93000
G01 X60.52964 Y5.96645
G01 X60.45501 Y5.96645
G01 X60.52964 Y5.96645
G01 X60.54000 Y5.93000
G01 X60.45631 Y5.08001
G01 X60.44978 Y5.03602
G01 X60.38862 Y4.76152
G01 X60.44978 Y5.03602
G01 X60.45631 Y5.08001
G01 X60.44241 Y4.93894
G01 X60.19903 Y4.13666
G01 X60.08087 Y3.85043
G01 X60.19903 Y4.13666
G01 X60.15331 Y3.98599
G01 X59.68387 Y3.10770
G01 X59.05212 Y2.33791
G01 X58.28232 Y1.70616
G01 X57.40404 Y1.23672
G01 X56.45108 Y0.94761
G01 X55.46000 Y0.85000
G01 X5.93000 Y0.85000
G01 X4.93894 Y0.94761
G01 X3.98599 Y1.23672
G01 X3.10770 Y1.70616
G01 X2.33791 Y2.33791
G01 X1.70616 Y3.10770
G01 X1.23671 Y3.98599
G01 X1.00083 Y4.76361
G01 X0.93514 Y5.06564
G01 X1.00083 Y4.76361
G01 X0.94761 Y4.93894
G01 X0.85000 Y5.93000
G01 X0.85000 Y65.62000
G01 X0.93372 Y66.46996
G01 X0.94027 Y66.51403
G01 X1.00143 Y66.78848
G01 X0.94027 Y66.51403
G01 X0.93372 Y66.46996
G01 X0.94761 Y66.61108
G01 X1.19082 Y67.41271
G01 X1.31124 Y67.70344
G01 X1.19082 Y67.41271
G01 X1.23671 Y67.56404
G01 X1.62076 Y68.28256
G01 X1.76968 Y68.51631
G01 X1.79546 Y68.55113
G01 X1.76968 Y68.51631
G01 X1.62076 Y68.28256
G01 X1.70616 Y68.44232
G01 X2.21355 Y69.06056
G01 X2.34362 Y69.20252
G01 X2.48553 Y69.33328
G01 X2.34362 Y69.20252
G01 X2.21355 Y69.06056
G01 X2.33791 Y69.21212
G01 X3.01118 Y69.76457
G01 X3.27301 Y69.93223
G01 X3.00953 Y69.76327
G01 X3.10770 Y69.84387
G01 X3.98599 Y70.31331
G01 X4.76155 Y70.54862
G01 X5.03602 Y70.60978
G01 X5.74402 Y70.68171
G01 X5.96703 Y70.68964
G01 X16.73745 Y70.68964
G01 X16.79515 Y70.68364
G01 X16.84583 Y70.66960
G01 X16.92975 Y70.62040
G01 X16.95858 Y70.59876
G01 X16.98278 Y70.57206
G01 X17.00150 Y70.54125
G01 X17.04499 Y70.44354
G01 X17.04738 Y70.42911
G01 X16.96922 Y70.32558
G01 X16.96269 Y70.28903
G01 X16.95406 Y70.26896
G01 X16.92828 Y70.23460
G01 X16.76569 Y70.10579
G01 X16.72058 Y70.06439
G01 X16.63778 Y69.96779
G01 X16.60946 Y69.92870
G01 X16.52637 Y69.77328
G01 X16.45759 Y69.55563
G01 X16.40090 Y69.49342
G01 X16.36970 Y69.47831
G01 X16.40090 Y69.49342
G01 X16.45759 Y69.55563
G01 X16.44946 Y69.47834
G01 X16.36970 Y69.47831
G01 X16.26168 Y69.46358
G01 X13.47916 Y69.46343
G01 X13.42539 Y69.46048
G01 X13.33280 Y69.42997
G01 X13.24530 Y69.36937
G01 X3.43229 Y59.55527
G01 X3.35271 Y59.46799
G01 X3.31637 Y59.39502
G01 X3.30194 Y59.34821
G01 X3.29206 Y59.28097
G01 X3.29363 Y38.95003
G01 X3.29823 Y38.88406
G01 X3.30849 Y38.84926
G01 X3.33315 Y38.78449
G01 X3.36501 Y38.73750
G01 X3.38738 Y38.70888
G01 X3.62371 Y38.47499
G01 X3.67194 Y38.41701
G01 X3.68949 Y38.38836
G01 X3.76285 Y38.31503
G01 X3.68969 Y38.24187
G01 X3.70105 Y38.27459
G01 X3.70156 Y38.29646
G01 X3.69648 Y38.36727
G01 X3.68949 Y38.38836
G01 X3.69648 Y38.36727
G01 X3.70105 Y38.27459
G01 X3.69681 Y38.25511
G01 X3.68561 Y38.23430
G01 X3.62310 Y38.15445
G01 X3.43199 Y37.96496
G01 X3.35271 Y37.87799
G01 X3.30765 Y37.78267
G01 X3.29206 Y37.69097
G01 X3.29320 Y10.98303
G01 X3.29721 Y10.92428
G01 X3.32345 Y10.83949
G01 X3.34743 Y10.79672
G01 X3.38804 Y10.74127
G01 X4.65436 Y9.47736
G01 X4.69950 Y9.43650
G01 X4.77704 Y9.39738
G01 X4.82386 Y9.38295
G01 X4.89106 Y9.37307
G01 X11.17515 Y9.37366
G01 X11.22874 Y9.36784
G01 X11.26128 Y9.36002
G01 X11.36502 Y9.36002
G01 X11.36502 Y9.25664
G01 X11.34990 Y9.28773
G01 X11.33482 Y9.30355
G01 X11.28117 Y9.35003
G01 X11.26128 Y9.36002
G01 X11.28117 Y9.35003
G01 X11.33482 Y9.30355
G01 X11.36070 Y9.27094
G01 X11.36748 Y9.24836
G01 X11.37977 Y9.14854
G01 X11.38003 Y8.91519
G01 X11.38650 Y8.88628
G01 X11.40845 Y8.85346
G01 X11.44129 Y8.83152
G01 X11.48000 Y8.82479
G01 X13.08988 Y8.82502
G01 X13.11876 Y8.83152
G01 X13.15160 Y8.85346
G01 X13.17355 Y8.88628
G01 X13.18002 Y8.91519
G01 X13.18002 Y10.53492
G01 X13.17355 Y10.56380
G01 X13.15160 Y10.59662
G01 X13.11876 Y10.61854
G01 X13.08005 Y10.62529
G01 X11.48000 Y10.62529
G01 X11.44129 Y10.61854
G01 X11.40845 Y10.59662
G01 X11.38650 Y10.56380
G01 X11.38003 Y10.53492
G01 X11.37977 Y10.30154
G01 X11.37284 Y10.22636
G01 X11.36502 Y10.19380
G01 X11.36502 Y10.09004
G01 X11.26159 Y10.09004
G01 X11.29273 Y10.10515
G01 X11.30855 Y10.12029
G01 X11.35503 Y10.17388
G01 X11.36502 Y10.19380
G01 X11.35503 Y10.17388
G01 X11.30855 Y10.12029
G01 X11.27596 Y10.09436
G01 X11.25336 Y10.08757
G01 X11.15351 Y10.07528
G01 X5.10308 Y10.07703
G01 X5.05157 Y10.08608
G01 X4.98085 Y10.14157
G01 X4.06056 Y11.06187
G01 X4.03513 Y11.08971
G01 X4.00504 Y11.13258
G01 X3.99427 Y11.22184
G01 X3.99427 Y37.44121
G01 X3.99599 Y37.47888
G01 X4.00504 Y37.53047
G01 X4.04164 Y37.57939
G01 X4.34286 Y37.88350
G01 X4.37069 Y37.90890
G01 X4.41357 Y37.93903
G01 X4.50280 Y37.94977
G01 X11.15351 Y37.94977
G01 X11.22869 Y37.94286
G01 X11.26136 Y37.93502
G01 X11.36502 Y37.93502
G01 X11.36502 Y37.83161
G01 X11.34990 Y37.86273
G01 X11.33482 Y37.87855
G01 X11.28117 Y37.92503
G01 X11.26136 Y37.93502
G01 X11.28117 Y37.92503
G01 X11.34990 Y37.86273
G01 X11.36075 Y37.84586
G01 X11.36748 Y37.82336
G01 X11.37977 Y37.72354
G01 X11.38003 Y37.49016
G01 X11.38650 Y37.46128
G01 X11.40845 Y37.42844
G01 X11.44129 Y37.40652
G01 X11.47017 Y37.40002
G01 X11.70352 Y37.39976
G01 X11.77863 Y37.39285
G01 X11.81137 Y37.38500
G01 X11.91500 Y37.38500
G01 X11.91500 Y37.28160
G01 X11.89994 Y37.31272
G01 X11.88483 Y37.32854
G01 X11.83116 Y37.37505
G01 X11.81137 Y37.38500
G01 X11.83116 Y37.37505
G01 X11.88483 Y37.32854
G01 X11.91071 Y37.29593
G01 X11.91749 Y37.27332
G01 X11.92770 Y37.20235
G01 X11.92963 Y37.04972
G01 X11.93436 Y36.98297
G01 X11.96339 Y36.89552
G01 X12.02399 Y36.80802
G01 X15.66351 Y33.17094
G01 X15.68896 Y33.14303
G01 X15.71903 Y33.10020
G01 X15.72978 Y33.01095
G01 X15.72978 Y31.01397
G01 X15.71502 Y30.90280
G01 X15.71502 Y30.87930
G01 X15.69269 Y30.86935
G01 X15.70811 Y30.88725
G01 X15.71502 Y30.90280
G01 X15.70811 Y30.88725
G01 X15.69269 Y30.86935
G01 X15.57646 Y30.79157
G01 X15.46955 Y30.70724
G01 X15.44088 Y30.67973
G01 X15.35779 Y30.58281
G01 X15.32945 Y30.54369
G01 X15.25216 Y30.40196
G01 X15.20080 Y30.24278
G01 X15.19584 Y30.22203
G01 X15.17745 Y30.04044
G01 X15.20036 Y29.84517
G01 X15.25561 Y29.67798
G01 X15.34398 Y29.52350
G01 X15.45828 Y29.39216
G01 X15.59719 Y29.28418
G01 X15.63895 Y29.26000
G01 X15.75429 Y29.20521
G01 X15.79165 Y29.19175
G01 X15.92366 Y29.15820
G01 X15.99640 Y29.14883
G01 X16.09889 Y29.14489
G01 X16.18454 Y29.15109
G01 X16.27334 Y29.16579
G01 X16.36816 Y29.19234
G01 X16.44044 Y29.22007
G01 X16.53920 Y29.27077
G01 X16.59386 Y29.30572
G01 X16.69030 Y29.38301
G01 X16.72779 Y29.41949
G01 X16.80209 Y29.50740
G01 X16.86076 Y29.59655
G01 X16.90968 Y29.66257
G01 X16.93874 Y29.68002
G01 X16.90968 Y29.66257
G01 X16.91867 Y29.68002
G01 X17.02152 Y29.69272
G01 X17.12238 Y29.69330
G01 X17.18055 Y29.68403
G01 X17.25126 Y29.62856
G01 X18.37577 Y28.50824
G01 X18.45583 Y28.46625
G01 X18.52243 Y28.44949
G01 X18.57100 Y28.44266
G01 X22.82788 Y28.44438
G01 X22.93558 Y28.42962
G01 X23.04673 Y28.42962
G01 X23.07858 Y28.41538
G01 X23.14297 Y28.37773
G01 X23.21663 Y28.39945
G01 X23.35844 Y28.42962
G01 X23.04673 Y28.42962
G01 X24.04162 Y28.42962
G01 X24.18343 Y28.39945
G01 X24.25679 Y28.37783
G01 X24.31355 Y28.41113
G01 X24.35359 Y28.42962
G01 X24.04162 Y28.42962
G01 X24.46423 Y28.42962
G01 X24.57256 Y28.44438
G01 X24.78112 Y28.44453
G01 X24.85125 Y28.44001
G01 X24.89605 Y28.45360
G01 X24.93738 Y28.47319
G01 X25.07020 Y28.45325
G01 X25.67352 Y29.05530
G01 X25.69956 Y29.18299
G01 X25.71525 Y29.22632
G01 X25.79755 Y29.31207
G01 X25.78637 Y29.29132
G01 X25.78160 Y29.24994
G01 X25.78665 Y29.17913
G01 X25.79791 Y29.13709
G01 X25.86651 Y29.04540
G01 X25.88401 Y29.03229
G01 X25.92600 Y29.01441
G01 X25.88401 Y29.03229
G01 X25.85584 Y29.05716
G01 X25.75282 Y29.07075
G01 X25.77207 Y29.16521
G01 X25.78515 Y29.20024
G01 X25.78213 Y29.27181
G01 X25.78637 Y29.29132
G01 X25.79755 Y29.31207
G01 X25.71525 Y29.22632
G01 X25.69956 Y29.18299
G01 X25.67962 Y29.08522
G01 X25.07782 Y28.48370
G01 X25.04589 Y28.45632
G01 X24.93738 Y28.47319
G01 X24.97883 Y28.49782
G01 X25.02506 Y28.53648
G01 X25.79349 Y29.30453
G01 X25.84055 Y29.36950
G01 X25.90900 Y29.43859
G01 X25.95881 Y29.47722
G01 X25.99448 Y29.49602
G01 X26.10766 Y29.49551
G01 X26.14413 Y29.48129
G01 X26.10766 Y29.49551
G01 X26.01492 Y29.49780
G01 X25.98891 Y29.49449
G01 X25.95881 Y29.47722
G01 X25.97634 Y29.48728
G01 X26.05572 Y29.56663
G01 X26.06974 Y29.56973
G01 X26.06796 Y29.57887
G01 X26.06974 Y29.56973
G01 X26.09356 Y29.56231
G01 X26.07657 Y29.56927
G01 X26.05572 Y29.56663
G01 X26.07812 Y29.58903
G01 X26.14233 Y29.48284
G01 X26.22313 Y29.41136
G01 X26.29125 Y29.32856
G01 X26.31276 Y29.27628
G01 X26.31403 Y29.22734
G01 X26.30471 Y29.16262
G01 X26.29049 Y29.12150
G01 X26.23133 Y29.05002
G01 X26.19874 Y29.02416
G01 X26.18432 Y29.01982
G01 X26.29493 Y29.01982
G01 X26.33578 Y29.03882
G01 X26.41253 Y29.08639
G01 X26.58368 Y29.05218
G01 X26.79140 Y29.03232
G01 X26.99719 Y29.03417
G01 X27.16638 Y29.05218
G01 X27.33699 Y29.08629
G01 X27.45386 Y29.01982
G01 X27.57016 Y29.01982
G01 X27.52384 Y29.04377
G01 X27.50743 Y29.05822
G01 X27.45622 Y29.13557
G01 X27.44040 Y29.17613
G01 X27.43882 Y29.23168
G01 X27.39193 Y29.13978
G01 X27.48678 Y29.08710
G01 X27.50743 Y29.05822
G01 X27.52384 Y29.04377
G01 X27.57016 Y29.01982
G01 X27.52384 Y29.04377
G01 X27.50743 Y29.05822
G01 X27.44639 Y29.15510
G01 X27.43852 Y29.19792
G01 X27.43915 Y29.26892
G01 X27.44733 Y29.31050
G01 X27.45780 Y29.32896
G01 X27.37250 Y29.26587
G01 X27.31822 Y29.15858
G01 X27.15574 Y29.12604
G01 X26.95775 Y29.10694
G01 X26.75965 Y29.10867
G01 X26.59432 Y29.12604
G01 X26.43059 Y29.15883
G01 X26.37819 Y29.26539
G01 X26.29125 Y29.32856
G01 X26.31276 Y29.27628
G01 X26.31586 Y29.25467
G01 X26.29956 Y29.14138
G01 X26.27781 Y29.10369
G01 X26.23133 Y29.05002
G01 X26.19874 Y29.02416
G01 X26.18432 Y29.01982
G01 X26.21551 Y29.03493
G01 X26.26400 Y29.08771
G01 X26.29846 Y29.10349
G01 X26.35663 Y29.13955
G01 X26.31403 Y29.22734
G01 X26.31276 Y29.27628
G01 X26.29125 Y29.32856
G01 X26.41751 Y29.23760
G01 X26.58101 Y29.16412
G01 X26.76747 Y29.12190
G01 X26.97065 Y29.12002
G01 X27.14614 Y29.15667
G01 X27.33252 Y29.23760
G01 X27.45622 Y29.32670
G01 X27.60966 Y29.50933
G01 X27.65574 Y29.58151
G01 X27.70722 Y29.65055
G01 X27.71365 Y29.66500
G01 X27.73372 Y29.66500
G01 X27.70722 Y29.65055
G01 X27.73128 Y29.66450
G01 X27.81654 Y29.67770
G01 X27.90824 Y29.67964
G01 X28.00755 Y29.66503
G01 X28.11888 Y29.66500
G01 X28.17794 Y29.63534
G01 X28.24680 Y29.59101
G01 X28.42891 Y29.61332
G01 X28.59876 Y29.61588
G01 X28.77049 Y29.59998
G01 X28.82620 Y29.59081
G01 X28.91243 Y29.64580
G01 X28.95363 Y29.66500
G01 X29.06424 Y29.66503
G01 X29.17232 Y29.67979
G01 X32.02088 Y29.67948
G01 X32.09949 Y29.66902
G01 X32.17018 Y29.61349
G01 X32.43155 Y29.35203
G01 X32.49705 Y29.26564
G01 X32.57625 Y29.18642
G01 X32.58537 Y29.16302
G01 X32.61407 Y29.04303
G01 X32.62692 Y28.90676
G01 X32.92558 Y28.60806
G01 X33.06530 Y28.59907
G01 X32.94465 Y28.60684
G01 X32.62560 Y28.92597
G01 X32.61407 Y29.04303
G01 X32.58537 Y29.16302
G01 X32.57625 Y29.18642
G01 X33.26116 Y28.50379
G01 X33.19235 Y28.57011
G01 X33.15423 Y28.58243
G01 X33.05738 Y28.59960
G01 X32.61384 Y29.04329
G01 X32.58537 Y29.16302
G01 X32.57625 Y29.18642
G01 X32.49705 Y29.26564
G01 X32.50602 Y29.24629
G01 X32.50719 Y29.15820
G01 X32.54074 Y29.02810
G01 X32.55052 Y28.93018
G01 X32.44564 Y28.93684
G01 X32.36551 Y28.95165
G01 X32.33421 Y28.96183
G01 X32.36551 Y28.95165
G01 X32.45405 Y28.93630
G01 X32.48948 Y28.96424
G01 X32.53929 Y29.03417
G01 X32.50719 Y29.15820
G01 X32.50602 Y29.24629
G01 X32.49705 Y29.26564
G01 X32.50602 Y29.24629
G01 X32.50772 Y29.22571
G01 X32.50490 Y29.13298
G01 X32.48842 Y29.09269
G01 X32.43589 Y29.01616
G01 X32.40020 Y28.99119
G01 X32.31468 Y28.95525
G01 X32.29304 Y28.95231
G01 X32.23995 Y28.95828
G01 X33.00264 Y28.19653
G01 X32.99304 Y28.21845
G01 X32.99281 Y28.30346
G01 X32.98522 Y28.32231
G01 X32.95814 Y28.43915
G01 X32.94920 Y28.53178
G01 X33.05822 Y28.52477
G01 X33.13784 Y28.50961
G01 X33.16584 Y28.50031
G01 X33.13784 Y28.50961
G01 X33.04432 Y28.52566
G01 X33.01275 Y28.50044
G01 X32.96058 Y28.42871
G01 X32.98522 Y28.32231
G01 X32.99281 Y28.30346
G01 X32.99304 Y28.21845
G01 X33.00264 Y28.19653
G01 X32.92362 Y28.27555
G01 X32.91318 Y28.30262
G01 X32.88636 Y28.41832
G01 X32.44242 Y28.86226
G01 X32.55509 Y28.85513
G01 X32.87414 Y28.53608
G01 X32.88636 Y28.41832
G01 X32.87285 Y28.55525
G01 X32.57422 Y28.85393
G01 X32.43426 Y28.86305
G01 X32.34953 Y28.87872
G01 X32.30693 Y28.89224
G01 X32.23995 Y28.95828
G01 X32.16068 Y28.99239
G01 X32.09591 Y29.00570
G01 X29.34733 Y29.00509
G01 X29.27242 Y29.01197
G01 X29.23963 Y29.01982
G01 X29.20636 Y29.01982
G01 X29.19665 Y29.04977
G01 X29.23039 Y29.02205
G01 X29.23963 Y29.01982
G01 X29.23039 Y29.02205
G01 X29.19665 Y29.04977
G01 X29.07933 Y29.22317
G01 X28.95944 Y29.35190
G01 X28.89350 Y29.39902
G01 X28.75695 Y29.45982
G01 X28.61075 Y29.49089
G01 X28.44939 Y29.48901
G01 X28.30382 Y29.45551
G01 X28.17852 Y29.39902
G01 X28.11246 Y29.35182
G01 X28.13214 Y29.39254
G01 X28.13671 Y29.41393
G01 X28.13184 Y29.50656
G01 X28.12043 Y29.54857
G01 X28.08558 Y29.59825
G01 X28.13928 Y29.57148
G01 X28.19023 Y29.53869
G01 X28.13625 Y29.44771
G01 X28.13671 Y29.41393
G01 X28.13214 Y29.39254
G01 X28.11246 Y29.35182
G01 X28.16841 Y29.39246
G01 X28.20029 Y29.40940
G01 X28.26412 Y29.51842
G01 X28.47428 Y29.54098
G01 X28.63823 Y29.53884
G01 X28.80867 Y29.51827
G01 X28.87001 Y29.41017
G01 X28.90361 Y29.39246
G01 X28.95944 Y29.35190
G01 X28.93585 Y29.40852
G01 X28.93379 Y29.45197
G01 X28.94905 Y29.54347
G01 X28.95812 Y29.56335
G01 X28.98467 Y29.59714
G01 X28.95035 Y29.58149
G01 X28.88279 Y29.53841
G01 X28.93366 Y29.44916
G01 X28.93585 Y29.40852
G01 X28.95944 Y29.35190
G01 X28.93585 Y29.40852
G01 X28.93275 Y29.43016
G01 X28.94905 Y29.54347
G01 X28.97080 Y29.58116
G01 X29.01728 Y29.63483
G01 X29.04989 Y29.66071
G01 X29.07252 Y29.66749
G01 X28.00755 Y29.66503
G01 X28.03394 Y29.65307
G01 X28.05147 Y29.64001
G01 X28.12043 Y29.54857
G01 X28.13184 Y29.50656
G01 X28.13625 Y29.44771
G01 X28.13671 Y29.41393
G01 X28.13214 Y29.39254
G01 X28.11246 Y29.35182
G01 X27.97499 Y29.20059
G01 X27.87298 Y29.04237
G01 X27.86567 Y29.01982
G01 X27.83636 Y29.01982
G01 X27.87298 Y29.04237
G01 X27.84182 Y29.02106
G01 X27.72353 Y29.00509
G01 X27.65360 Y29.00582
G01 X27.57016 Y29.01982
G01 X26.18432 Y29.01982
G01 X26.07578 Y29.00509
G01 X26.00992 Y29.00527
G01 X25.91723 Y29.01266
G01 X25.86336 Y28.99366
G01 X25.80260 Y28.94954
G01 X24.99781 Y28.14471
G01 X25.07601 Y28.22295
G01 X25.09168 Y28.26623
G01 X25.11162 Y28.36404
G01 X25.74418 Y28.99660
G01 X25.84797 Y28.98423
G01 X25.72272 Y28.99897
G01 X25.11810 Y28.39597
G01 X25.09168 Y28.26623
G01 X25.07601 Y28.22295
G01 X24.99781 Y28.14471
G01 X25.00913 Y28.17740
G01 X25.00611 Y28.24901
G01 X25.01914 Y28.28398
G01 X25.03908 Y28.38185
G01 X24.92907 Y28.39899
G01 X24.90720 Y28.41690
G01 X24.85125 Y28.44001
G01 X24.90720 Y28.41690
G01 X24.92470 Y28.40379
G01 X24.99334 Y28.31210
G01 X25.00461 Y28.27006
G01 X25.00967 Y28.19925
G01 X25.00489 Y28.15792
G01 X24.99372 Y28.13714
G01 X24.93182 Y28.05787
G01 X24.79897 Y27.92607
G01 X24.73232 Y27.87926
G01 X24.64980 Y27.79668
G01 X24.61658 Y27.78657
G01 X24.61607 Y27.78081
G01 X24.61658 Y27.78657
G01 X24.59776 Y27.78599
G01 X24.58102 Y27.79465
G01 X24.55607 Y27.81718
G01 X24.53591 Y27.87717
G01 X24.51863 Y27.90837
G01 X24.54022 Y27.86595
G01 X24.57952 Y27.74502
G01 X24.59811 Y27.74502
G01 X24.73232 Y27.87926
G01 X24.68564 Y27.86392
G01 X24.66385 Y27.86229
G01 X24.62674 Y27.86811
G01 X24.61548 Y27.86407
G01 X24.60609 Y27.87255
G01 X24.62674 Y27.86811
G01 X24.57271 Y27.87971
G01 X24.53263 Y27.89673
G01 X24.51625 Y27.91111
G01 X24.47256 Y27.96788
G01 X24.43560 Y28.02627
G01 X24.38041 Y28.09450
G01 X24.34350 Y28.15124
G01 X24.33565 Y28.17367
G01 X24.33268 Y28.19501
G01 X24.33796 Y28.24611
G01 X24.30698 Y28.32079
G01 X24.38460 Y28.36178
G01 X24.43306 Y28.41454
G01 X24.46423 Y28.42962
G01 X24.43306 Y28.41454
G01 X24.41724 Y28.39942
G01 X24.37073 Y28.34575
G01 X24.34896 Y28.30806
G01 X24.33268 Y28.19501
G01 X24.34350 Y28.15124
G01 X24.31226 Y28.18500
G01 X24.26926 Y28.21703
G01 X24.23243 Y28.30730
G01 X24.16502 Y28.32714
G01 X24.02600 Y28.35668
G01 X24.15752 Y28.29742
G01 X24.26926 Y28.21703
G01 X24.15752 Y28.29742
G01 X23.98277 Y28.37522
G01 X23.79565 Y28.41499
G01 X23.61640 Y28.41563
G01 X23.42890 Y28.37834
G01 X23.37401 Y28.35665
G01 X23.23505 Y28.32714
G01 X23.16741 Y28.30722
G01 X23.13169 Y28.21769
G01 X23.24251 Y28.29742
G01 X23.37401 Y28.35665
G01 X23.24251 Y28.29742
G01 X23.09712 Y28.19257
G01 X23.05496 Y28.14951
G01 X23.06560 Y28.18020
G01 X23.06807 Y28.20189
G01 X23.06255 Y28.24570
G01 X23.09286 Y28.32061
G01 X23.01671 Y28.36132
G01 X22.96167 Y28.41825
G01 X22.93558 Y28.42962
G01 X22.96167 Y28.41825
G01 X22.97749 Y28.40397
G01 X23.03875 Y28.33430
G01 X23.05420 Y28.29361
G01 X23.06807 Y28.20189
G01 X23.06560 Y28.18020
G01 X23.05496 Y28.14951
G01 X23.02217 Y28.09785
G01 X22.94945 Y28.00369
G01 X22.88148 Y27.88106
G01 X22.86649 Y27.84857
G01 X22.82080 Y27.70278
G01 X22.81511 Y27.68025
G01 X22.79743 Y27.50075
G01 X22.82036 Y27.30517
G01 X22.88069 Y27.12854
G01 X22.96398 Y26.98350
G01 X23.07828 Y26.85216
G01 X23.21719 Y26.74418
G01 X23.24035 Y26.73006
G01 X23.37429 Y26.66521
G01 X23.43187 Y26.64566
G01 X23.54366 Y26.61820
G01 X23.59545 Y26.61073
G01 X23.71889 Y26.60489
G01 X23.80454 Y26.61109
G01 X23.89334 Y26.62579
G01 X23.98816 Y26.65234
G01 X24.06044 Y26.68007
G01 X24.14094 Y26.72038
G01 X24.21386 Y26.76572
G01 X24.29445 Y26.82915
G01 X24.34779 Y26.87949
G01 X24.43487 Y26.98421
G01 X24.45719 Y27.01708
G01 X24.51830 Y27.12914
G01 X24.56550 Y27.22178
G01 X24.57972 Y27.26564
G01 X24.63372 Y27.26603
G01 X24.59740 Y27.25010
G01 X24.56550 Y27.22178
G01 X24.58173 Y27.23877
G01 X24.61475 Y27.25861
G01 X24.63372 Y27.26603
G01 X24.78038 Y27.29364
G01 X24.84205 Y27.33006
G01 X25.75478 Y28.24400
G01 X25.83240 Y28.30489
G01 X25.85424 Y28.31672
G01 X25.89369 Y28.32150
G01 X25.98614 Y28.31380
G01 X26.02549 Y28.29523
G01 X26.09915 Y28.23879
G01 X26.12221 Y28.20189
G01 X26.15366 Y28.11459
G01 X26.15546 Y28.09280
G01 X26.14723 Y28.04263
G01 X26.26275 Y28.16999
G01 X26.41751 Y28.28243
G01 X26.59227 Y28.36023
G01 X26.77936 Y28.40001
G01 X26.97065 Y28.40001
G01 X27.15777 Y28.36023
G01 X27.33252 Y28.28243
G01 X27.42084 Y28.21903
G01 X27.40092 Y28.26262
G01 X27.39066 Y28.30491
G01 X27.40697 Y28.41827
G01 X27.42874 Y28.45596
G01 X27.47522 Y28.50961
G01 X27.50791 Y28.53554
G01 X27.53039 Y28.54230
G01 X27.50791 Y28.53554
G01 X27.49104 Y28.52470
G01 X27.44258 Y28.47197
G01 X27.40827 Y28.45629
G01 X27.32754 Y28.40483
G01 X27.32244 Y28.36927
G01 X27.34400 Y28.33509
G01 X27.32244 Y28.36927
G01 X27.27078 Y28.39226
G01 X27.32244 Y28.36927
G01 X27.32754 Y28.40483
G01 X27.29803 Y28.38932
G01 X27.29882 Y28.38520
G01 X27.29803 Y28.38932
G01 X27.15978 Y28.41362
G01 X26.95790 Y28.43293
G01 X26.79216 Y28.43293
G01 X26.59028 Y28.41362
G01 X26.47921 Y28.39226
G01 X26.38020 Y28.34705
G01 X26.21284 Y28.22543
G01 X26.19859 Y28.21118
G01 X26.19087 Y28.17392
G01 X26.19859 Y28.21118
G01 X26.17571 Y28.26099
G01 X26.15378 Y28.28959
G01 X26.07583 Y28.35086
G01 X26.12661 Y28.35830
G01 X26.22056 Y28.32457
G01 X26.23108 Y28.32582
G01 X26.23100 Y28.32289
G01 X26.23108 Y28.32582
G01 X26.33247 Y28.35820
G01 X26.47921 Y28.39226
G01 X26.38338 Y28.37189
G01 X26.23108 Y28.32582
G01 X26.21254 Y28.32782
G01 X26.12661 Y28.35830
G01 X26.10260 Y28.35647
G01 X25.97804 Y28.33041
G01 X25.94614 Y28.31832
G01 X25.87205 Y28.32076
G01 X25.85424 Y28.31672
G01 X25.83240 Y28.30489
G01 X25.84101 Y28.30956
G01 X25.91967 Y28.38810
G01 X25.95991 Y28.40285
G01 X26.08973 Y28.43001
G01 X26.12844 Y28.43549
G01 X26.22658 Y28.40227
G01 X26.36504 Y28.44420
G01 X26.53420 Y28.48022
G01 X26.78945 Y28.50750
G01 X27.00136 Y28.50529
G01 X27.17055 Y28.48746
G01 X27.28421 Y28.46569
G01 X27.37039 Y28.52061
G01 X27.41157 Y28.53984
G01 X27.37039 Y28.52061
G01 X27.28421 Y28.46569
G01 X27.16862 Y28.48771
G01 X26.95863 Y28.50755
G01 X26.74870 Y28.50529
G01 X26.57951 Y28.48746
G01 X26.46359 Y28.46521
G01 X26.10253 Y28.46521
G01 X26.10019 Y28.47087
G01 X26.10253 Y28.46521
G01 X26.06135 Y28.42406
G01 X25.95991 Y28.40285
G01 X25.91967 Y28.38810
G01 X26.07167 Y28.53984
G01 X27.52218 Y28.53984
G01 X27.60141 Y28.55251
G01 X27.72361 Y28.55457
G01 X27.79605 Y28.54814
G01 X27.83938 Y28.53801
G01 X27.87588 Y28.50847
G01 X27.83938 Y28.53801
G01 X27.79605 Y28.54814
G01 X27.83163 Y28.53984
G01 X27.86564 Y28.53984
G01 X27.87588 Y28.50847
G01 X27.91479 Y28.45533
G01 X27.97550 Y28.35952
G01 X27.99899 Y28.32922
G01 X28.05983 Y28.26666
G01 X28.11228 Y28.22155
G01 X28.19508 Y28.16826
G01 X28.24652 Y28.14159
G01 X28.30971 Y28.11733
G01 X28.39508 Y28.09333
G01 X28.47329 Y28.08261
G01 X28.55071 Y28.07908
G01 X28.61967 Y28.08477
G01 X28.70562 Y28.09963
G01 X28.76236 Y28.11726
G01 X28.87727 Y28.16760
G01 X28.98317 Y28.23930
G01 X29.01258 Y28.26633
G01 X29.09742 Y28.35876
G01 X29.19924 Y28.51781
G01 X29.20638 Y28.53984
G01 X29.24596 Y28.54230
G01 X29.22698 Y28.53752
G01 X29.19924 Y28.51781
G01 X29.23005 Y28.53872
G01 X29.34580 Y28.55457
G01 X31.89289 Y28.55457
G01 X31.97163 Y28.54652
G01 X31.98222 Y28.54380
G01 X32.05293 Y28.48835
G01 X33.22520 Y27.31507
G01 X33.27788 Y27.28241
G01 X33.31519 Y27.27067
G01 X33.35367 Y27.26374
G01 X33.48763 Y27.26262
G01 X33.57429 Y27.24837
G01 X33.59921 Y27.23369
G01 X33.63248 Y27.19783
G01 X33.59921 Y27.23369
G01 X33.58074 Y27.24576
G01 X33.55974 Y27.25208
G01 X33.61552 Y27.25002
G01 X33.63248 Y27.19783
G01 X33.75898 Y26.96852
G01 X33.87328 Y26.83715
G01 X34.01219 Y26.72920
G01 X34.05397 Y26.70499
G01 X34.16929 Y26.65023
G01 X34.22687 Y26.63067
G01 X34.33866 Y26.60321
G01 X34.39045 Y26.59574
G01 X34.51389 Y26.58990
G01 X34.59954 Y26.59610
G01 X34.68834 Y26.61078
G01 X34.76317 Y26.63082
G01 X34.85544 Y26.66506
G01 X34.93591 Y26.70537
G01 X35.00886 Y26.75071
G01 X35.08945 Y26.81413
G01 X35.14282 Y26.86450
G01 X35.22987 Y26.96920
G01 X35.25219 Y27.00207
G01 X35.35925 Y27.20298
G01 X35.37452 Y27.25002
G01 X35.42979 Y27.25249
G01 X35.40957 Y27.24715
G01 X35.39179 Y27.23600
G01 X35.35925 Y27.20298
G01 X35.39179 Y27.23600
G01 X35.40957 Y27.24715
G01 X35.50078 Y27.26270
G01 X36.01500 Y27.26417
G01 X36.08104 Y27.27791
G01 X36.14355 Y27.31505
G01 X36.40710 Y27.57801
G01 X36.45859 Y27.61761
G01 X36.49557 Y27.63519
G01 X36.58729 Y27.63549
G01 X36.62989 Y27.62653
G01 X36.72514 Y27.56300
G01 X36.73918 Y27.54624
G01 X36.75549 Y27.51406
G01 X36.77500 Y27.69526
G01 X36.82981 Y27.86595
G01 X36.92976 Y28.04283
G01 X37.06712 Y28.19257
G01 X37.21251 Y28.29742
G01 X37.28005 Y28.32820
G01 X37.37317 Y28.39211
G01 X37.44335 Y28.43229
G01 X37.58714 Y28.44550
G01 X37.78894 Y28.44362
G01 X37.99547 Y28.41969
G01 X38.07667 Y28.40242
G01 X38.12369 Y28.38149
G01 X38.12854 Y28.41517
G01 X38.12369 Y28.38149
G01 X38.14502 Y28.34814
G01 X38.12369 Y28.38149
G01 X38.07667 Y28.40242
G01 X38.09996 Y28.40031
G01 X38.10075 Y28.39630
G01 X38.09996 Y28.40031
G01 X38.20918 Y28.46645
G01 X38.24355 Y28.48218
G01 X38.29201 Y28.53491
G01 X38.30878 Y28.54570
G01 X38.33138 Y28.55248
G01 X38.30878 Y28.54570
G01 X38.27619 Y28.51982
G01 X38.22971 Y28.46618
G01 X38.20794 Y28.42848
G01 X38.19163 Y28.31512
G01 X38.20189 Y28.27283
G01 X38.22148 Y28.22993
G01 X38.12752 Y28.29742
G01 X37.96400 Y28.37093
G01 X37.76565 Y28.41499
G01 X37.56247 Y28.41311
G01 X37.38726 Y28.37522
G01 X37.22323 Y28.30288
G01 X37.05775 Y28.18500
G01 X36.93733 Y28.05218
G01 X36.70751 Y27.67664
G01 X36.71063 Y27.67268
G01 X36.70751 Y27.67664
G01 X36.69191 Y27.66813
G01 X36.57970 Y27.63565
G01 X36.49557 Y27.63519
G01 X36.45859 Y27.61761
G01 X36.47193 Y27.62516
G01 X36.55181 Y27.70484
G01 X36.65757 Y27.73623
G01 X36.78008 Y27.93278
G01 X36.55181 Y27.70484
G01 X37.23774 Y28.38965
G01 X37.33324 Y28.45518
G01 X37.42036 Y28.50605
G01 X37.58445 Y28.52007
G01 X37.75562 Y28.52007
G01 X37.96506 Y28.50008
G01 X38.08620 Y28.47669
G01 X38.17141 Y28.53084
G01 X38.21251 Y28.55002
G01 X38.17141 Y28.53084
G01 X38.08620 Y28.47669
G01 X37.96506 Y28.50008
G01 X37.75562 Y28.52007
G01 X37.58445 Y28.52007
G01 X37.42100 Y28.50425
G01 X37.33324 Y28.45518
G01 X37.23774 Y28.38965
G01 X37.09458 Y28.24672
G01 X37.39836 Y28.55002
G01 X38.32313 Y28.55002
G01 X38.43120 Y28.56478
G01 X42.57301 Y28.56478
G01 X42.61075 Y28.56303
G01 X42.66226 Y28.55401
G01 X42.71113 Y28.51743
G01 X43.48801 Y27.74352
G01 X43.53333 Y27.68967
G01 X43.55759 Y27.65104
G01 X43.56627 Y27.57182
G01 X43.56528 Y27.54398
G01 X43.58921 Y27.46354
G01 X43.59317 Y27.43852
G01 X43.51263 Y27.35157
G01 X43.41735 Y27.36247
G01 X43.47768 Y27.39772
G01 X43.51042 Y27.42640
G01 X43.55433 Y27.50814
G01 X43.56528 Y27.54398
G01 X43.55433 Y27.50814
G01 X43.52213 Y27.44487
G01 X43.49541 Y27.41050
G01 X43.39652 Y27.35274
G01 X43.37532 Y27.34746
G01 X43.31875 Y27.34776
G01 X43.43843 Y27.26135
G01 X43.53089 Y27.15962
G01 X43.56500 Y27.10557
G01 X43.53846 Y27.15028
G01 X43.50661 Y27.18660
G01 X43.49142 Y27.27875
G01 X43.40049 Y27.28972
G01 X43.32048 Y27.34728
G01 X43.25398 Y27.36597
G01 X43.16637 Y27.39912
G01 X43.11052 Y27.41449
G01 X43.04367 Y27.42508
G01 X42.95512 Y27.43085
G01 X42.87641 Y27.42505
G01 X42.79998 Y27.41241
G01 X42.73371 Y27.39249
G01 X42.65274 Y27.36011
G01 X42.60087 Y27.33105
G01 X42.52063 Y27.27654
G01 X42.48362 Y27.24337
G01 X42.41027 Y27.16577
G01 X42.32708 Y27.03329
G01 X42.27524 Y26.88561
G01 X42.25759 Y26.73075
G01 X42.28080 Y26.55488
G01 X42.31603 Y26.45483
G01 X42.33635 Y26.40949
G01 X42.38746 Y26.32704
G01 X42.42299 Y26.27941
G01 X42.49927 Y26.20258
G01 X42.64819 Y26.08978
G01 X42.67892 Y26.04523
G01 X42.69018 Y26.00319
G01 X42.69526 Y25.93237
G01 X42.69475 Y25.91050
G01 X42.68408 Y25.87850
G01 X42.69475 Y25.91050
G01 X42.69526 Y25.93237
G01 X42.68657 Y26.02475
G01 X42.67892 Y26.04523
G01 X42.64819 Y26.08978
G01 X42.72005 Y26.05780
G01 X42.72005 Y25.91444
G01 X42.68408 Y25.87850
G01 X42.61740 Y25.79097
G01 X42.09185 Y25.26542
G01 X42.00552 Y25.19991
G01 X41.92645 Y25.12087
G01 X41.81520 Y25.08884
G01 X41.74342 Y24.97563
G01 X41.66539 Y24.87352
G01 X41.55449 Y24.75409
G01 X41.40242 Y24.62427
G01 X41.25190 Y24.52430
G01 X41.23425 Y24.45496
G01 X41.21898 Y24.41340
G01 X41.14078 Y24.33517
G01 X41.14786 Y24.34835
G01 X41.15264 Y24.38973
G01 X41.14758 Y24.46054
G01 X41.13630 Y24.50258
G01 X41.06795 Y24.59405
G01 X41.02708 Y24.61828
G01 X41.06795 Y24.59405
G01 X41.09828 Y24.55689
G01 X41.17570 Y24.52747
G01 X41.14908 Y24.43946
G01 X41.15210 Y24.36789
G01 X41.14078 Y24.33517
G01 X41.14786 Y24.34835
G01 X41.15264 Y24.38973
G01 X41.14758 Y24.46054
G01 X41.13630 Y24.50258
G01 X41.06795 Y24.59405
G01 X41.02708 Y24.61828
G01 X41.08474 Y24.61894
G01 X41.12452 Y24.62674
G01 X41.21779 Y24.59069
G01 X41.35779 Y24.68406
G01 X41.50102 Y24.80616
G01 X41.60661 Y24.91985
G01 X41.68246 Y25.01868
G01 X41.75002 Y25.12526
G01 X41.71339 Y25.21338
G01 X41.72381 Y25.31238
G01 X41.74044 Y25.27944
G01 X41.75449 Y25.26265
G01 X41.84979 Y25.19910
G01 X41.89236 Y25.19016
G01 X41.96333 Y25.18894
G01 X41.98408 Y25.19046
G01 X42.00552 Y25.19991
G01 X41.98408 Y25.19046
G01 X41.96333 Y25.18894
G01 X41.87064 Y25.19260
G01 X41.83054 Y25.20946
G01 X41.75449 Y25.26265
G01 X41.74044 Y25.27944
G01 X41.72381 Y25.31238
G01 X41.70562 Y25.39681
G01 X41.69221 Y25.49506
G01 X41.65424 Y25.60530
G01 X41.63836 Y25.64195
G01 X41.58271 Y25.73311
G01 X41.55342 Y25.77324
G01 X41.47090 Y25.85770
G01 X41.44161 Y25.88244
G01 X41.36912 Y25.93098
G01 X41.30847 Y25.96420
G01 X41.23630 Y25.99247
G01 X41.16051 Y26.01449
G01 X41.07273 Y26.02729
G01 X41.00511 Y26.03082
G01 X40.92642 Y26.02506
G01 X40.84997 Y26.01241
G01 X40.78370 Y25.99249
G01 X40.70273 Y25.96011
G01 X40.65089 Y25.93105
G01 X40.54896 Y25.85795
G01 X40.44898 Y25.75081
G01 X40.37707 Y25.63329
G01 X40.36552 Y25.60537
G01 X40.32521 Y25.48561
G01 X40.31154 Y25.37507
G01 X40.29734 Y25.30192
G01 X40.30692 Y25.21071
G01 X40.30171 Y25.20502
G01 X40.30692 Y25.21071
G01 X40.30753 Y25.20502
G01 X40.19539 Y25.20502
G01 X40.22660 Y25.22013
G01 X40.29734 Y25.30192
G01 X40.24243 Y25.23522
G01 X40.20984 Y25.20936
G01 X40.18718 Y25.20255
G01 X40.08739 Y25.19029
G01 X38.70672 Y25.19029
G01 X38.59719 Y25.20502
G01 X38.54952 Y25.20502
G01 X38.53308 Y25.25562
G01 X38.56450 Y25.22219
G01 X38.59719 Y25.20502
G01 X38.56450 Y25.22219
G01 X38.53308 Y25.25562
G01 X38.41391 Y25.47439
G01 X38.30052 Y25.60885
G01 X38.26468 Y25.64121
G01 X38.16326 Y25.71873
G01 X38.12948 Y25.73969
G01 X38.00736 Y25.79996
G01 X37.93817 Y25.82425
G01 X37.83872 Y25.84939
G01 X37.75363 Y25.86115
G01 X37.66372 Y25.86524
G01 X37.56550 Y25.85899
G01 X37.48899 Y25.84688
G01 X37.40192 Y25.82419
G01 X37.32115 Y25.79501
G01 X37.21073 Y25.73946
G01 X37.16649 Y25.71157
G01 X37.07553 Y25.64104
G01 X37.03088 Y25.59973
G01 X36.93487 Y25.48602
G01 X36.91945 Y25.46369
G01 X36.83649 Y25.30857
G01 X36.78630 Y25.14594
G01 X36.76847 Y24.97571
G01 X36.76832 Y24.94421
G01 X36.78993 Y24.76700
G01 X36.84561 Y24.59798
G01 X36.93288 Y24.44505
G01 X36.94726 Y24.42676
G01 X37.05892 Y24.30225
G01 X37.18719 Y24.20418
G01 X37.22895 Y24.18000
G01 X37.34429 Y24.12521
G01 X37.38165 Y24.11175
G01 X37.51366 Y24.07820
G01 X37.58643 Y24.06883
G01 X37.68889 Y24.06489
G01 X37.75363 Y24.06872
G01 X37.86334 Y24.08579
G01 X37.93814 Y24.10583
G01 X38.03044 Y24.14007
G01 X38.11094 Y24.18038
G01 X38.18386 Y24.22572
G01 X38.26445 Y24.28915
G01 X38.31779 Y24.33949
G01 X38.40487 Y24.44421
G01 X38.42719 Y24.47708
G01 X38.53428 Y24.67804
G01 X38.54954 Y24.72511
G01 X38.60476 Y24.72757
G01 X38.58457 Y24.72216
G01 X38.56679 Y24.71101
G01 X38.53428 Y24.67804
G01 X38.56679 Y24.71101
G01 X38.58665 Y24.72298
G01 X38.70459 Y24.73989
G01 X40.57019 Y24.74078
G01 X40.63140 Y24.73438
G01 X40.72048 Y24.69181
G01 X40.78370 Y24.66755
G01 X40.86912 Y24.64353
G01 X41.02708 Y24.61828
G01 X41.08474 Y24.61894
G01 X41.23097 Y24.65000
G01 X41.35678 Y24.70535
G01 X41.49696 Y24.80718
G01 X41.58845 Y24.90974
G01 X41.66320 Y25.03921
G01 X41.70938 Y25.18135
G01 X41.72381 Y25.31238
G01 X41.74044 Y25.27944
G01 X41.75449 Y25.26265
G01 X41.78284 Y25.24124
G01 X41.81446 Y25.16570
G01 X41.89846 Y25.19003
G01 X41.98408 Y25.19046
G01 X42.00552 Y25.19991
G01 X41.14078 Y24.33517
G01 X41.07479 Y24.24835
G01 X39.54299 Y22.71656
G01 X39.51512 Y22.69113
G01 X39.47227 Y22.66106
G01 X39.38299 Y22.65029
G01 X38.70672 Y22.65029
G01 X38.59719 Y22.66502
G01 X38.54952 Y22.66502
G01 X38.53311 Y22.71559
G01 X38.56450 Y22.68219
G01 X38.59719 Y22.66502
G01 X38.56450 Y22.68219
G01 X38.53311 Y22.71559
G01 X38.41391 Y22.93439
G01 X38.30073 Y23.06862
G01 X38.28071 Y23.08742
G01 X38.15831 Y23.18183
G01 X38.11099 Y23.20985
G01 X38.00736 Y23.25994
G01 X37.95828 Y23.27802
G01 X37.83903 Y23.30932
G01 X37.75363 Y23.32087
G01 X37.65790 Y23.32494
G01 X37.58643 Y23.32118
G01 X37.48902 Y23.30688
G01 X37.40192 Y23.28419
G01 X37.32115 Y23.25501
G01 X37.21073 Y23.19946
G01 X37.16649 Y23.17157
G01 X37.07553 Y23.10104
G01 X37.03088 Y23.05973
G01 X36.93487 Y22.94602
G01 X36.91945 Y22.92369
G01 X36.83649 Y22.76857
G01 X36.78511 Y22.60025
G01 X36.76839 Y22.43571
G01 X36.76832 Y22.40421
G01 X36.78993 Y22.22700
G01 X36.85069 Y22.04854
G01 X36.93398 Y21.90350
G01 X37.04828 Y21.77216
G01 X37.18719 Y21.66418
G01 X37.21035 Y21.65006
G01 X37.34429 Y21.58521
G01 X37.38165 Y21.57175
G01 X37.51366 Y21.53820
G01 X37.56545 Y21.53073
G01 X37.68889 Y21.52489
G01 X37.75363 Y21.52872
G01 X37.86334 Y21.54579
G01 X37.93814 Y21.56583
G01 X38.03044 Y21.60007
G01 X38.11094 Y21.64038
G01 X38.18386 Y21.68572
G01 X38.28030 Y21.76301
G01 X38.31779 Y21.79949
G01 X38.39209 Y21.88740
G01 X38.42719 Y21.93708
G01 X38.48830 Y22.04914
G01 X38.53428 Y22.13804
G01 X38.54952 Y22.18503
G01 X38.60479 Y22.18750
G01 X38.58457 Y22.18216
G01 X38.56679 Y22.17101
G01 X38.53428 Y22.13804
G01 X38.56679 Y22.17101
G01 X38.58627 Y22.18283
G01 X38.70469 Y22.19977
G01 X39.12910 Y22.19961
G01 X39.22803 Y22.18503
G01 X39.25536 Y22.17261
G01 X39.27288 Y22.15951
G01 X39.33014 Y22.08646
G01 X39.34916 Y22.04732
G01 X39.35429 Y22.00469
G01 X39.37870 Y22.08079
G01 X39.30631 Y22.11831
G01 X39.27288 Y22.15951
G01 X39.25536 Y22.17261
G01 X39.22803 Y22.18503
G01 X39.58802 Y22.18643
G01 X39.63979 Y22.19570
G01 X39.69099 Y22.23070
G01 X39.71568 Y22.25176
G01 X43.13645 Y25.67314
G01 X43.18654 Y25.74093
G01 X43.86531 Y26.41972
G01 X43.89124 Y26.44030
G01 X43.94628 Y26.45983
G01 X44.01357 Y26.47603
G01 X44.49540 Y26.47527
G01 X44.59525 Y26.48757
G01 X44.61783 Y26.49435
G01 X44.65045 Y26.52023
G01 X44.68311 Y26.55790
G01 X44.71755 Y26.57362
G01 X44.77691 Y26.61060
G01 X44.73335 Y26.69874
G01 X44.73190 Y26.74649
G01 X44.70920 Y26.80143
G01 X44.79708 Y26.73758
G01 X44.85113 Y26.63016
G01 X45.00892 Y26.59864
G01 X45.20739 Y26.57951
G01 X45.40589 Y26.58127
G01 X45.57112 Y26.59864
G01 X45.72667 Y26.62968
G01 X45.78186 Y26.73677
G01 X45.86812 Y26.80062
G01 X45.85712 Y26.78180
G01 X45.84851 Y26.73913
G01 X45.84788 Y26.66813
G01 X45.85573 Y26.62534
G01 X45.91679 Y26.52843
G01 X45.93320 Y26.51396
G01 X45.97953 Y26.49000
G01 X45.93320 Y26.51396
G01 X45.91679 Y26.52843
G01 X45.85573 Y26.62534
G01 X45.84788 Y26.66813
G01 X45.84851 Y26.73913
G01 X45.85712 Y26.78180
G01 X45.86812 Y26.80062
G01 X45.85712 Y26.78180
G01 X45.85080 Y26.76087
G01 X45.84818 Y26.70260
G01 X45.80035 Y26.61063
G01 X45.89614 Y26.55729
G01 X45.91679 Y26.52843
G01 X45.93320 Y26.51396
G01 X45.97953 Y26.49000
G01 X45.86325 Y26.49000
G01 X45.74513 Y26.55731
G01 X45.58189 Y26.52480
G01 X45.41270 Y26.50677
G01 X45.20643 Y26.50491
G01 X44.99817 Y26.52480
G01 X44.83312 Y26.55770
G01 X44.75494 Y26.50903
G01 X44.71405 Y26.49000
G01 X44.60343 Y26.49000
G01 X44.61783 Y26.49435
G01 X44.65045 Y26.52023
G01 X44.70960 Y26.59168
G01 X44.72385 Y26.63280
G01 X44.73335 Y26.69874
G01 X44.73190 Y26.74649
G01 X44.70920 Y26.80143
G01 X44.55311 Y26.98472
G01 X44.42748 Y27.21284
G01 X44.39421 Y27.24870
G01 X44.37574 Y27.26077
G01 X44.35474 Y27.26709
G01 X44.37574 Y27.26077
G01 X44.39421 Y27.24870
G01 X44.42748 Y27.21284
G01 X44.41052 Y27.26503
G01 X44.36284 Y27.26503
G01 X44.25329 Y27.27977
G01 X44.02352 Y27.27946
G01 X43.95502 Y27.29597
G01 X43.85637 Y27.35434
G01 X43.82329 Y27.36328
G01 X43.80143 Y27.36415
G01 X43.71095 Y27.34357
G01 X43.67150 Y27.32516
G01 X43.60656 Y27.25894
G01 X43.59317 Y27.24167
G01 X43.57869 Y27.20590
G01 X43.56411 Y27.29750
G01 X43.64623 Y27.38591
G01 X43.76175 Y27.35632
G01 X43.80143 Y27.36415
G01 X43.82329 Y27.36328
G01 X43.85637 Y27.35434
G01 X43.55421 Y27.65642
G01 X43.63315 Y27.57748
G01 X43.66561 Y27.45810
G01 X43.78227 Y27.42838
G01 X43.85637 Y27.35434
G01 X43.82329 Y27.36328
G01 X43.77981 Y27.36087
G01 X43.71095 Y27.34357
G01 X43.67150 Y27.32516
G01 X43.59317 Y27.24167
G01 X43.57732 Y27.20115
G01 X43.56264 Y27.11576
G01 X43.57049 Y27.08579
G01 X43.60425 Y27.00529
G01 X43.64412 Y26.88635
G01 X43.66223 Y26.73984
G01 X43.65852 Y26.67248
G01 X43.66165 Y26.59828
G01 X43.66706 Y26.57967
G01 X43.69050 Y26.54299
G01 X43.73937 Y26.49148
G01 X43.77476 Y26.46615
G01 X43.80922 Y26.45556
G01 X43.72853 Y26.43776
G01 X43.70879 Y26.52371
G01 X43.67704 Y26.56021
G01 X43.66165 Y26.59828
G01 X43.65626 Y26.56974
G01 X43.61319 Y26.43920
G01 X43.53089 Y26.30039
G01 X43.42909 Y26.19110
G01 X43.31750 Y26.11081
G01 X43.20003 Y26.05782
G01 X43.20003 Y25.81503
G01 X43.19419 Y25.76270
G01 X43.18654 Y25.74093
G01 X43.19708 Y25.77939
G01 X43.20003 Y25.85188
G01 X43.26617 Y26.01543
G01 X43.35337 Y26.07865
G01 X43.47471 Y26.18485
G01 X43.58469 Y26.30370
G01 X43.66063 Y26.40268
G01 X43.63600 Y26.50728
G01 X43.65626 Y26.56974
G01 X43.66165 Y26.59828
G01 X43.67704 Y26.56021
G01 X43.75586 Y26.47713
G01 X43.79538 Y26.45894
G01 X43.86432 Y26.44202
G01 X43.89124 Y26.44030
G01 X43.82929 Y26.38368
G01 X43.72256 Y26.36092
G01 X43.64207 Y26.25599
G01 X43.52695 Y26.13118
G01 X43.40110 Y26.02127
G01 X43.32932 Y25.96903
G01 X43.26904 Y25.82341
G04 P0 ( dwell for no time -- G64 should not smooth over this point )
G00 Z0.50000 ( retract )

G00 X48.19502 Y31.80280 ( rapid move to begin. )
G01 F100.00000
( Mill infeed pass 1/1 )
G01 Z-0.17000
G04 P0 ( dwell for no time -- G64 should not smooth over this point )
G01 F200.00000
G01 X48.19502 Y31.80280
G01 X48.20284 Y31.83686
G01 X48.20977 Y31.91199
G01 X48.20977 Y32.00851
G01 X48.19502 Y32.11661
G01 X48.19502 Y32.22002
G01 X48.09128 Y32.22002
G01 X48.11117 Y32.21003
G01 X48.16482 Y32.16355
G01 X48.17990 Y32.14773
G01 X48.19502 Y32.11661
G01 X48.17990 Y32.14773
G01 X48.10055 Y32.21778
G01 X48.05869 Y32.22786
G01 X47.98351 Y32.23480
G01 X45.82829 Y32.23480
G01 X45.73904 Y32.22403
G01 X45.72964 Y32.21844
G01 X45.66833 Y32.16853
G01 X44.83132 Y31.33152
G01 X44.76533 Y31.24468
G01 X44.68712 Y31.16645
G01 X44.65786 Y31.07379
G01 X44.54963 Y31.02896
G01 X44.68712 Y31.16645
G01 X44.47417 Y30.95347
G01 X44.49002 Y30.96002
G01 X44.57813 Y30.96002
G01 X44.68631 Y31.00483
G01 X44.77163 Y30.96002
G01 X44.88339 Y30.96000
G01 X44.49002 Y30.96002
G01 X44.48306 Y30.95934
G01 X44.41829 Y30.91677
G01 X44.37569 Y30.85195
G01 X44.37501 Y30.84501
G01 X44.37501 Y30.45187
G01 X44.37072 Y30.46620
G01 X44.34483 Y30.49881
G01 X44.29116 Y30.54529
G01 X44.25347 Y30.56703
G01 X44.14011 Y30.58334
G01 X44.11847 Y30.58022
G01 X44.09032 Y30.56965
G01 X44.11847 Y30.58022
G01 X44.14011 Y30.58334
G01 X44.19286 Y30.57786
G01 X44.27059 Y30.60252
G01 X44.30716 Y30.53142
G01 X44.35992 Y30.48299
G01 X44.37072 Y30.46620
G01 X44.37750 Y30.44357
G01 X44.38977 Y30.34374
G01 X44.39002 Y29.23516
G01 X44.39650 Y29.20631
G01 X44.41847 Y29.17346
G01 X44.45131 Y29.15149
G01 X44.49002 Y29.14476
G01 X46.09002 Y29.14476
G01 X46.12875 Y29.15152
G01 X46.16159 Y29.17346
G01 X46.18356 Y29.20631
G01 X46.19004 Y29.23516
G01 X46.19030 Y30.53302
G01 X46.19200 Y30.57064
G01 X46.20104 Y30.62225
G01 X46.25656 Y30.69299
G01 X46.76047 Y31.19444
G01 X46.80330 Y31.22451
G01 X46.89253 Y31.23526
G01 X48.54249 Y31.23445
G01 X48.58773 Y31.23036
G01 X48.63588 Y31.22009
G01 X48.69479 Y31.17590
G01 X48.72057 Y31.14811
G01 X48.78153 Y31.11667
G01 X48.84787 Y31.07039
G01 X48.75430 Y30.95639
G01 X48.83548 Y31.05451
G01 X48.82737 Y31.08469
G01 X48.78153 Y31.11667
G01 X48.72057 Y31.14811
G01 X48.73342 Y31.12385
G01 X48.75796 Y31.05723
G01 X48.76499 Y31.01430
G01 X48.74020 Y30.90247
G01 X48.71513 Y30.86599
G01 X48.81213 Y30.90917
G01 X48.92052 Y31.04217
G01 X48.97731 Y31.04814
G01 X49.19270 Y31.05078
G01 X49.30340 Y31.04176
G01 X49.36489 Y30.95799
G01 X49.40779 Y30.90922
G01 X49.32847 Y31.00582
G01 X49.23306 Y31.02609
G01 X49.19364 Y31.03025
G01 X49.00657 Y31.02921
G01 X48.89227 Y31.00597
G01 X48.81213 Y30.90917
G01 X48.71513 Y30.86599
G01 X48.60644 Y30.79157
G01 X48.51551 Y30.72104
G01 X48.47086 Y30.67973
G01 X48.38780 Y30.58281
G01 X48.35946 Y30.54369
G01 X48.27650 Y30.38860
G01 X48.22511 Y30.22025
G01 X48.20744 Y30.04075
G01 X48.22994 Y29.84702
G01 X48.28562 Y29.67798
G01 X48.37398 Y29.52350
G01 X48.48831 Y29.39213
G01 X48.62717 Y29.28418
G01 X48.66895 Y29.25998
G01 X48.78427 Y29.20521
G01 X48.84188 Y29.18566
G01 X48.95364 Y29.15820
G01 X49.02638 Y29.14883
G01 X49.12887 Y29.14489
G01 X49.21455 Y29.15109
G01 X49.30334 Y29.16579
G01 X49.39814 Y29.19231
G01 X49.47043 Y29.22007
G01 X49.55092 Y29.26038
G01 X49.62387 Y29.30575
G01 X49.70444 Y29.36915
G01 X49.75778 Y29.41949
G01 X49.83207 Y29.50740
G01 X49.86717 Y29.55708
G01 X49.97426 Y29.75802
G01 X49.98953 Y29.80503
G01 X50.04480 Y29.80750
G01 X50.02458 Y29.80216
G01 X50.00680 Y29.79101
G01 X49.97426 Y29.75802
G01 X50.00680 Y29.79101
G01 X50.02458 Y29.80216
G01 X50.04480 Y29.80750
G01 X50.11579 Y29.81771
G01 X50.24904 Y29.81847
G01 X50.31917 Y29.82726
G01 X54.03354 Y29.82726
G01 X54.10864 Y29.82035
G01 X54.14128 Y29.81253
G01 X54.24502 Y29.81253
G01 X54.24502 Y29.70912
G01 X54.22990 Y29.74024
G01 X54.21482 Y29.75606
G01 X54.16117 Y29.80255
G01 X54.14128 Y29.81253
G01 X54.16117 Y29.80255
G01 X54.21482 Y29.75606
G01 X54.24070 Y29.72345
G01 X54.24748 Y29.70087
G01 X54.25769 Y29.62988
G01 X54.25977 Y28.96000
G01 X54.26650 Y28.92127
G01 X54.28845 Y28.88845
G01 X54.32127 Y28.86650
G01 X54.35017 Y28.86003
G01 X54.57565 Y28.85939
G01 X54.60656 Y28.85749
G01 X54.66897 Y28.84502
G01 X54.73110 Y28.80608
G01 X54.75599 Y28.77443
G01 X54.78548 Y28.76135
G01 X54.85949 Y28.71550
G01 X54.82734 Y28.65889
G01 X54.80171 Y28.66643
G01 X54.82734 Y28.65889
G01 X54.79869 Y28.61698
G01 X54.78995 Y28.55251
G01 X54.76755 Y28.51129
G01 X54.78995 Y28.55251
G01 X54.80171 Y28.66643
G01 X54.78977 Y28.70826
G01 X54.75599 Y28.77443
G01 X54.78977 Y28.70826
G01 X54.80171 Y28.66643
G01 X54.78995 Y28.55251
G01 X54.76755 Y28.51129
G01 X54.86165 Y28.57689
G01 X54.89117 Y28.62023
G01 X54.93046 Y28.68929
G01 X54.94870 Y28.69739
G01 X54.93046 Y28.68929
G01 X54.93318 Y28.69412
G01 X55.04321 Y28.71751
G01 X55.34603 Y28.74969
G01 X55.60844 Y28.74789
G01 X55.87684 Y28.71751
G01 X56.10488 Y28.66905
G01 X56.23442 Y28.62993
G01 X56.33889 Y28.54070
G01 X56.45548 Y28.42226
G01 X56.45347 Y28.29373
G01 X56.46137 Y28.20356
G01 X56.45365 Y28.28985
G01 X56.45385 Y28.33453
G01 X56.32294 Y28.47839
G01 X56.10483 Y28.63686
G01 X55.97135 Y28.69742
G01 X55.87684 Y28.71751
G01 X55.98697 Y28.77039
G01 X56.29744 Y28.77039
G01 X56.29977 Y28.77608
G01 X56.29744 Y28.77039
G01 X56.60785 Y28.46005
G01 X56.70569 Y28.44014
G01 X56.74895 Y28.42447
G01 X56.70569 Y28.44014
G01 X56.57361 Y28.46701
G01 X56.51136 Y28.47176
G01 X56.38956 Y28.59549
G01 X56.27808 Y28.69287
G01 X56.12330 Y28.74136
G01 X55.89139 Y28.79071
G01 X55.61331 Y28.82236
G01 X55.34506 Y28.82432
G01 X55.07288 Y28.79777
G01 X54.93313 Y28.77039
G01 X54.91156 Y28.77039
G01 X54.93313 Y28.77039
G01 X54.91672 Y28.76691
G01 X54.82243 Y28.82622
G01 X54.78088 Y28.84502
G01 X54.66897 Y28.84502
G01 X56.32832 Y28.84502
G01 X56.82718 Y28.34626
G01 X56.81402 Y28.35335
G01 X56.77267 Y28.35812
G01 X56.68029 Y28.34944
G01 X56.64113 Y28.33039
G01 X56.58428 Y28.28782
G01 X56.55499 Y28.25561
G01 X56.54544 Y28.23595
G01 X56.51522 Y28.14951
G01 X56.51547 Y28.10986
G01 X56.51522 Y28.14951
G01 X56.53572 Y28.20984
G01 X56.52810 Y28.29500
G01 X56.52850 Y28.33750
G01 X56.59231 Y28.38705
G01 X56.52850 Y28.33750
G01 X56.52904 Y28.39572
G01 X56.56112 Y28.39343
G01 X56.68794 Y28.36760
G01 X56.72291 Y28.35457
G01 X56.79452 Y28.35759
G01 X56.81402 Y28.35335
G01 X56.83477 Y28.34217
G01 X56.91405 Y28.28030
G01 X57.05588 Y28.13808
G01 X57.10401 Y28.07517
G01 X57.11476 Y27.98586
G01 X57.11476 Y11.45120
G01 X57.11303 Y11.41343
G01 X57.10399 Y11.36192
G01 X57.06736 Y11.31300
G01 X56.39022 Y10.63403
G01 X56.32738 Y10.58607
G01 X56.26698 Y10.57736
G01 X49.32204 Y10.57528
G01 X49.28429 Y10.57703
G01 X49.23276 Y10.58607
G01 X49.16184 Y10.64175
G01 X48.80530 Y10.99908
G01 X48.75509 Y11.06883
G01 X48.67248 Y11.15135
G01 X48.64660 Y11.23730
G01 X48.63527 Y11.29397
G01 X48.59143 Y11.33776
G01 X48.63527 Y11.29397
G01 X48.63223 Y11.30944
G01 X48.55590 Y11.36507
G01 X48.39542 Y11.50510
G01 X48.27884 Y11.62780
G01 X48.19192 Y11.73685
G01 X48.13733 Y11.79138
G01 X48.19192 Y11.73685
G01 X48.15247 Y11.78823
G01 X48.03952 Y11.81188
G01 X47.99512 Y11.82803
G01 X47.91635 Y11.90670
G01 X47.92953 Y11.89961
G01 X47.97272 Y11.89443
G01 X48.06509 Y11.90311
G01 X48.10426 Y11.92214
G01 X48.17246 Y11.97505
G01 X48.16314 Y11.92237
G01 X48.14637 Y11.86578
G01 X48.05758 Y11.88434
G01 X48.02123 Y11.89791
G01 X47.95085 Y11.89501
G01 X47.91635 Y11.90670
G01 X47.92953 Y11.89961
G01 X47.97272 Y11.89443
G01 X48.04353 Y11.89951
G01 X48.08559 Y11.91076
G01 X48.17726 Y11.97942
G01 X48.19992 Y12.01655
G01 X48.21782 Y12.06461
G01 X48.24772 Y11.97208
G01 X48.23619 Y11.90695
G01 X48.21706 Y11.84119
G01 X48.25095 Y11.78252
G01 X48.21706 Y11.84119
G01 X48.21419 Y11.83037
G01 X48.33362 Y11.67848
G01 X48.44749 Y11.55856
G01 X48.60357 Y11.42247
G01 X48.63609 Y11.39758
G01 X48.68656 Y11.37507
G01 X48.81221 Y11.40080
G01 X48.68656 Y11.37507
G01 X48.63609 Y11.39758
G01 X48.60357 Y11.42247
G01 X48.67320 Y11.37177
G01 X48.81221 Y11.40080
G01 X48.92092 Y11.37426
G01 X48.87378 Y11.36215
G01 X48.85455 Y11.35178
G01 X48.78717 Y11.28805
G01 X48.76255 Y11.25216
G01 X48.73761 Y11.14035
G01 X48.73906 Y11.11853
G01 X48.75509 Y11.06883
G01 X48.73906 Y11.11853
G01 X48.73761 Y11.14035
G01 X48.74335 Y11.17566
G01 X48.71869 Y11.25656
G01 X48.70937 Y11.30385
G01 X48.82730 Y11.32773
G01 X48.85455 Y11.35178
G01 X48.87378 Y11.36215
G01 X48.92092 Y11.37426
G01 X49.12887 Y11.36489
G01 X49.21455 Y11.37111
G01 X49.30334 Y11.38579
G01 X49.39814 Y11.41234
G01 X49.47043 Y11.44007
G01 X49.55092 Y11.48041
G01 X49.62387 Y11.52575
G01 X49.72029 Y11.60304
G01 X49.75778 Y11.63951
G01 X49.83207 Y11.72740
G01 X49.86717 Y11.77708
G01 X49.92829 Y11.88920
G01 X49.97426 Y11.97802
G01 X49.98953 Y12.02503
G01 X50.04477 Y12.02750
G01 X50.02458 Y12.02219
G01 X50.00680 Y12.01104
G01 X49.97426 Y11.97802
G01 X50.00680 Y12.01104
G01 X50.02625 Y12.02283
G01 X50.14464 Y12.03979
G01 X54.12914 Y12.03890
G01 X54.21273 Y12.02503
G01 X54.26188 Y11.99882
G01 X54.29038 Y11.96748
G01 X54.26188 Y11.99882
G01 X54.21273 Y12.02503
G01 X54.27219 Y12.02503
G01 X54.29038 Y11.96748
G01 X54.32581 Y11.88975
G01 X54.36000 Y11.80172
G01 X54.42147 Y11.67985
G01 X54.48304 Y11.58320
G01 X54.54085 Y11.50878
G01 X54.64888 Y11.39494
G01 X54.68804 Y11.36001
G01 X54.85876 Y11.23860
G01 X55.07880 Y11.14104
G01 X55.25169 Y11.09839
G01 X55.32411 Y11.08755
G01 X55.45980 Y11.08051
G01 X55.57499 Y11.08579
G01 X55.67351 Y11.09964
G01 X55.84128 Y11.14104
G01 X56.06129 Y11.23860
G01 X56.25581 Y11.38036
G01 X56.37920 Y11.50878
G01 X56.42479 Y11.56608
G01 X56.49883 Y11.68026
G01 X56.56068 Y11.80149
G01 X56.58753 Y11.86966
G01 X56.63706 Y12.04068
G01 X56.66338 Y12.28099
G01 X56.64275 Y12.48856
G01 X56.63211 Y12.53997
G01 X56.58753 Y12.69041
G01 X56.55197 Y12.77769
G01 X56.49883 Y12.87980
G01 X56.42479 Y12.99397
G01 X56.37920 Y13.05130
G01 X56.25581 Y13.17969
G01 X56.07018 Y13.31546
G01 X55.98989 Y13.35653
G01 X55.93244 Y13.39305
G01 X55.83546 Y13.43555
G01 X55.58703 Y13.48835
G01 X55.32111 Y13.48647
G01 X55.08456 Y13.43555
G01 X54.98614 Y13.39242
G01 X55.00564 Y13.41238
G01 X55.01733 Y13.43087
G01 X55.04872 Y13.54101
G01 X55.06058 Y13.51368
G01 X55.04872 Y13.54101
G01 X55.04423 Y13.58432
G01 X55.02368 Y13.65226
G01 X55.00382 Y13.69031
G01 X54.98781 Y13.70687
G01 X55.01555 Y13.67222
G01 X55.03597 Y13.61160
G01 X55.09650 Y13.55000
G01 X55.03582 Y13.48810
G01 X55.01733 Y13.43087
G01 X54.99068 Y13.39643
G01 X54.93084 Y13.35696
G01 X54.85876 Y13.32145
G01 X54.68804 Y13.20004
G01 X54.64888 Y13.16511
G01 X54.54085 Y13.05130
G01 X54.49526 Y12.99397
G01 X54.42122 Y12.87980
G01 X54.36808 Y12.77769
G01 X54.33199 Y12.68909
G01 X54.31499 Y12.63441
G01 X54.28169 Y12.56578
G01 X54.23940 Y12.52013
G01 X54.20905 Y12.50502
G01 X54.23940 Y12.52013
G01 X54.28169 Y12.56578
G01 X54.27156 Y12.53263
G01 X54.26803 Y12.50502
G01 X54.20905 Y12.50502
G01 X54.10019 Y12.49029
G01 X50.14673 Y12.49029
G01 X50.03720 Y12.50502
G01 X49.98950 Y12.50502
G01 X49.97309 Y12.55559
G01 X50.00451 Y12.52219
G01 X50.03720 Y12.50502
G01 X50.00451 Y12.52219
G01 X49.97309 Y12.55559
G01 X49.85392 Y12.77439
G01 X49.74050 Y12.90885
G01 X49.70466 Y12.94121
G01 X49.60324 Y13.01876
G01 X49.55099 Y13.04985
G01 X49.44736 Y13.09994
G01 X49.37815 Y13.12425
G01 X49.27873 Y13.14939
G01 X49.19364 Y13.16115
G01 X49.10373 Y13.16524
G01 X49.00548 Y13.15899
G01 X48.92902 Y13.14688
G01 X48.84193 Y13.12419
G01 X48.76517 Y13.09651
G01 X48.70070 Y13.07957
G01 X48.65549 Y13.05894
G01 X48.62514 Y13.08932
G01 X48.65450 Y13.07947
G01 X48.70070 Y13.07957
G01 X48.65450 Y13.07947
G01 X48.63233 Y13.08500
G01 X48.53710 Y13.15650
G01 X46.80155 Y14.89206
G01 X46.77610 Y14.91997
G01 X46.74597 Y14.96290
G01 X46.73515 Y15.05203
G01 X46.73551 Y16.14652
G01 X46.72354 Y16.20260
G01 X46.71816 Y16.21715
G01 X46.68372 Y16.27044
G01 X46.18237 Y16.77125
G01 X46.11537 Y16.85911
G01 X46.08087 Y16.89361
G01 X46.10632 Y16.93765
G01 X46.10381 Y16.90189
G01 X46.11537 Y16.85911
G01 X46.10381 Y16.90189
G01 X46.10632 Y16.93765
G01 X46.13332 Y17.02797
G01 X46.16830 Y17.10120
G01 X46.18191 Y17.14313
G01 X46.19096 Y17.20534
G01 X46.21857 Y17.24377
G01 X46.20129 Y17.30336
G01 X46.19096 Y17.20534
G01 X46.20500 Y17.34501
G01 X46.18689 Y17.52337
G01 X46.14635 Y17.65627
G01 X46.13038 Y17.74588
G01 X46.09591 Y17.87458
G01 X46.00955 Y17.90696
G01 X45.93734 Y17.98702
G01 X46.03683 Y17.87275
G01 X46.12591 Y17.71717
G01 X46.14635 Y17.65627
G01 X46.12591 Y17.71717
G01 X46.03683 Y17.87275
G01 X45.93734 Y17.98702
G01 X45.97221 Y17.97486
G01 X45.99395 Y17.97255
G01 X46.03409 Y17.97773
G01 X46.11153 Y17.94903
G01 X46.15159 Y18.02368
G01 X46.20950 Y18.08039
G01 X46.22004 Y18.10531
G01 X46.22004 Y17.99396
G01 X46.20678 Y17.96411
G01 X46.16726 Y17.89652
G01 X46.20317 Y17.76239
G01 X46.22004 Y17.66810
G01 X46.22004 Y17.99396
G01 X46.22004 Y17.47001
G01 X46.23175 Y17.39975
G01 X46.24892 Y17.35830
G01 X46.27373 Y17.32116
G01 X46.28928 Y17.26762
G01 X46.34198 Y17.24865
G01 X46.27373 Y17.32116
G01 X46.29032 Y17.30031
G01 X46.42781 Y17.16633
G01 X46.40711 Y17.17748
G01 X46.38753 Y17.18174
G01 X46.31597 Y17.17872
G01 X46.27465 Y17.19393
G01 X46.25517 Y17.16683
G01 X46.27330 Y17.17359
G01 X46.31597 Y17.17872
G01 X46.27330 Y17.17359
G01 X46.25278 Y17.16594
G01 X46.17729 Y17.11197
G01 X46.16830 Y17.10120
G01 X46.17729 Y17.11197
G01 X46.25278 Y17.16594
G01 X46.29487 Y17.17722
G01 X46.36568 Y17.18228
G01 X46.40711 Y17.17748
G01 X46.42781 Y17.16633
G01 X46.48524 Y17.12335
G01 X48.22197 Y15.38952
G01 X48.28900 Y15.30161
G01 X48.32547 Y15.26514
G01 X48.29865 Y15.22000
G01 X48.30030 Y15.26420
G01 X48.28900 Y15.30161
G01 X48.30030 Y15.26420
G01 X48.29865 Y15.22000
G01 X48.22550 Y14.98208
G01 X48.20744 Y14.80075
G01 X48.22994 Y14.60702
G01 X48.28201 Y14.44807
G01 X48.37289 Y14.28505
G01 X48.48831 Y14.15213
G01 X48.62717 Y14.04418
G01 X48.66895 Y14.01998
G01 X48.78427 Y13.96521
G01 X48.84188 Y13.94566
G01 X48.95364 Y13.91820
G01 X49.02638 Y13.90883
G01 X49.12887 Y13.90489
G01 X49.21455 Y13.91109
G01 X49.30334 Y13.92579
G01 X49.39814 Y13.95231
G01 X49.47043 Y13.98007
G01 X49.55092 Y14.02038
G01 X49.62387 Y14.06575
G01 X49.70444 Y14.12915
G01 X49.75778 Y14.17949
G01 X49.83207 Y14.26740
G01 X49.86717 Y14.31708
G01 X49.97426 Y14.51802
G01 X49.98953 Y14.56503
G01 X50.04480 Y14.56750
G01 X50.02458 Y14.56216
G01 X50.00680 Y14.55101
G01 X49.97426 Y14.51802
G01 X50.00680 Y14.55101
G01 X50.02623 Y14.56280
G01 X50.14459 Y14.57977
G01 X54.13757 Y14.57873
G01 X54.21271 Y14.56503
G01 X54.26188 Y14.53882
G01 X54.29038 Y14.50745
G01 X54.26188 Y14.53882
G01 X54.21271 Y14.56503
G01 X54.27219 Y14.56503
G01 X54.29038 Y14.50745
G01 X54.36859 Y14.32264
G01 X54.42147 Y14.21985
G01 X54.49526 Y14.10608
G01 X54.54085 Y14.04875
G01 X54.66424 Y13.92036
G01 X54.85876 Y13.77860
G01 X54.93016 Y13.74352
G01 X54.98781 Y13.70687
G01 X55.08456 Y13.66448
G01 X55.33300 Y13.61167
G01 X55.59891 Y13.61355
G01 X55.83546 Y13.66448
G01 X55.93391 Y13.70761
G01 X55.91441 Y13.68767
G01 X55.90272 Y13.66918
G01 X55.87133 Y13.55904
G01 X55.87582 Y13.51574
G01 X55.89637 Y13.44779
G01 X55.91623 Y13.40974
G01 X55.93244 Y13.39305
G01 X55.83000 Y13.43702
G01 X55.75637 Y13.51271
G01 X55.16371 Y13.51271
G01 X55.09028 Y13.43707
G01 X54.98614 Y13.39242
G01 X55.00564 Y13.41238
G01 X55.01733 Y13.43087
G01 X55.04872 Y13.54101
G01 X55.04423 Y13.58432
G01 X55.02368 Y13.65226
G01 X55.00382 Y13.69031
G01 X54.98781 Y13.70687
G01 X55.09010 Y13.66298
G01 X55.16368 Y13.58734
G01 X55.75634 Y13.58734
G01 X55.82977 Y13.66295
G01 X55.93391 Y13.70761
G01 X55.91441 Y13.68767
G01 X55.90272 Y13.66918
G01 X55.88426 Y13.61195
G01 X55.82355 Y13.55005
G01 X55.88408 Y13.48846
G01 X55.90450 Y13.42783
G01 X55.93244 Y13.39305
G01 X55.90450 Y13.42783
G01 X55.87151 Y13.53717
G01 X55.87529 Y13.58053
G01 X55.89475 Y13.64881
G01 X55.91441 Y13.68767
G01 X55.93391 Y13.70761
G01 X55.98921 Y13.74309
G01 X56.06129 Y13.77860
G01 X56.23201 Y13.90001
G01 X56.27117 Y13.93494
G01 X56.37920 Y14.04875
G01 X56.43701 Y14.12320
G01 X56.49883 Y14.22026
G01 X56.55197 Y14.32236
G01 X56.58753 Y14.40964
G01 X56.63211 Y14.56008
G01 X56.64278 Y14.61149
G01 X56.66338 Y14.82099
G01 X56.63706 Y15.05937
G01 X56.58753 Y15.23041
G01 X56.55197 Y15.31769
G01 X56.50127 Y15.41512
G01 X56.43683 Y15.51675
G01 X56.37905 Y15.59145
G01 X56.27117 Y15.70511
G01 X56.23201 Y15.74004
G01 X56.06129 Y15.86145
G01 X55.98989 Y15.89653
G01 X55.93244 Y15.93305
G01 X55.84671 Y15.97123
G01 X55.58703 Y16.02835
G01 X55.34504 Y16.02899
G01 X55.08456 Y15.97555
G01 X54.98614 Y15.93242
G01 X55.00564 Y15.95238
G01 X55.01733 Y15.97087
G01 X55.04872 Y16.08101
G01 X55.06058 Y16.05368
G01 X55.04872 Y16.08101
G01 X55.04423 Y16.12432
G01 X55.02368 Y16.19226
G01 X55.00382 Y16.23031
G01 X54.98781 Y16.24687
G01 X55.01555 Y16.21222
G01 X55.03597 Y16.15160
G01 X55.09650 Y16.09000
G01 X55.03579 Y16.02810
G01 X55.01733 Y15.97087
G01 X54.99068 Y15.93643
G01 X54.93084 Y15.89696
G01 X54.85876 Y15.86145
G01 X54.68804 Y15.74004
G01 X54.64888 Y15.70511
G01 X54.54085 Y15.59130
G01 X54.49526 Y15.53397
G01 X54.42122 Y15.41980
G01 X54.36808 Y15.31769
G01 X54.33199 Y15.22909
G01 X54.31499 Y15.17441
G01 X54.28169 Y15.10578
G01 X54.23940 Y15.06013
G01 X54.20905 Y15.04502
G01 X54.23940 Y15.06013
G01 X54.28169 Y15.10578
G01 X54.27156 Y15.07263
G01 X54.26803 Y15.04502
G01 X54.20905 Y15.04502
G01 X54.10019 Y15.03029
G01 X50.14673 Y15.03029
G01 X50.03720 Y15.04502
G01 X49.98950 Y15.04502
G01 X49.97309 Y15.09559
G01 X50.00451 Y15.06219
G01 X50.03720 Y15.04502
G01 X50.00451 Y15.06219
G01 X49.97309 Y15.09559
G01 X49.85392 Y15.31439
G01 X49.74050 Y15.44885
G01 X49.70466 Y15.48121
G01 X49.60324 Y15.55876
G01 X49.55099 Y15.58985
G01 X49.44736 Y15.63994
G01 X49.37815 Y15.66425
G01 X49.27873 Y15.68939
G01 X49.19364 Y15.70115
G01 X49.10373 Y15.70524
G01 X49.00548 Y15.69899
G01 X48.92900 Y15.68688
G01 X48.70827 Y15.62294
G01 X48.66553 Y15.60392
G01 X48.63667 Y15.63277
G01 X48.66598 Y15.62300
G01 X48.70827 Y15.62294
G01 X48.66598 Y15.62300
G01 X48.64340 Y15.62871
G01 X48.54856 Y15.70006
G01 X46.75156 Y17.49706
G01 X46.72613 Y17.52492
G01 X46.69598 Y17.56790
G01 X46.68516 Y17.65703
G01 X46.68552 Y18.73653
G01 X46.67124 Y18.79673
G01 X46.63497 Y18.85954
G01 X46.18237 Y19.31125
G01 X46.11534 Y19.39914
G01 X46.08087 Y19.43361
G01 X46.10599 Y19.47709
G01 X46.10432 Y19.43518
G01 X46.11534 Y19.39914
G01 X46.10432 Y19.43518
G01 X46.10599 Y19.47709
G01 X46.15621 Y19.64600
G01 X46.19296 Y19.73960
G01 X46.26248 Y19.79324
G01 X46.30160 Y19.81227
G01 X46.41585 Y19.82045
G01 X46.45260 Y19.80823
G01 X46.37343 Y19.88753
G01 X46.30528 Y19.91133
G01 X46.28458 Y19.97079
G01 X46.27450 Y20.01496
G01 X46.23487 Y20.27589
G01 X46.20818 Y20.38384
G01 X46.25641 Y20.46332
G01 X46.27003 Y20.49375
G01 X46.27003 Y20.60508
G01 X46.25951 Y20.58019
G01 X46.20160 Y20.52349
G01 X46.19131 Y20.49985
G01 X46.15329 Y20.43721
G01 X46.07127 Y20.47521
G01 X46.04394 Y20.47236
G01 X46.02222 Y20.47468
G01 X45.96533 Y20.49593
G01 X46.02268 Y20.43218
G01 X46.03980 Y20.40757
G01 X46.13660 Y20.36271
G01 X46.16169 Y20.26129
G01 X46.20145 Y19.99967
G01 X46.21285 Y19.95019
G01 X46.23492 Y19.88621
G01 X46.20007 Y19.83193
G01 X46.18951 Y19.73160
G01 X46.17914 Y19.70752
G01 X46.19296 Y19.73960
G01 X46.20564 Y19.75070
G01 X46.26248 Y19.79324
G01 X46.30160 Y19.81227
G01 X46.41585 Y19.82045
G01 X46.45260 Y19.80823
G01 X46.41585 Y19.82045
G01 X46.34737 Y19.81763
G01 X46.29202 Y19.83731
G01 X46.26467 Y19.79459
G01 X46.19296 Y19.73960
G01 X46.17914 Y19.70752
G01 X46.18951 Y19.73160
G01 X46.20500 Y19.88501
G01 X46.18191 Y20.08687
G01 X46.12045 Y20.26789
G01 X46.03028 Y20.42283
G01 X45.96533 Y20.49593
G01 X46.02222 Y20.47468
G01 X46.04394 Y20.47236
G01 X46.15661 Y20.49281
G01 X46.19350 Y20.51595
G01 X46.24541 Y20.56439
G01 X46.25951 Y20.58019
G01 X46.27003 Y20.60508
G01 X46.27003 Y20.08702
G01 X46.28626 Y20.00046
G01 X46.31369 Y19.94912
G01 X46.45260 Y19.80823
G01 X46.53619 Y19.74387
G01 X48.27609 Y18.00178
G01 X48.32837 Y17.92944
G01 X48.37205 Y17.88568
G01 X48.34180 Y17.83564
G01 X48.34345 Y17.88456
G01 X48.32837 Y17.92944
G01 X48.34345 Y17.88456
G01 X48.34180 Y17.83564
G01 X48.31821 Y17.77364
G01 X48.27650 Y17.68860
G01 X48.22511 Y17.52025
G01 X48.20744 Y17.34075
G01 X48.23037 Y17.14517
G01 X48.28562 Y16.97798
G01 X48.37289 Y16.82505
G01 X48.38727 Y16.80676
G01 X48.48831 Y16.69213
G01 X48.51521 Y16.66859
G01 X48.65031 Y16.57006
G01 X48.78427 Y16.50521
G01 X48.84188 Y16.48566
G01 X48.95364 Y16.45820
G01 X49.02638 Y16.44883
G01 X49.12887 Y16.44489
G01 X49.21455 Y16.45109
G01 X49.30334 Y16.46579
G01 X49.39814 Y16.49231
G01 X49.47043 Y16.52007
G01 X49.55092 Y16.56038
G01 X49.62387 Y16.60575
G01 X49.70444 Y16.66915
G01 X49.75778 Y16.71949
G01 X49.83207 Y16.80740
G01 X49.86717 Y16.85708
G01 X49.97426 Y17.05802
G01 X49.98953 Y17.10503
G01 X50.04480 Y17.10750
G01 X50.02458 Y17.10216
G01 X50.00680 Y17.09101
G01 X49.97426 Y17.05802
G01 X50.00680 Y17.09101
G01 X50.02623 Y17.10280
G01 X50.14459 Y17.11977
G01 X54.13757 Y17.11873
G01 X54.21271 Y17.10503
G01 X54.26188 Y17.07882
G01 X54.29038 Y17.04745
G01 X54.26188 Y17.07882
G01 X54.21271 Y17.10503
G01 X54.27219 Y17.10503
G01 X54.29038 Y17.04745
G01 X54.36859 Y16.86264
G01 X54.42147 Y16.75985
G01 X54.49526 Y16.64608
G01 X54.54085 Y16.58875
G01 X54.66424 Y16.46036
G01 X54.85876 Y16.31860
G01 X54.93016 Y16.28352
G01 X54.98781 Y16.24687
G01 X55.08456 Y16.20448
G01 X55.33300 Y16.15167
G01 X55.59891 Y16.15355
G01 X55.83546 Y16.20448
G01 X55.93391 Y16.24761
G01 X55.91441 Y16.22767
G01 X55.90272 Y16.20918
G01 X55.87133 Y16.09904
G01 X55.87582 Y16.05574
G01 X55.89637 Y15.98779
G01 X55.91623 Y15.94974
G01 X55.93244 Y15.93305
G01 X55.83000 Y15.97702
G01 X55.75637 Y16.05271
G01 X55.16371 Y16.05271
G01 X55.09028 Y15.97707
G01 X54.98614 Y15.93242
G01 X55.00564 Y15.95238
G01 X55.01733 Y15.97087
G01 X55.04872 Y16.08101
G01 X55.04423 Y16.12432
G01 X55.02368 Y16.19226
G01 X55.00382 Y16.23031
G01 X54.98781 Y16.24687
G01 X55.09010 Y16.20298
G01 X55.16368 Y16.12734
G01 X55.75634 Y16.12734
G01 X55.82977 Y16.20295
G01 X55.93391 Y16.24761
G01 X55.91441 Y16.22767
G01 X55.90272 Y16.20918
G01 X55.88426 Y16.15195
G01 X55.82355 Y16.09005
G01 X55.88408 Y16.02846
G01 X55.90450 Y15.96783
G01 X55.93244 Y15.93305
G01 X55.90450 Y15.96783
G01 X55.87151 Y16.07717
G01 X55.87529 Y16.12053
G01 X55.89475 Y16.18881
G01 X55.91441 Y16.22767
G01 X55.93391 Y16.24761
G01 X55.98921 Y16.28309
G01 X56.06129 Y16.31860
G01 X56.23201 Y16.44001
G01 X56.27117 Y16.47494
G01 X56.37920 Y16.58875
G01 X56.43701 Y16.66320
G01 X56.49883 Y16.76026
G01 X56.55197 Y16.86236
G01 X56.58753 Y16.94964
G01 X56.63211 Y17.10008
G01 X56.64278 Y17.15149
G01 X56.66338 Y17.36099
G01 X56.63706 Y17.59937
G01 X56.58753 Y17.77041
G01 X56.55197 Y17.85769
G01 X56.49883 Y17.95980
G01 X56.43701 Y18.05685
G01 X56.37920 Y18.13130
G01 X56.27117 Y18.24511
G01 X56.23201 Y18.28004
G01 X56.06129 Y18.40145
G01 X55.98989 Y18.43653
G01 X55.93244 Y18.47305
G01 X55.83000 Y18.51702
G01 X55.75637 Y18.59271
G01 X55.16371 Y18.59271
G01 X55.09028 Y18.51707
G01 X54.98614 Y18.47242
G01 X55.00564 Y18.49238
G01 X55.01733 Y18.51087
G01 X55.04872 Y18.62101
G01 X55.06058 Y18.59368
G01 X55.04872 Y18.62101
G01 X55.04423 Y18.66432
G01 X55.02368 Y18.73226
G01 X55.00382 Y18.77031
G01 X54.98781 Y18.78687
G01 X55.01555 Y18.75222
G01 X55.03597 Y18.69160
G01 X55.09650 Y18.63000
G01 X55.03579 Y18.56810
G01 X55.01733 Y18.51087
G01 X55.00564 Y18.49238
G01 X54.98614 Y18.47242
G01 X55.00564 Y18.49238
G01 X55.01733 Y18.51087
G01 X55.04872 Y18.62101
G01 X55.04423 Y18.66432
G01 X55.02368 Y18.73226
G01 X55.00382 Y18.77031
G01 X54.98781 Y18.78687
G01 X55.09010 Y18.74298
G01 X55.16368 Y18.66734
G01 X55.75634 Y18.66734
G01 X55.82977 Y18.74295
G01 X55.93391 Y18.78761
G01 X55.91441 Y18.76767
G01 X55.90272 Y18.74918
G01 X55.88426 Y18.69195
G01 X55.82355 Y18.63005
G01 X55.88408 Y18.56846
G01 X55.90450 Y18.50783
G01 X55.93244 Y18.47305
G01 X55.90450 Y18.50783
G01 X55.87151 Y18.61717
G01 X55.87529 Y18.66053
G01 X55.89475 Y18.72881
G01 X55.91441 Y18.76767
G01 X55.93391 Y18.78761
G01 X55.98921 Y18.82309
G01 X56.07018 Y18.86459
G01 X56.25581 Y19.00036
G01 X56.37920 Y19.12875
G01 X56.43701 Y19.20320
G01 X56.49883 Y19.30026
G01 X56.55197 Y19.40236
G01 X56.58753 Y19.48964
G01 X56.63211 Y19.64008
G01 X56.64278 Y19.69149
G01 X56.66338 Y19.90099
G01 X56.64275 Y20.10856
G01 X56.63211 Y20.15997
G01 X56.58753 Y20.31041
G01 X56.55197 Y20.39769
G01 X56.49883 Y20.49980
G01 X56.43701 Y20.59685
G01 X56.37920 Y20.67130
G01 X56.27117 Y20.78511
G01 X56.23201 Y20.82004
G01 X56.06129 Y20.94145
G01 X55.98989 Y20.97653
G01 X55.93244 Y21.01305
G01 X55.83546 Y21.05555
G01 X55.58703 Y21.10835
G01 X55.32111 Y21.10647
G01 X55.08456 Y21.05555
G01 X54.98614 Y21.01242
G01 X55.00564 Y21.03238
G01 X55.01733 Y21.05087
G01 X55.04872 Y21.16101
G01 X55.06058 Y21.13368
G01 X55.04872 Y21.16101
G01 X55.04423 Y21.20432
G01 X55.02368 Y21.27226
G01 X55.00382 Y21.31031
G01 X54.98779 Y21.32687
G01 X55.01555 Y21.29222
G01 X55.03597 Y21.23160
G01 X55.09650 Y21.17000
G01 X55.03582 Y21.10810
G01 X55.01733 Y21.05087
G01 X54.99068 Y21.01643
G01 X54.93084 Y20.97696
G01 X54.85876 Y20.94145
G01 X54.68804 Y20.82004
G01 X54.64888 Y20.78511
G01 X54.54085 Y20.67130
G01 X54.49526 Y20.61397
G01 X54.42122 Y20.49980
G01 X54.36808 Y20.39769
G01 X54.33199 Y20.30909
G01 X54.31499 Y20.25441
G01 X54.28169 Y20.18578
G01 X54.23940 Y20.14013
G01 X54.20905 Y20.12502
G01 X54.23940 Y20.14013
G01 X54.28169 Y20.18578
G01 X54.27156 Y20.15263
G01 X54.26803 Y20.12502
G01 X54.20905 Y20.12502
G01 X54.10019 Y20.11029
G01 X50.14673 Y20.11029
G01 X50.03720 Y20.12502
G01 X49.98950 Y20.12502
G01 X49.97309 Y20.17559
G01 X50.00451 Y20.14219
G01 X50.03720 Y20.12502
G01 X50.00451 Y20.14219
G01 X49.97309 Y20.17559
G01 X49.85392 Y20.39439
G01 X49.74050 Y20.52885
G01 X49.72077 Y20.54750
G01 X49.60324 Y20.63876
G01 X49.55099 Y20.66985
G01 X49.44736 Y20.71994
G01 X49.37815 Y20.74425
G01 X49.18356 Y20.79042
G01 X49.14152 Y20.82189
G01 X48.80977 Y21.15090
G01 X48.77426 Y21.19416
G01 X48.75140 Y21.22994
G01 X48.66903 Y21.31229
G01 X48.64353 Y21.39741
G01 X48.63215 Y21.45471
G01 X48.58597 Y21.50089
G01 X48.63215 Y21.45471
G01 X48.62905 Y21.47053
G01 X48.55539 Y21.52441
G01 X48.39484 Y21.66459
G01 X48.27830 Y21.78732
G01 X48.19446 Y21.89240
G01 X48.13848 Y21.94838
G01 X48.19446 Y21.89240
G01 X48.15397 Y21.94518
G01 X48.04002 Y21.96888
G01 X47.99679 Y21.98455
G01 X47.91859 Y22.06276
G01 X47.95130 Y22.05141
G01 X47.97317 Y22.05090
G01 X48.06555 Y22.05958
G01 X48.10467 Y22.07861
G01 X48.17335 Y22.13190
G01 X48.16390 Y22.07841
G01 X48.14772 Y22.02268
G01 X48.05801 Y22.04135
G01 X48.02288 Y22.05445
G01 X47.97317 Y22.05090
G01 X47.93182 Y22.05565
G01 X47.91102 Y22.06685
G01 X47.85359 Y22.10983
G01 X47.06873 Y22.89179
G01 X47.00327 Y22.97810
G01 X46.72964 Y23.25173
G01 X46.92405 Y23.05730
G01 X46.89532 Y23.15120
G01 X46.81920 Y23.19258
G01 X46.72964 Y23.25173
G01 X46.34295 Y23.63842
G01 X46.24549 Y23.80002
G01 X46.15176 Y23.82958
G01 X46.34295 Y23.63842
G01 X46.07353 Y23.90782
G01 X46.10627 Y23.89646
G01 X46.17790 Y23.89946
G01 X46.25222 Y23.87556
G01 X46.28166 Y23.94012
G01 X46.33215 Y23.98033
G01 X46.34887 Y24.00670
G01 X46.34501 Y23.96400
G01 X46.35004 Y23.91020
G01 X46.31341 Y23.83129
G01 X46.40335 Y23.68226
G01 X46.36063 Y23.81536
G01 X46.35004 Y23.91020
G01 X46.36063 Y23.81536
G01 X46.40683 Y23.67320
G01 X46.48156 Y23.54376
G01 X46.57307 Y23.44117
G01 X46.70251 Y23.34480
G01 X46.77193 Y23.31320
G01 X46.85735 Y23.25671
G01 X46.92860 Y23.21803
G01 X46.99959 Y23.25229
G01 X46.85070 Y23.28089
G01 X46.77193 Y23.31320
G01 X46.83906 Y23.28402
G01 X46.97338 Y23.25481
G01 X47.09969 Y23.25229
G01 X47.06474 Y23.22804
G01 X47.03505 Y23.18666
G01 X46.97155 Y23.15549
G01 X46.99314 Y23.08552
G01 X46.99410 Y22.99804
G01 X47.00327 Y22.97810
G01 X46.99410 Y22.99804
G01 X46.99245 Y23.01866
G01 X46.99316 Y23.08966
G01 X47.00183 Y23.13233
G01 X47.06474 Y23.22804
G01 X47.09865 Y23.25191
G01 X47.19845 Y23.27845
G01 X47.33683 Y23.30812
G01 X47.35565 Y23.30766
G01 X47.38653 Y23.29811
G01 X47.35565 Y23.30766
G01 X47.33388 Y23.30756
G01 X47.36423 Y23.32039
G01 X47.38653 Y23.29811
G01 X47.47533 Y23.23017
G01 X48.15595 Y22.54780
G01 X48.18694 Y22.50797
G01 X48.20121 Y22.48430
G01 X48.21927 Y22.30734
G01 X48.21859 Y22.22184
G01 X48.27411 Y22.05285
G01 X48.37734 Y21.87782
G01 X48.49776 Y21.74503
G01 X48.65252 Y21.63261
G01 X48.82727 Y21.55478
G01 X48.91859 Y21.53474
G01 X48.87045 Y21.52243
G01 X48.85122 Y21.51206
G01 X48.78379 Y21.44831
G01 X48.75918 Y21.41237
G01 X48.73426 Y21.30058
G01 X48.73571 Y21.27879
G01 X48.75140 Y21.22994
G01 X47.91859 Y22.06276
G01 X47.95130 Y22.05141
G01 X47.97317 Y22.05090
G01 X48.04399 Y22.05598
G01 X48.08602 Y22.06723
G01 X48.17769 Y22.13586
G01 X48.20038 Y22.17302
G01 X48.21859 Y22.22184
G01 X48.24864 Y22.12921
G01 X48.23693 Y22.06299
G01 X48.21856 Y21.99860
G01 X48.25359 Y21.93794
G01 X48.21856 Y21.99860
G01 X48.21564 Y21.98735
G01 X48.33312 Y21.83797
G01 X48.44691 Y21.71806
G01 X48.60312 Y21.58178
G01 X48.63289 Y21.55898
G01 X48.68386 Y21.53627
G01 X48.63289 Y21.55898
G01 X48.60312 Y21.58178
G01 X48.67007 Y21.53289
G01 X48.81005 Y21.56174
G01 X48.83888 Y21.55169
G01 X48.91859 Y21.53474
G01 X48.87045 Y21.52243
G01 X48.85122 Y21.51206
G01 X48.82450 Y21.48857
G01 X48.70619 Y21.46492
G01 X48.71564 Y21.41663
G01 X48.74007 Y21.33622
G01 X48.73426 Y21.30058
G01 X48.73571 Y21.27879
G01 X48.75140 Y21.22994
G01 X48.73571 Y21.27879
G01 X48.73426 Y21.30058
G01 X48.75918 Y21.41237
G01 X48.78379 Y21.44831
G01 X48.83428 Y21.49824
G01 X48.87045 Y21.52243
G01 X48.91859 Y21.53474
G01 X49.12887 Y21.52489
G01 X49.21455 Y21.53109
G01 X49.30334 Y21.54579
G01 X49.39814 Y21.57231
G01 X49.47043 Y21.60007
G01 X49.55092 Y21.64038
G01 X49.62387 Y21.68575
G01 X49.70444 Y21.74915
G01 X49.75778 Y21.79949
G01 X49.84482 Y21.90421
G01 X49.86717 Y21.93708
G01 X49.97426 Y22.13802
G01 X49.98953 Y22.18503
G01 X50.04480 Y22.18750
G01 X50.02458 Y22.18216
G01 X50.00680 Y22.17101
G01 X49.97426 Y22.13802
G01 X50.00680 Y22.17101
G01 X50.02623 Y22.18280
G01 X50.14459 Y22.19977
G01 X54.10819 Y22.19977
G01 X54.17562 Y22.19354
G01 X54.21271 Y22.18503
G01 X54.26188 Y22.15882
G01 X54.29038 Y22.12745
G01 X54.26188 Y22.15882
G01 X54.21271 Y22.18503
G01 X54.27219 Y22.18503
G01 X54.29038 Y22.12745
G01 X54.36859 Y21.94264
G01 X54.42147 Y21.83985
G01 X54.49526 Y21.72608
G01 X54.54085 Y21.66875
G01 X54.66424 Y21.54036
G01 X54.84987 Y21.40459
G01 X54.93016 Y21.36352
G01 X54.98779 Y21.32687
G01 X55.08456 Y21.28448
G01 X55.33300 Y21.23167
G01 X55.59891 Y21.23355
G01 X55.83546 Y21.28448
G01 X55.93391 Y21.32761
G01 X55.91441 Y21.30767
G01 X55.90272 Y21.28918
G01 X55.87133 Y21.17904
G01 X55.87582 Y21.13574
G01 X55.89637 Y21.06779
G01 X55.91623 Y21.02974
G01 X55.93244 Y21.01305
G01 X55.83000 Y21.05702
G01 X55.75637 Y21.13271
G01 X55.16371 Y21.13271
G01 X55.09028 Y21.05707
G01 X54.98614 Y21.01242
G01 X55.00564 Y21.03238
G01 X55.01733 Y21.05087
G01 X55.04872 Y21.16101
G01 X55.04423 Y21.20432
G01 X55.02368 Y21.27226
G01 X55.00382 Y21.31031
G01 X54.98779 Y21.32687
G01 X55.09007 Y21.28300
G01 X55.16368 Y21.20734
G01 X55.75634 Y21.20734
G01 X55.82977 Y21.28295
G01 X55.93391 Y21.32761
G01 X55.91441 Y21.30767
G01 X55.90272 Y21.28918
G01 X55.88426 Y21.23195
G01 X55.82355 Y21.17005
G01 X55.88408 Y21.10846
G01 X55.90450 Y21.04783
G01 X55.93244 Y21.01305
G01 X55.90450 Y21.04783
G01 X55.87151 Y21.15717
G01 X55.87529 Y21.20053
G01 X55.89475 Y21.26881
G01 X55.91441 Y21.30767
G01 X55.93391 Y21.32761
G01 X55.98921 Y21.36309
G01 X56.06129 Y21.39860
G01 X56.23201 Y21.52001
G01 X56.27117 Y21.55494
G01 X56.37920 Y21.66875
G01 X56.43701 Y21.74320
G01 X56.49883 Y21.84026
G01 X56.55197 Y21.94236
G01 X56.58753 Y22.02964
G01 X56.63211 Y22.18008
G01 X56.64278 Y22.23149
G01 X56.66338 Y22.44099
G01 X56.63706 Y22.67937
G01 X56.58753 Y22.85041
G01 X56.55197 Y22.93769
G01 X56.49883 Y23.03980
G01 X56.42479 Y23.15397
G01 X56.37920 Y23.21130
G01 X56.25581 Y23.33969
G01 X56.06129 Y23.48145
G01 X55.98989 Y23.51653
G01 X55.93244 Y23.55305
G01 X55.84671 Y23.59123
G01 X55.58703 Y23.64835
G01 X55.34504 Y23.64899
G01 X55.08456 Y23.59555
G01 X54.98614 Y23.55242
G01 X55.00564 Y23.57238
G01 X55.01733 Y23.59087
G01 X55.04872 Y23.70101
G01 X55.06058 Y23.67368
G01 X55.04872 Y23.70101
G01 X55.04423 Y23.74432
G01 X55.02368 Y23.81226
G01 X55.00382 Y23.85031
G01 X54.98781 Y23.86687
G01 X55.01555 Y23.83222
G01 X55.03597 Y23.77160
G01 X55.09650 Y23.71000
G01 X55.03579 Y23.64810
G01 X55.01733 Y23.59087
G01 X54.99068 Y23.55643
G01 X54.93084 Y23.51696
G01 X54.85876 Y23.48145
G01 X54.68804 Y23.36004
G01 X54.64888 Y23.32511
G01 X54.54085 Y23.21130
G01 X54.49526 Y23.15397
G01 X54.42122 Y23.03980
G01 X54.36808 Y22.93769
G01 X54.33199 Y22.84909
G01 X54.31499 Y22.79441
G01 X54.28169 Y22.72578
G01 X54.23940 Y22.68013
G01 X54.20905 Y22.66502
G01 X54.23940 Y22.68013
G01 X54.28169 Y22.72578
G01 X54.27156 Y22.69263
G01 X54.26803 Y22.66502
G01 X54.20905 Y22.66502
G01 X54.10019 Y22.65029
G01 X50.14673 Y22.65029
G01 X50.03720 Y22.66502
G01 X49.98950 Y22.66502
G01 X49.97309 Y22.71559
G01 X50.00451 Y22.68219
G01 X50.03720 Y22.66502
G01 X50.00451 Y22.68219
G01 X49.97309 Y22.71559
G01 X49.85392 Y22.93439
G01 X49.74050 Y23.06885
G01 X49.72077 Y23.08750
G01 X49.60324 Y23.17876
G01 X49.55099 Y23.20985
G01 X49.44736 Y23.25994
G01 X49.39826 Y23.27802
G01 X49.27873 Y23.30939
G01 X49.19364 Y23.32115
G01 X49.10373 Y23.32524
G01 X49.02638 Y23.32118
G01 X48.92900 Y23.30688
G01 X48.82189 Y23.27782
G01 X48.76116 Y23.25501
G01 X48.66911 Y23.20972
G01 X48.60647 Y23.17157
G01 X48.45346 Y23.05671
G01 X48.38394 Y22.97952
G01 X48.30647 Y23.05697
G01 X48.38171 Y22.98193
G01 X48.38630 Y22.98216
G01 X48.45346 Y23.05671
G01 X48.43190 Y23.05011
G01 X48.36108 Y23.04505
G01 X48.31976 Y23.04983
G01 X48.29895 Y23.06103
G01 X48.24152 Y23.10401
G01 X47.79215 Y23.55046
G01 X47.72402 Y23.63944
G01 X47.70525 Y23.65818
G01 X47.71539 Y23.67919
G01 X47.71633 Y23.66220
G01 X47.72402 Y23.63944
G01 X47.71633 Y23.66220
G01 X47.71539 Y23.67919
G01 X47.72857 Y23.75389
G01 X47.74714 Y23.81798
G01 X47.76118 Y23.95338
G01 X47.76223 Y23.97383
G01 X47.74414 Y24.12036
G01 X47.70424 Y24.23929
G01 X47.68836 Y24.27594
G01 X47.57607 Y24.45452
G01 X47.54696 Y24.48686
G01 X47.40678 Y24.58869
G01 X47.28097 Y24.64401
G01 X47.13474 Y24.67510
G01 X46.97338 Y24.67322
G01 X46.83906 Y24.64401
G01 X46.75618 Y24.60781
G01 X46.85158 Y24.64731
G01 X46.90894 Y24.70972
G01 X47.31775 Y24.70972
G01 X47.34569 Y24.69758
G01 X47.31775 Y24.70972
G01 X47.32789 Y24.70972
G01 X47.37802 Y24.67558
G01 X47.46527 Y24.62521
G01 X47.50619 Y24.51957
G01 X47.53845 Y24.49537
G01 X47.57607 Y24.45452
G01 X47.57056 Y24.47378
G01 X47.56964 Y24.51193
G01 X47.57973 Y24.58221
G01 X47.59395 Y24.62336
G01 X47.66898 Y24.70995
G01 X47.70218 Y24.72636
G01 X47.58737 Y24.72801
G01 X47.52014 Y24.74922
G01 X47.47076 Y24.78206
G01 X47.36479 Y24.88666
G01 X47.28097 Y24.85000
G01 X47.12273 Y24.81830
G01 X46.97338 Y24.82082
G01 X46.83906 Y24.85000
G01 X46.75773 Y24.88554
G01 X46.85197 Y24.84662
G01 X46.90937 Y24.78432
G01 X47.31778 Y24.78432
G01 X47.34864 Y24.79778
G01 X47.34973 Y24.80870
G01 X47.34864 Y24.79778
G01 X47.38763 Y24.75927
G01 X47.34495 Y24.78391
G01 X47.34572 Y24.78658
G01 X47.34495 Y24.78391
G01 X47.31778 Y24.78432
G01 X47.35560 Y24.78064
G01 X47.41739 Y24.73895
G01 X47.49832 Y24.69224
G01 X47.59298 Y24.72755
G01 X47.70218 Y24.72636
G01 X47.66898 Y24.70995
G01 X47.62184 Y24.65872
G01 X47.54277 Y24.62928
G01 X47.57490 Y24.54866
G01 X47.56850 Y24.49280
G01 X47.57607 Y24.45452
G01 X47.56850 Y24.49280
G01 X47.58488 Y24.60347
G01 X47.60665 Y24.64116
G01 X47.65316 Y24.69483
G01 X47.68737 Y24.72176
G01 X47.70820 Y24.72816
G01 X47.80817 Y24.74033
G01 X48.10266 Y24.73786
G01 X48.17480 Y24.72724
G01 X48.19575 Y24.72077
G01 X48.21424 Y24.70870
G01 X48.24747 Y24.67284
G01 X48.21424 Y24.70870
G01 X48.19575 Y24.72077
G01 X48.17480 Y24.72724
G01 X48.23045 Y24.72521
G01 X48.24747 Y24.67284
G01 X48.37398 Y24.44350
G01 X48.48831 Y24.31213
G01 X48.62717 Y24.20418
G01 X48.66895 Y24.17998
G01 X48.78427 Y24.12521
G01 X48.84188 Y24.10566
G01 X48.95364 Y24.07820
G01 X49.00543 Y24.07073
G01 X49.12887 Y24.06489
G01 X49.21455 Y24.07109
G01 X49.30334 Y24.08579
G01 X49.39814 Y24.11231
G01 X49.47043 Y24.14007
G01 X49.55092 Y24.18038
G01 X49.62387 Y24.22575
G01 X49.70444 Y24.28915
G01 X49.75778 Y24.33949
G01 X49.84482 Y24.44421
G01 X49.86717 Y24.47708
G01 X49.97426 Y24.67802
G01 X49.98953 Y24.72503
G01 X50.04480 Y24.72750
G01 X50.02458 Y24.72216
G01 X50.00680 Y24.71101
G01 X49.97426 Y24.67802
G01 X50.00680 Y24.71101
G01 X50.02623 Y24.72280
G01 X50.14464 Y24.73977
G01 X54.12914 Y24.73890
G01 X54.21271 Y24.72503
G01 X54.26188 Y24.69882
G01 X54.29038 Y24.66745
G01 X54.26188 Y24.69882
G01 X54.21271 Y24.72503
G01 X54.27219 Y24.72503
G01 X54.29038 Y24.66745
G01 X54.36859 Y24.48264
G01 X54.42147 Y24.37985
G01 X54.49526 Y24.26608
G01 X54.54085 Y24.20875
G01 X54.66424 Y24.08036
G01 X54.84987 Y23.94459
G01 X54.93016 Y23.90352
G01 X54.98781 Y23.86687
G01 X55.08456 Y23.82448
G01 X55.33300 Y23.77167
G01 X55.59891 Y23.77355
G01 X55.83546 Y23.82448
G01 X55.93391 Y23.86761
G01 X55.91441 Y23.84767
G01 X55.90272 Y23.82918
G01 X55.87133 Y23.71904
G01 X55.87582 Y23.67574
G01 X55.89637 Y23.60779
G01 X55.91623 Y23.56974
G01 X55.93244 Y23.55305
G01 X55.83000 Y23.59700
G01 X55.75637 Y23.67271
G01 X55.16371 Y23.67271
G01 X55.09028 Y23.59707
G01 X54.98614 Y23.55242
G01 X55.00564 Y23.57238
G01 X55.01733 Y23.59087
G01 X55.04872 Y23.70101
G01 X55.04423 Y23.74432
G01 X55.02368 Y23.81226
G01 X55.00382 Y23.85031
G01 X54.98781 Y23.86687
G01 X55.09010 Y23.82298
G01 X55.16368 Y23.74734
G01 X55.75634 Y23.74734
G01 X55.82977 Y23.82295
G01 X55.93391 Y23.86761
G01 X55.91441 Y23.84767
G01 X55.90272 Y23.82918
G01 X55.88426 Y23.77195
G01 X55.82355 Y23.71005
G01 X55.88408 Y23.64846
G01 X55.90450 Y23.58783
G01 X55.93244 Y23.55305
G01 X55.90450 Y23.58783
G01 X55.87151 Y23.69717
G01 X55.87529 Y23.74053
G01 X55.89475 Y23.80881
G01 X55.91441 Y23.84767
G01 X55.93391 Y23.86761
G01 X55.98921 Y23.90309
G01 X56.06129 Y23.93860
G01 X56.23201 Y24.06001
G01 X56.27117 Y24.09494
G01 X56.37920 Y24.20875
G01 X56.43701 Y24.28320
G01 X56.49883 Y24.38026
G01 X56.55197 Y24.48236
G01 X56.58753 Y24.56964
G01 X56.63211 Y24.72008
G01 X56.64278 Y24.77149
G01 X56.66338 Y24.98099
G01 X56.63706 Y25.21937
G01 X56.58753 Y25.39041
G01 X56.55197 Y25.47769
G01 X56.49883 Y25.57980
G01 X56.43701 Y25.67685
G01 X56.37920 Y25.75130
G01 X56.27117 Y25.86511
G01 X56.23201 Y25.90004
G01 X56.06129 Y26.02145
G01 X55.98989 Y26.05653
G01 X55.93244 Y26.09305
G01 X55.84671 Y26.13123
G01 X55.58703 Y26.18835
G01 X55.34504 Y26.18899
G01 X55.08456 Y26.13555
G01 X54.98614 Y26.09242
G01 X55.00564 Y26.11238
G01 X55.01733 Y26.13087
G01 X55.04872 Y26.24101
G01 X55.06058 Y26.21368
G01 X55.04872 Y26.24101
G01 X55.04423 Y26.28432
G01 X55.02368 Y26.35226
G01 X55.00382 Y26.39031
G01 X54.98779 Y26.40687
G01 X55.01555 Y26.37222
G01 X55.03597 Y26.31160
G01 X55.09650 Y26.25000
G01 X55.03582 Y26.18810
G01 X55.01733 Y26.13087
G01 X55.00564 Y26.11238
G01 X54.98614 Y26.09242
G01 X55.09025 Y26.13707
G01 X55.16371 Y26.21271
G01 X55.75637 Y26.21271
G01 X55.83000 Y26.13702
G01 X55.93244 Y26.09305
G01 X55.91623 Y26.10974
G01 X55.89637 Y26.14779
G01 X55.87582 Y26.21574
G01 X55.87133 Y26.25904
G01 X55.90272 Y26.36918
G01 X55.91441 Y26.38767
G01 X55.93391 Y26.40763
G01 X55.91441 Y26.38767
G01 X55.90272 Y26.36918
G01 X55.88426 Y26.31195
G01 X55.82355 Y26.25005
G01 X55.88408 Y26.18846
G01 X55.90450 Y26.12783
G01 X55.93244 Y26.09305
G01 X55.91623 Y26.10974
G01 X55.89637 Y26.14779
G01 X55.87582 Y26.21574
G01 X55.87133 Y26.25904
G01 X55.90272 Y26.36918
G01 X55.91441 Y26.38767
G01 X55.93391 Y26.40763
G01 X55.82977 Y26.36293
G01 X55.75634 Y26.28734
G01 X55.16368 Y26.28734
G01 X55.09007 Y26.36300
G01 X54.98779 Y26.40687
G01 X55.01555 Y26.37222
G01 X55.04855 Y26.26288
G01 X55.04476 Y26.21952
G01 X55.01733 Y26.13087
G01 X55.00564 Y26.11238
G01 X54.98614 Y26.09242
G01 X54.93084 Y26.05696
G01 X54.85876 Y26.02145
G01 X54.68804 Y25.90004
G01 X54.64888 Y25.86511
G01 X54.54085 Y25.75130
G01 X54.48304 Y25.67685
G01 X54.42122 Y25.57980
G01 X54.35937 Y25.45856
G01 X54.31499 Y25.33441
G01 X54.28169 Y25.26578
G01 X54.23940 Y25.22013
G01 X54.20905 Y25.20502
G01 X54.23940 Y25.22013
G01 X54.28169 Y25.26578
G01 X54.27156 Y25.23263
G01 X54.26803 Y25.20502
G01 X54.20905 Y25.20502
G01 X54.10019 Y25.19029
G01 X50.14673 Y25.19029
G01 X50.03720 Y25.20502
G01 X49.98950 Y25.20502
G01 X49.97309 Y25.25559
G01 X50.00451 Y25.22219
G01 X50.03720 Y25.20502
G01 X50.00451 Y25.22219
G01 X49.97309 Y25.25559
G01 X49.92892 Y25.34126
G01 X49.84558 Y25.48627
G01 X49.74050 Y25.60885
G01 X49.70466 Y25.64121
G01 X49.60324 Y25.71876
G01 X49.55099 Y25.74985
G01 X49.44736 Y25.79996
G01 X49.37815 Y25.82425
G01 X49.27873 Y25.84939
G01 X49.21460 Y25.85909
G01 X49.10373 Y25.86524
G01 X49.00548 Y25.85899
G01 X48.92900 Y25.84688
G01 X48.84193 Y25.82419
G01 X48.76116 Y25.79501
G01 X48.65072 Y25.73943
G01 X48.60647 Y25.71157
G01 X48.49954 Y25.62724
G01 X48.47086 Y25.59973
G01 X48.38780 Y25.50281
G01 X48.35946 Y25.46369
G01 X48.29148 Y25.34106
G01 X48.24635 Y25.25374
G01 X48.23052 Y25.20502
G01 X48.18369 Y25.20502
G01 X48.21158 Y25.21871
G01 X48.24635 Y25.25374
G01 X48.21158 Y25.21871
G01 X48.19397 Y25.20779
G01 X48.17401 Y25.20255
G01 X48.07419 Y25.19029
G01 X47.97988 Y25.19029
G01 X47.87249 Y25.20502
G01 X47.76090 Y25.20502
G01 X47.73860 Y25.21533
G01 X47.72870 Y25.22519
G01 X47.72425 Y25.22191
G01 X47.72870 Y25.22519
G01 X47.71988 Y25.25770
G01 X47.75148 Y25.35493
G01 X47.71752 Y25.25043
G01 X47.70528 Y25.22420
G01 X47.72443 Y25.20502
G01 X47.87249 Y25.20502
G01 X47.84897 Y25.21457
G01 X47.78432 Y25.27992
G01 X47.76088 Y25.31660
G01 X47.75478 Y25.33761
G01 X47.75148 Y25.35493
G01 X47.75298 Y25.43877
G01 X47.76223 Y25.53984
G01 X47.74770 Y25.66534
G01 X47.74221 Y25.69506
G01 X47.68836 Y25.84195
G01 X47.63271 Y25.93311
G01 X47.60342 Y25.97324
G01 X47.53629 Y26.04324
G01 X47.49164 Y26.08244
G01 X47.41912 Y26.13098
G01 X47.35844 Y26.16422
G01 X47.28631 Y26.19247
G01 X47.20180 Y26.21756
G01 X47.14440 Y26.23943
G01 X47.12392 Y26.26021
G01 X47.08778 Y26.30847
G01 X47.03609 Y26.33661
G01 X47.05722 Y26.39879
G01 X47.05420 Y26.47042
G01 X47.05844 Y26.48993
G01 X47.06962 Y26.51068
G01 X46.72024 Y26.15782
G01 X46.84821 Y26.28576
G01 X46.96111 Y26.34599
G01 X46.98732 Y26.42488
G01 X47.06962 Y26.51068
G01 X47.05844 Y26.48993
G01 X47.05420 Y26.47042
G01 X47.06235 Y26.35620
G01 X47.08138 Y26.31706
G01 X47.12392 Y26.26021
G01 X47.14440 Y26.23943
G01 X47.05443 Y26.24172
G01 X46.99009 Y26.27713
G01 X46.88379 Y26.22016
G01 X46.98526 Y26.24108
G01 X47.05443 Y26.24172
G01 X46.98526 Y26.24108
G01 X46.85070 Y26.21314
G01 X46.72024 Y26.15782
G01 X46.62237 Y26.07779
G01 X46.54526 Y26.02196
G01 X46.47696 Y25.94317
G01 X46.45631 Y25.93263
G01 X46.45631 Y25.90776
G01 X46.47696 Y25.94317
G01 X46.40871 Y25.82237
G01 X46.40876 Y25.84413
G01 X46.40366 Y25.86539
G01 X46.38166 Y25.90781
G01 X46.38168 Y25.93291
G01 X46.36248 Y25.94121
G01 X46.38166 Y25.90781
G01 X46.34658 Y25.96471
G01 X46.33078 Y25.97982
G01 X46.27701 Y26.01002
G01 X46.33078 Y25.97982
G01 X46.34658 Y25.96471
G01 X46.39461 Y25.88528
G01 X46.40876 Y25.84413
G01 X46.40960 Y25.82597
G01 X46.39532 Y25.75196
G01 X46.37521 Y25.68559
G01 X46.34907 Y25.57454
G01 X46.33713 Y25.55099
G01 X46.31473 Y25.52534
G01 X46.22100 Y25.46816
G01 X46.17815 Y25.46062
G01 X46.10719 Y25.46174
G01 X46.06459 Y25.47063
G01 X46.04262 Y25.48274
G01 X46.08547 Y25.46415
G01 X46.12992 Y25.46136
G01 X46.23213 Y25.40225
G01 X46.28351 Y25.50448
G01 X46.32690 Y25.53733
G01 X46.34907 Y25.57454
G01 X46.34501 Y25.53001
G01 X46.35052 Y25.47162
G01 X46.28651 Y25.34721
G01 X46.32375 Y25.23243
G01 X46.44623 Y25.16969
G01 X46.33106 Y25.22884
G01 X46.29278 Y25.34667
G01 X46.29073 Y25.35442
G01 X46.35052 Y25.47162
G01 X46.36063 Y25.38135
G01 X46.40251 Y25.25043
G01 X46.48156 Y25.10974
G01 X46.50134 Y25.08683
G01 X46.54709 Y25.05160
G01 X46.63627 Y24.97175
G01 X46.76126 Y24.88269
G01 X46.80033 Y24.79278
G01 X46.81483 Y24.77898
G01 X46.80406 Y24.76885
G01 X46.81483 Y24.77898
G01 X46.84226 Y24.74772
G01 X46.79532 Y24.69638
G01 X46.80406 Y24.76885
G01 X46.80033 Y24.79278
G01 X46.80289 Y24.74701
G01 X46.79238 Y24.67680
G01 X46.77792 Y24.63578
G01 X46.76515 Y24.61805
G01 X46.68608 Y24.55501
G01 X46.62062 Y24.51051
G01 X46.58364 Y24.47736
G01 X46.46215 Y24.35188
G01 X46.42883 Y24.33357
G01 X46.42878 Y24.29410
G01 X46.42883 Y24.33357
G01 X46.10922 Y24.51543
G01 X46.06914 Y24.49326
G01 X46.10922 Y24.51543
G01 X46.10899 Y24.56225
G01 X46.10922 Y24.51543
G01 X46.42883 Y24.33357
G01 X46.46215 Y24.35188
G01 X46.42878 Y24.29410
G01 X46.40731 Y24.21500
G01 X46.37521 Y24.11960
G01 X46.34498 Y23.99710
G01 X46.31648 Y23.96618
G01 X46.24097 Y23.91226
G01 X46.19893 Y23.90098
G01 X46.12812 Y23.89593
G01 X46.08676 Y23.90070
G01 X46.06601 Y23.91188
G01 X45.98674 Y23.97378
G01 X45.92835 Y24.03367
G01 X45.89573 Y24.07378
G01 X45.87625 Y24.10512
G01 X45.78344 Y24.19793
G01 X45.79769 Y24.20827
G01 X45.79596 Y24.18541
G01 X45.79769 Y24.20827
G01 X45.88473 Y24.27152
G01 X45.86848 Y24.23598
G01 X45.86421 Y24.21455
G01 X45.87038 Y24.12199
G01 X45.87625 Y24.10512
G01 X45.87038 Y24.12199
G01 X45.86408 Y24.19270
G01 X45.86848 Y24.23598
G01 X45.87673 Y24.25620
G01 X45.92944 Y24.33004
G01 X46.06914 Y24.49326
G01 X46.10899 Y24.56225
G01 X46.17401 Y24.78805
G01 X46.18473 Y24.88648
G01 X46.20482 Y24.98660
G01 X46.22314 Y25.01617
G01 X46.26246 Y25.04962
G01 X46.31008 Y25.15610
G01 X46.41036 Y25.10416
G01 X46.44699 Y25.10558
G01 X46.46843 Y25.10144
G01 X46.50134 Y25.08683
G01 X46.46843 Y25.10144
G01 X46.44699 Y25.10558
G01 X46.33297 Y25.09463
G01 X46.29428 Y25.07467
G01 X46.23850 Y25.03075
G01 X46.21072 Y24.99902
G01 X46.20378 Y24.98282
G01 X46.19372 Y25.07860
G01 X46.25298 Y25.20868
G01 X46.21483 Y25.32646
G01 X46.09210 Y25.39704
G01 X46.20711 Y25.33075
G01 X46.24922 Y25.20116
G01 X46.19372 Y25.07860
G01 X46.18191 Y25.16687
G01 X46.12045 Y25.34789
G01 X46.04262 Y25.48274
G01 X45.97145 Y25.55026
G01 X45.91912 Y25.61045
G01 X45.85710 Y25.67085
G01 X45.84150 Y25.68990
G01 X45.81473 Y25.75351
G01 X45.81267 Y25.79697
G01 X45.82278 Y25.86725
G01 X45.83703 Y25.90837
G01 X45.91201 Y25.99491
G01 X45.92880 Y26.00570
G01 X45.95138 Y26.01248
G01 X45.83251 Y26.01002
G01 X45.79141 Y25.99084
G01 X45.70620 Y25.93669
G01 X45.58506 Y25.96008
G01 X45.37366 Y25.98033
G01 X45.16421 Y25.97792
G01 X44.99500 Y25.96008
G01 X44.87679 Y25.93730
G01 X44.83495 Y25.96443
G01 X44.75034 Y26.01002
G01 X44.63475 Y26.01002
G01 X44.68372 Y25.98396
G01 X44.69990 Y25.96928
G01 X44.75004 Y25.89117
G01 X44.76528 Y25.85043
G01 X44.76604 Y25.79255
G01 X44.82002 Y25.88523
G01 X44.71887 Y25.94220
G01 X44.69990 Y25.96928
G01 X44.68372 Y25.98396
G01 X44.63475 Y26.01002
G01 X44.68372 Y25.98396
G01 X44.69990 Y25.96928
G01 X44.75959 Y25.87154
G01 X44.76685 Y25.82864
G01 X44.76525 Y25.75767
G01 X44.75603 Y25.71510
G01 X44.74445 Y25.69422
G01 X44.83155 Y25.75681
G01 X44.89388 Y25.86466
G01 X45.00574 Y25.88625
G01 X45.17107 Y25.90362
G01 X45.37267 Y25.90553
G01 X45.57432 Y25.88625
G01 X45.68857 Y25.86415
G01 X45.74628 Y25.75805
G01 X45.84150 Y25.68990
G01 X45.82189 Y25.73283
G01 X45.81163 Y25.77512
G01 X45.82794 Y25.88848
G01 X45.84971 Y25.92618
G01 X45.89619 Y25.97982
G01 X45.92880 Y26.00570
G01 X45.95138 Y26.01248
G01 X45.92880 Y26.00570
G01 X45.91201 Y25.99491
G01 X45.86352 Y25.94215
G01 X45.82926 Y25.92648
G01 X45.76274 Y25.88421
G01 X45.81250 Y25.79310
G01 X45.81473 Y25.75351
G01 X45.84150 Y25.68990
G01 X45.74752 Y25.75742
G01 X45.58400 Y25.83093
G01 X45.37363 Y25.87563
G01 X45.19436 Y25.87499
G01 X45.00726 Y25.83522
G01 X44.83251 Y25.75742
G01 X44.74445 Y25.69422
G01 X44.65088 Y25.59976
G01 X44.56779 Y25.50281
G01 X44.53945 Y25.46369
G01 X44.45649 Y25.30857
G01 X44.40549 Y25.14208
G01 X44.38839 Y24.97571
G01 X44.38832 Y24.94421
G01 X44.40993 Y24.76700
G01 X44.46561 Y24.59798
G01 X44.55398 Y24.44350
G01 X44.66828 Y24.31216
G01 X44.69520 Y24.28856
G01 X44.83035 Y24.19006
G01 X44.96429 Y24.12521
G01 X45.02187 Y24.10566
G01 X45.13452 Y24.07800
G01 X45.25001 Y24.05884
G01 X45.31814 Y24.00530
G01 X45.64237 Y23.67967
G01 X45.68646 Y23.61607
G01 X45.70254 Y23.56392
G01 X45.70066 Y23.52041
G01 X45.67716 Y23.43068
G01 X45.65207 Y23.39509
G01 X45.58377 Y23.33228
G01 X45.56439 Y23.32219
G01 X45.50975 Y23.30929
G01 X45.56439 Y23.32219
G01 X45.58377 Y23.33228
G01 X45.60589 Y23.35067
G01 X45.70640 Y23.36733
G01 X45.72969 Y23.37287
G01 X45.73218 Y23.37718
G01 X45.72969 Y23.37287
G01 X45.70640 Y23.36733
G01 X45.73284 Y23.37360
G01 X45.72327 Y23.42483
G01 X45.69794 Y23.50893
G01 X45.70368 Y23.54208
G01 X45.70254 Y23.56392
G01 X45.68646 Y23.61607
G01 X45.76830 Y23.53423
G01 X45.79548 Y23.44358
G01 X45.80990 Y23.36748
G01 X45.85171 Y23.33540
G01 X46.01549 Y23.19209
G01 X46.13198 Y23.06926
G01 X46.23076 Y22.94467
G01 X46.35565 Y22.91925
G01 X46.39896 Y22.90358
G01 X46.35565 Y22.91925
G01 X46.25786 Y22.93916
G01 X46.15664 Y23.04038
G01 X46.01412 Y23.19347
G01 X45.91963 Y23.27739
G01 X45.80538 Y23.39164
G01 X45.79548 Y23.44358
G01 X45.76830 Y23.53423
G01 X46.47716 Y22.82537
G01 X46.56408 Y22.75935
G01 X48.47464 Y20.84879
G01 X48.52252 Y20.79126
G01 X48.54048 Y20.76203
G01 X48.62115 Y20.68138
G01 X48.62280 Y20.66764
G01 X48.61892 Y20.65380
G01 X48.62280 Y20.66764
G01 X48.62115 Y20.68138
G01 X48.63619 Y20.66634
G01 X48.52831 Y20.58796
G01 X48.54752 Y20.62781
G01 X48.55209 Y20.64920
G01 X48.54721 Y20.74183
G01 X48.54048 Y20.76203
G01 X48.54721 Y20.74183
G01 X48.55252 Y20.67104
G01 X48.55209 Y20.64920
G01 X48.53898 Y20.60769
G01 X48.52831 Y20.58796
G01 X48.38795 Y20.42266
G01 X48.35928 Y20.38334
G01 X48.27650 Y20.22860
G01 X48.22511 Y20.06025
G01 X48.20744 Y19.88075
G01 X48.22994 Y19.68702
G01 X48.29070 Y19.50854
G01 X48.37289 Y19.36505
G01 X48.38727 Y19.34676
G01 X48.49893 Y19.22225
G01 X48.62717 Y19.12418
G01 X48.66895 Y19.09998
G01 X48.78427 Y19.04521
G01 X48.82166 Y19.03175
G01 X48.95364 Y18.99820
G01 X49.00543 Y18.99073
G01 X49.12887 Y18.98489
G01 X49.19364 Y18.98872
G01 X49.30334 Y19.00579
G01 X49.39814 Y19.03231
G01 X49.47043 Y19.06007
G01 X49.56921 Y19.11077
G01 X49.62387 Y19.14575
G01 X49.70444 Y19.20915
G01 X49.75778 Y19.25949
G01 X49.83207 Y19.34740
G01 X49.86717 Y19.39708
G01 X49.97426 Y19.59802
G01 X49.98953 Y19.64503
G01 X50.04480 Y19.64750
G01 X50.02458 Y19.64216
G01 X50.00680 Y19.63101
G01 X49.97426 Y19.59802
G01 X50.00680 Y19.63101
G01 X50.02458 Y19.64216
G01 X50.11579 Y19.65771
G01 X54.13757 Y19.65873
G01 X54.21271 Y19.64503
G01 X54.26188 Y19.61882
G01 X54.29038 Y19.58745
G01 X54.26188 Y19.61882
G01 X54.21271 Y19.64503
G01 X54.27219 Y19.64503
G01 X54.29038 Y19.58745
G01 X54.32581 Y19.50975
G01 X54.36000 Y19.42169
G01 X54.42147 Y19.29985
G01 X54.48304 Y19.20320
G01 X54.54085 Y19.12875
G01 X54.64888 Y19.01494
G01 X54.68804 Y18.98001
G01 X54.85876 Y18.85860
G01 X54.93016 Y18.82352
G01 X54.98781 Y18.78687
G01 X55.08456 Y18.74448
G01 X55.32111 Y18.69355
G01 X55.57499 Y18.69104
G01 X55.83546 Y18.74448
G01 X55.93391 Y18.78761
G01 X55.91441 Y18.76767
G01 X55.90272 Y18.74918
G01 X55.87133 Y18.63904
G01 X55.87582 Y18.59574
G01 X55.89637 Y18.52779
G01 X55.91623 Y18.48974
G01 X55.93244 Y18.47305
G01 X55.83546 Y18.51555
G01 X55.59891 Y18.56647
G01 X55.33300 Y18.56835
G01 X55.08456 Y18.51555
G01 X54.98614 Y18.47242
G01 X54.93084 Y18.43696
G01 X54.85876 Y18.40145
G01 X54.68804 Y18.28004
G01 X54.64888 Y18.24511
G01 X54.54085 Y18.13130
G01 X54.48304 Y18.05685
G01 X54.42122 Y17.95980
G01 X54.35937 Y17.83856
G01 X54.31499 Y17.71441
G01 X54.28169 Y17.64578
G01 X54.23940 Y17.60013
G01 X54.20905 Y17.58502
G01 X54.23940 Y17.60013
G01 X54.28169 Y17.64578
G01 X54.27156 Y17.61263
G01 X54.26803 Y17.58502
G01 X54.20905 Y17.58502
G01 X54.10019 Y17.57029
G01 X50.14673 Y17.57029
G01 X50.03720 Y17.58502
G01 X49.98950 Y17.58502
G01 X49.97309 Y17.63559
G01 X50.00451 Y17.60219
G01 X50.03720 Y17.58502
G01 X50.00451 Y17.60219
G01 X49.97309 Y17.63559
G01 X49.85392 Y17.85439
G01 X49.83250 Y17.88304
G01 X49.72077 Y18.00750
G01 X49.60324 Y18.09876
G01 X49.55099 Y18.12985
G01 X49.44736 Y18.17994
G01 X49.39826 Y18.19802
G01 X49.27873 Y18.22939
G01 X49.21460 Y18.23909
G01 X49.10373 Y18.24524
G01 X49.00548 Y18.23899
G01 X48.92900 Y18.22688
G01 X48.81973 Y18.20265
G01 X48.77513 Y18.19271
G01 X48.75341 Y18.18304
G01 X48.73438 Y18.20206
G01 X48.77513 Y18.19271
G01 X48.73802 Y18.19975
G01 X48.66738 Y18.25116
G01 X46.80155 Y20.11407
G01 X46.75164 Y20.17541
G01 X46.74605 Y20.18481
G01 X46.73528 Y20.27407
G01 X46.73568 Y20.99606
G01 X46.71816 Y21.06815
G01 X46.68372 Y21.12146
G01 X46.10571 Y21.69890
G01 X46.06942 Y21.74178
G01 X46.04163 Y21.78382
G01 X45.98712 Y21.83835
G01 X46.03142 Y21.88979
G01 X46.02527 Y21.84658
G01 X46.02738 Y21.82484
G01 X46.04163 Y21.78382
G01 X46.02738 Y21.82484
G01 X46.02527 Y21.84658
G01 X46.03142 Y21.88979
G01 X46.06170 Y21.96370
G01 X46.10830 Y22.04914
G01 X46.12786 Y22.09329
G01 X46.17678 Y22.26228
G01 X46.19202 Y22.43827
G01 X46.17292 Y22.65455
G01 X46.14110 Y22.75250
G01 X46.14966 Y22.80980
G01 X46.16581 Y22.87853
G01 X46.10132 Y22.99027
G01 X46.16581 Y22.87853
G01 X46.16223 Y22.86108
G01 X46.17038 Y22.90078
G01 X46.07587 Y23.02009
G01 X45.96205 Y23.14000
G01 X45.76835 Y23.30535
G01 X45.61590 Y23.27673
G01 X45.74663 Y23.30020
G01 X45.78481 Y23.28204
G01 X45.87163 Y23.22026
G01 X45.93005 Y23.17035
G01 X46.07587 Y23.02009
G01 X46.10132 Y22.99027
G01 X46.16581 Y22.87853
G01 X46.14966 Y22.80980
G01 X46.14110 Y22.75250
G01 X46.17292 Y22.65455
G01 X46.19545 Y22.71506
G01 X46.21813 Y22.75222
G01 X46.30980 Y22.82085
G01 X46.35184 Y22.83210
G01 X46.42265 Y22.83718
G01 X46.44452 Y22.83667
G01 X46.47716 Y22.82537
G01 X46.44452 Y22.83667
G01 X46.37297 Y22.83362
G01 X46.33789 Y22.84670
G01 X46.24237 Y22.86614
G01 X46.23894 Y22.86357
G01 X46.24237 Y22.86614
G01 X46.23957 Y22.86672
G01 X46.21608 Y22.74950
G01 X46.19545 Y22.71506
G01 X46.17292 Y22.65455
G01 X46.12591 Y22.79717
G01 X46.03683 Y22.95275
G01 X45.90226 Y23.10500
G01 X45.74752 Y23.21742
G01 X45.58400 Y23.29093
G01 X45.50975 Y23.30929
G01 X45.28374 Y23.32524
G01 X45.18550 Y23.31899
G01 X45.10899 Y23.30688
G01 X45.02192 Y23.28419
G01 X44.94115 Y23.25501
G01 X44.83073 Y23.19946
G01 X44.78649 Y23.17157
G01 X44.69553 Y23.10104
G01 X44.65088 Y23.05973
G01 X44.56779 Y22.96281
G01 X44.53945 Y22.92369
G01 X44.45649 Y22.76857
G01 X44.40511 Y22.60025
G01 X44.38839 Y22.43571
G01 X44.38832 Y22.40421
G01 X44.41036 Y22.22517
G01 X44.46561 Y22.05798
G01 X44.55288 Y21.90505
G01 X44.66828 Y21.77216
G01 X44.80719 Y21.66418
G01 X44.84895 Y21.64000
G01 X44.96429 Y21.58521
G01 X45.00165 Y21.57175
G01 X45.17513 Y21.53071
G01 X45.22250 Y21.51318
G01 X45.27026 Y21.50335
G01 X45.32921 Y21.50525
G01 X45.40460 Y21.53162
G01 X45.50686 Y21.54948
G01 X45.57539 Y21.55578
G01 X45.59837 Y21.54828
G01 X45.57539 Y21.55578
G01 X45.58644 Y21.56019
G01 X45.68793 Y21.47958
G01 X46.24391 Y20.92116
G01 X46.27401 Y20.87828
G01 X46.28476 Y20.78900
G01 X46.28295 Y20.68575
G01 X46.27404 Y20.61920
G01 X46.26601 Y20.59096
G01 X46.24541 Y20.56439
G01 X46.19350 Y20.51595
G01 X46.15661 Y20.49281
G01 X46.04394 Y20.47236
G01 X46.02222 Y20.47468
G01 X45.96533 Y20.49593
G01 X45.78326 Y20.63873
G01 X45.73099 Y20.66985
G01 X45.62736 Y20.71994
G01 X45.57828 Y20.73802
G01 X45.45872 Y20.76939
G01 X45.37363 Y20.78115
G01 X45.28372 Y20.78524
G01 X45.18550 Y20.77899
G01 X45.10899 Y20.76688
G01 X45.00185 Y20.73782
G01 X44.94115 Y20.71501
G01 X44.84912 Y20.66972
G01 X44.78649 Y20.63157
G01 X44.69553 Y20.56104
G01 X44.65088 Y20.51973
G01 X44.56779 Y20.42281
G01 X44.53945 Y20.38369
G01 X44.46216 Y20.24196
G01 X44.40549 Y20.06208
G01 X44.38839 Y19.89571
G01 X44.38832 Y19.86421
G01 X44.41036 Y19.68517
G01 X44.46561 Y19.51798
G01 X44.55288 Y19.36505
G01 X44.56726 Y19.34676
G01 X44.66828 Y19.23216
G01 X44.69520 Y19.20856
G01 X44.83035 Y19.11006
G01 X44.96429 Y19.04521
G01 X45.02187 Y19.02566
G01 X45.13366 Y18.99820
G01 X45.20643 Y18.98883
G01 X45.30889 Y18.98489
G01 X45.39454 Y18.99109
G01 X45.48334 Y19.00579
G01 X45.55814 Y19.02583
G01 X45.65786 Y19.06094
G01 X45.70119 Y19.07130
G01 X45.74420 Y19.07150
G01 X45.77399 Y19.06167
G01 X45.74420 Y19.07150
G01 X45.70119 Y19.07130
G01 X45.74455 Y19.09109
G01 X45.77399 Y19.06167
G01 X45.86213 Y18.99441
G01 X46.16853 Y18.68801
G01 X46.19395 Y18.66010
G01 X46.22403 Y18.61727
G01 X46.23477 Y18.52799
G01 X46.23477 Y18.21283
G01 X46.22403 Y18.11936
G01 X46.21603 Y18.09124
G01 X46.19543 Y18.06462
G01 X46.14353 Y18.01618
G01 X46.10668 Y17.99304
G01 X45.99395 Y17.97255
G01 X45.97221 Y17.97486
G01 X45.93734 Y17.98702
G01 X45.86596 Y18.03551
G01 X45.78326 Y18.09873
G01 X45.73099 Y18.12985
G01 X45.62736 Y18.17994
G01 X45.55817 Y18.20425
G01 X45.45872 Y18.22939
G01 X45.39456 Y18.23909
G01 X45.28372 Y18.24524
G01 X45.18550 Y18.23899
G01 X45.10899 Y18.22688
G01 X45.02192 Y18.20419
G01 X44.94115 Y18.17501
G01 X44.83073 Y18.11946
G01 X44.78649 Y18.09157
G01 X44.69553 Y18.02104
G01 X44.65088 Y17.97973
G01 X44.56779 Y17.88281
G01 X44.53945 Y17.84369
G01 X44.46216 Y17.70196
G01 X44.40549 Y17.52208
G01 X44.38839 Y17.35571
G01 X44.38832 Y17.32421
G01 X44.40993 Y17.14700
G01 X44.46561 Y16.97798
G01 X44.55398 Y16.82350
G01 X44.67892 Y16.68225
G01 X44.83035 Y16.57006
G01 X44.96429 Y16.50521
G01 X45.02187 Y16.48566
G01 X45.13366 Y16.45820
G01 X45.18545 Y16.45073
G01 X45.30889 Y16.44489
G01 X45.39454 Y16.45109
G01 X45.48334 Y16.46579
G01 X45.55814 Y16.48583
G01 X45.65786 Y16.52094
G01 X45.70119 Y16.53130
G01 X45.74420 Y16.53150
G01 X45.77399 Y16.52165
G01 X45.74420 Y16.53150
G01 X45.70119 Y16.53130
G01 X45.74455 Y16.55109
G01 X45.77399 Y16.52165
G01 X45.86210 Y16.45439
G01 X46.24386 Y16.07019
G01 X46.27401 Y16.02726
G01 X46.28476 Y15.93801
G01 X46.28476 Y15.63265
G01 X46.27003 Y15.52508
G01 X46.27224 Y14.84258
G01 X46.28174 Y14.79475
G01 X46.29891 Y14.75330
G01 X46.33274 Y14.70367
G01 X46.41628 Y14.61937
G01 X46.38361 Y14.63067
G01 X46.31206 Y14.62762
G01 X46.27338 Y14.64319
G01 X46.25410 Y14.61677
G01 X46.29093 Y14.62610
G01 X46.36175 Y14.63118
G01 X46.38361 Y14.63067
G01 X46.41628 Y14.61937
G01 X46.33838 Y14.69745
G01 X46.29273 Y14.71632
G01 X46.28946 Y14.72963
G01 X46.27003 Y14.86501
G01 X46.26180 Y15.02668
G01 X46.23487 Y15.19589
G01 X46.20818 Y15.30384
G01 X46.25641 Y15.38332
G01 X46.27003 Y15.41375
G01 X46.27003 Y15.52508
G01 X46.25951 Y15.50019
G01 X46.24541 Y15.48439
G01 X46.19350 Y15.43595
G01 X46.15661 Y15.41281
G01 X46.04394 Y15.39236
G01 X46.02222 Y15.39468
G01 X45.96533 Y15.41593
G01 X46.03028 Y15.34283
G01 X46.12045 Y15.18789
G01 X46.18501 Y14.99526
G01 X46.20500 Y14.80501
G01 X46.18689 Y14.62666
G01 X46.16495 Y14.55089
G01 X46.18501 Y14.61477
G01 X46.18994 Y14.65543
G01 X46.22057 Y14.69737
G01 X46.20635 Y14.78162
G01 X46.18786 Y15.01596
G01 X46.15359 Y15.21929
G01 X46.13660 Y15.28271
G01 X46.03980 Y15.32757
G01 X46.02268 Y15.35218
G01 X45.96533 Y15.41593
G01 X46.02222 Y15.39468
G01 X46.04394 Y15.39236
G01 X46.07127 Y15.39521
G01 X46.15329 Y15.35721
G01 X46.19131 Y15.41985
G01 X46.20160 Y15.44349
G01 X46.25951 Y15.50019
G01 X46.27003 Y15.52508
G01 X46.25951 Y15.50019
G01 X46.24541 Y15.48439
G01 X46.17617 Y15.42262
G01 X46.13558 Y15.40689
G01 X46.07127 Y15.39521
G01 X46.04394 Y15.39236
G01 X46.02222 Y15.39468
G01 X45.96533 Y15.41593
G01 X45.78326 Y15.55873
G01 X45.73099 Y15.58985
G01 X45.62736 Y15.63994
G01 X45.55817 Y15.66425
G01 X45.45903 Y15.68932
G01 X45.37363 Y15.70087
G01 X45.27790 Y15.70494
G01 X45.18550 Y15.69899
G01 X45.10902 Y15.68688
G01 X45.02192 Y15.66419
G01 X44.94115 Y15.63501
G01 X44.84912 Y15.58972
G01 X44.78649 Y15.55157
G01 X44.67955 Y15.46724
G01 X44.65088 Y15.43973
G01 X44.55487 Y15.32602
G01 X44.53945 Y15.30369
G01 X44.45649 Y15.14857
G01 X44.40549 Y14.98208
G01 X44.38136 Y14.73895
G01 X44.35819 Y14.68472
G01 X44.32942 Y14.65335
G01 X44.27257 Y14.61081
G01 X44.23343 Y14.59178
G01 X44.14105 Y14.58309
G01 X44.09967 Y14.58787
G01 X44.08646 Y14.59498
G01 X44.89142 Y13.79000
G01 X45.92916 Y13.79000
G01 X45.89769 Y13.81274
G01 X45.88463 Y13.82973
G01 X45.84679 Y13.88980
G01 X45.83096 Y13.93037
G01 X45.83200 Y14.04487
G01 X45.84864 Y14.08531
G01 X45.83200 Y14.04487
G01 X45.82941 Y13.98894
G01 X45.78316 Y13.90537
G01 X45.86848 Y13.85536
G01 X45.89769 Y13.81274
G01 X45.92916 Y13.79000
G01 X45.83246 Y13.79000
G01 X45.72644 Y13.85335
G01 X45.58189 Y13.82480
G01 X45.37366 Y13.80471
G01 X45.16932 Y13.80679
G01 X45.00013 Y13.82455
G01 X44.91826 Y13.83699
G01 X44.76624 Y13.94347
G01 X44.61029 Y14.07916
G01 X44.47031 Y14.22958
G01 X44.36647 Y14.36501
G01 X44.29284 Y14.48101
G01 X44.20689 Y14.50133
G01 X44.16467 Y14.51677
G01 X44.08646 Y14.59498
G01 X44.11920 Y14.58363
G01 X44.19083 Y14.58665
G01 X44.22637 Y14.57339
G01 X44.29215 Y14.55785
G01 X44.32251 Y14.64817
G01 X44.34526 Y14.66768
G01 X44.35819 Y14.68472
G01 X44.38136 Y14.73895
G01 X44.39500 Y14.61477
G01 X44.45413 Y14.43285
G01 X44.54976 Y14.26719
G01 X44.66924 Y14.13354
G01 X44.83251 Y14.01261
G01 X44.99601 Y13.93910
G01 X45.20640 Y13.89440
G01 X45.38565 Y13.89503
G01 X45.56114 Y13.93169
G01 X45.74752 Y14.01261
G01 X45.84864 Y14.08531
G01 X45.93782 Y14.17949
G01 X46.01209 Y14.26740
G01 X46.04719 Y14.31708
G01 X46.10830 Y14.42914
G01 X46.14656 Y14.51810
G01 X46.17340 Y14.56092
G01 X46.23025 Y14.60347
G01 X46.26937 Y14.62249
G01 X46.36175 Y14.63118
G01 X46.40315 Y14.62643
G01 X46.42392 Y14.61525
G01 X46.48133 Y14.57225
G01 X48.21808 Y12.83844
G01 X48.28384 Y12.75181
G01 X48.31917 Y12.71645
G01 X48.29392 Y12.67273
G01 X48.29253 Y12.73273
G01 X48.28384 Y12.75181
G01 X48.29253 Y12.73273
G01 X48.29392 Y12.67273
G01 X48.22511 Y12.44025
G01 X48.20756 Y12.26446
G01 X48.22001 Y12.13220
G01 X48.21780 Y12.06433
G01 X48.27411 Y11.89290
G01 X48.36321 Y11.73730
G01 X48.49776 Y11.58503
G01 X48.66324 Y11.46715
G01 X48.82727 Y11.39484
G01 X48.92092 Y11.37426
G01 X48.87378 Y11.36215
G01 X48.85455 Y11.35178
G01 X48.78717 Y11.28805
G01 X48.76255 Y11.25216
G01 X48.73761 Y11.14035
G01 X48.73906 Y11.11853
G01 X48.75509 Y11.06883
G01 X47.91635 Y11.90670
G01 X47.83096 Y11.97192
G01 X46.07927 Y13.72468
G01 X46.02921 Y13.75579
G01 X45.92509 Y13.79160
G01 X45.89769 Y13.81274
G01 X45.84679 Y13.88980
G01 X45.83096 Y13.93037
G01 X45.83200 Y14.04487
G01 X45.84864 Y14.08531
G01 X45.76307 Y14.02313
G01 X45.70940 Y13.92600
G01 X45.57117 Y13.89864
G01 X45.40587 Y13.88127
G01 X45.17419 Y13.88127
G01 X44.97115 Y13.90463
G01 X44.94201 Y13.91083
G01 X44.84003 Y13.98094
G01 X44.68636 Y14.10977
G01 X44.54994 Y14.25114
G01 X44.42741 Y14.40804
G01 X44.35756 Y14.51820
G01 X44.39342 Y14.62475
G01 X44.38136 Y14.73895
G01 X44.35819 Y14.68472
G01 X44.34526 Y14.66768
G01 X44.27257 Y14.61081
G01 X44.23343 Y14.59178
G01 X44.14105 Y14.58309
G01 X44.09967 Y14.58787
G01 X44.07895 Y14.59905
G01 X44.02152 Y14.64202
G01 X41.14545 Y17.51601
G01 X41.08904 Y17.55307
G01 X41.01301 Y17.57090
G01 X38.70672 Y17.57029
G01 X38.59719 Y17.58502
G01 X38.54952 Y17.58502
G01 X38.53311 Y17.63556
G01 X38.56450 Y17.60219
G01 X38.59719 Y17.58502
G01 X38.56450 Y17.60219
G01 X38.53311 Y17.63556
G01 X38.48891 Y17.72126
G01 X38.40560 Y17.86627
G01 X38.30052 Y17.98885
G01 X38.26468 Y18.02121
G01 X38.16326 Y18.09873
G01 X38.11099 Y18.12985
G01 X38.00736 Y18.17994
G01 X37.93817 Y18.20425
G01 X37.83903 Y18.22932
G01 X37.75363 Y18.24087
G01 X37.65790 Y18.24494
G01 X37.56550 Y18.23899
G01 X37.48902 Y18.22688
G01 X37.38185 Y18.19782
G01 X37.32115 Y18.17501
G01 X37.21073 Y18.11946
G01 X37.16649 Y18.09157
G01 X37.05955 Y18.00724
G01 X37.03088 Y17.97973
G01 X36.94779 Y17.88281
G01 X36.91945 Y17.84369
G01 X36.84216 Y17.70196
G01 X36.79080 Y17.54278
G01 X36.78511 Y17.52025
G01 X36.76839 Y17.35571
G01 X36.76832 Y17.32421
G01 X36.78993 Y17.14700
G01 X36.84551 Y16.97826
G01 X36.94724 Y16.80676
G01 X37.05892 Y16.68225
G01 X37.18719 Y16.58418
G01 X37.22895 Y16.56000
G01 X37.34429 Y16.50521
G01 X37.40187 Y16.48566
G01 X37.51366 Y16.45820
G01 X37.56545 Y16.45073
G01 X37.68889 Y16.44489
G01 X37.77454 Y16.45109
G01 X37.86334 Y16.46579
G01 X37.95816 Y16.49234
G01 X38.03044 Y16.52007
G01 X38.11094 Y16.56038
G01 X38.18386 Y16.60572
G01 X38.26445 Y16.66915
