( pcb2gcode 2.4.0 )
( Software-independent Gcode )

G94 ( Millimeters per minute feed rate. )
G21 ( Units == Millimeters. )

G90 ( Absolute coordinates. )
G00 S1000 ( RPM spindle speed. )
G64 P0.01016 ( set maximum deviation from commanded toolpath )
G01 F200.00000 ( Feedrate. )


G00 Z0.50000 (Retract to tool change height)
T0
M5      (Spindle stop.)
G04 P1.00000 (Wait for spindle to stop)
(MSG, Change tool bit to mill diameter 0.15000mm)
M6      (Tool change.)
M0      (Temporary machine stop.)
M3 ( Spindle on clockwise. )
G04 P1.00000 (Wait for spindle to get up to speed)
G04 P0 ( dwell for no time -- G64 should not smooth over this point )
G00 Z0.50000 ( retract )

G00 X57.01877 Y5.29503 ( rapid move to begin. )
G01 F100.00000
( Mill infeed pass 1/1 )
G01 Z-0.17000
G04 P0 ( dwell for no time -- G64 should not smooth over this point )
G01 F200.00000
G01 X57.01877 Y5.29503
G01 X57.00000 Y5.00869
G01 X56.94402 Y4.72726
G01 X56.85179 Y4.45553
G01 X56.72487 Y4.19818
G01 X56.56546 Y3.95954
G01 X56.37623 Y3.74382
G01 X56.16051 Y3.55459
G01 X55.92187 Y3.39518
G01 X55.66457 Y3.26828
G01 X55.38888 Y3.17524
G01 X55.11136 Y3.12005
G01 X54.82503 Y3.10128
G01 X54.53869 Y3.12005
G01 X54.26117 Y3.17524
G01 X53.98548 Y3.26828
G01 X53.72818 Y3.39518
G01 X53.48954 Y3.55459
G01 X53.27382 Y3.74382
G01 X53.08459 Y3.95954
G01 X52.92518 Y4.19818
G01 X52.79826 Y4.45553
G01 X52.70306 Y4.74209
G01 X52.65005 Y5.00869
G01 X52.63128 Y5.29503
G01 X52.65005 Y5.58136
G01 X52.70524 Y5.85888
G01 X52.79828 Y6.13457
G01 X52.92518 Y6.39187
G01 X53.08459 Y6.63051
G01 X53.27382 Y6.84623
G01 X53.48954 Y7.03546
G01 X53.72818 Y7.19487
G01 X53.98548 Y7.32177
G01 X54.26117 Y7.41481
G01 X54.53869 Y7.47000
G01 X54.82503 Y7.48877
G01 X55.11136 Y7.47000
G01 X55.38888 Y7.41481
G01 X55.66457 Y7.32177
G01 X55.92187 Y7.19487
G01 X56.16051 Y7.03546
G01 X56.37623 Y6.84623
G01 X56.56546 Y6.63051
G01 X56.72487 Y6.39187
G01 X56.85177 Y6.13457
G01 X56.94481 Y5.85888
G01 X57.00000 Y5.58136
G01 X57.01877 Y5.29503
G01 X56.94417 Y5.29503
G01 X56.92604 Y5.01842
G01 X56.87196 Y4.74656
G01 X56.78286 Y4.48408
G01 X56.66025 Y4.23546
G01 X56.50625 Y4.00498
G01 X56.32350 Y3.79660
G01 X56.11504 Y3.61375
G01 X55.88456 Y3.45977
G01 X55.63610 Y3.33727
G01 X55.36960 Y3.24733
G01 X55.10163 Y3.19404
G01 X54.82503 Y3.17606
G01 X54.54842 Y3.19419
G01 X54.28047 Y3.24748
G01 X54.01400 Y3.33742
G01 X53.76557 Y3.45993
G01 X53.53509 Y3.61390
G01 X53.32668 Y3.79668
G01 X53.14393 Y4.00509
G01 X52.98995 Y4.23554
G01 X52.86735 Y4.48413
G01 X52.77621 Y4.75680
G01 X52.72419 Y5.01844
G01 X52.70606 Y5.29503
G01 X52.72419 Y5.57163
G01 X52.77748 Y5.83958
G01 X52.86742 Y6.10605
G01 X52.98995 Y6.35451
G01 X53.14393 Y6.58496
G01 X53.32668 Y6.79337
G01 X53.53509 Y6.97615
G01 X53.76554 Y7.13012
G01 X54.01400 Y7.25263
G01 X54.28047 Y7.34257
G01 X54.54842 Y7.39591
G01 X54.82503 Y7.41400
G01 X55.10163 Y7.39606
G01 X55.36960 Y7.34272
G01 X55.63610 Y7.25278
G01 X55.88459 Y7.13025
G01 X56.11504 Y6.97630
G01 X56.32350 Y6.79345
G01 X56.50625 Y6.58507
G01 X56.66025 Y6.35459
G01 X56.78278 Y6.10610
G01 X56.87272 Y5.83960
G01 X56.92601 Y5.57163
G01 X56.94417 Y5.29503
G01 X56.86940 Y5.29503
G01 X56.85189 Y5.02815
G01 X56.79972 Y4.76589
G01 X56.71377 Y4.51271
G01 X56.59548 Y4.27283
G01 X56.44694 Y4.05053
G01 X56.27059 Y3.84946
G01 X56.06955 Y3.67311
G01 X55.84722 Y3.52457
G01 X55.60752 Y3.40636
G01 X55.35035 Y3.31957
G01 X55.09185 Y3.26816
G01 X54.82503 Y3.25083
G01 X54.55822 Y3.26831
G01 X54.29975 Y3.31972
G01 X54.04258 Y3.40651
G01 X53.80288 Y3.52472
G01 X53.58060 Y3.67324
G01 X53.37954 Y3.84959
G01 X53.20324 Y4.05063
G01 X53.05467 Y4.27295
G01 X52.93646 Y4.51271
G01 X52.85043 Y4.76607
G01 X52.79831 Y5.02820
G01 X52.78083 Y5.29503
G01 X52.79831 Y5.56183
G01 X52.84972 Y5.82027
G01 X52.93656 Y6.07752
G01 X53.05467 Y6.31710
G01 X53.20324 Y6.53942
G01 X53.37954 Y6.74046
G01 X53.58060 Y6.91682
G01 X53.80288 Y7.06533
G01 X54.04258 Y7.18354
G01 X54.29975 Y7.27033
G01 X54.55817 Y7.32172
G01 X54.82503 Y7.33922
G01 X55.09190 Y7.32189
G01 X55.35035 Y7.27049
G01 X55.60752 Y7.18369
G01 X55.84722 Y7.06548
G01 X56.06955 Y6.91694
G01 X56.27059 Y6.74059
G01 X56.44694 Y6.53952
G01 X56.59548 Y6.31722
G01 X56.71364 Y6.07760
G01 X56.80048 Y5.82030
G01 X56.85189 Y5.56185
G01 X56.86940 Y5.29503
G01 X56.79462 Y5.29503
G01 X56.77775 Y5.03795
G01 X56.72749 Y4.78527
G01 X56.64468 Y4.54131
G01 X56.53074 Y4.31024
G01 X56.38763 Y4.09604
G01 X56.21773 Y3.90232
G01 X56.02401 Y3.73242
G01 X55.80981 Y3.58931
G01 X55.57897 Y3.47547
G01 X55.33102 Y3.39180
G01 X55.08210 Y3.34230
G01 X54.82503 Y3.32559
G01 X54.56798 Y3.34245
G01 X54.31906 Y3.39196
G01 X54.07113 Y3.47565
G01 X53.84032 Y3.58947
G01 X53.62612 Y3.73257
G01 X53.43244 Y3.90245
G01 X53.26254 Y4.09615
G01 X53.11947 Y4.31029
G01 X53.00552 Y4.54138
G01 X52.92267 Y4.78543
G01 X52.87245 Y5.03795
G01 X52.85559 Y5.29503
G01 X52.87245 Y5.55207
G01 X52.92196 Y5.80099
G01 X53.00565 Y6.04897
G01 X53.11947 Y6.27978
G01 X53.26254 Y6.49391
G01 X53.43244 Y6.68761
G01 X53.62612 Y6.85748
G01 X53.84027 Y7.00058
G01 X54.07108 Y7.11440
G01 X54.31906 Y7.19810
G01 X54.56798 Y7.24760
G01 X54.82503 Y7.26447
G01 X55.08210 Y7.24775
G01 X55.33102 Y7.19825
G01 X55.57902 Y7.11455
G01 X55.80983 Y7.00074
G01 X56.02401 Y6.85763
G01 X56.21773 Y6.68773
G01 X56.38763 Y6.49401
G01 X56.53074 Y6.27983
G01 X56.64455 Y6.04900
G01 X56.72825 Y5.80102
G01 X56.77775 Y5.55210
G01 X56.79462 Y5.29503
G01 X56.71984 Y5.29503
G01 X56.70361 Y5.04768
G01 X56.65527 Y4.80463
G01 X56.57559 Y4.56993
G01 X56.46599 Y4.34763
G01 X56.32830 Y4.14156
G01 X56.16485 Y3.95520
G01 X55.97852 Y3.79178
G01 X55.77245 Y3.65408
G01 X55.55042 Y3.54458
G01 X55.31177 Y3.46407
G01 X55.07235 Y3.41642
G01 X54.82503 Y3.40036
G01 X54.57773 Y3.41659
G01 X54.33834 Y3.46422
G01 X54.09968 Y3.54474
G01 X53.87768 Y3.65421
G01 X53.67164 Y3.79190
G01 X53.48530 Y3.95530
G01 X53.32188 Y4.14166
G01 X53.18421 Y4.34771
G01 X53.07461 Y4.56998
G01 X52.99490 Y4.80478
G01 X52.94659 Y5.04771
G01 X52.93036 Y5.29503
G01 X52.94659 Y5.54237
G01 X52.99419 Y5.78169
G01 X53.07476 Y6.02037
G01 X53.18421 Y6.24237
G01 X53.32188 Y6.44839
G01 X53.48528 Y6.63472
G01 X53.67164 Y6.79815
G01 X53.87768 Y6.93584
G01 X54.09968 Y7.04531
G01 X54.33836 Y7.12586
G01 X54.57773 Y7.17346
G01 X54.82503 Y7.18969
G01 X55.07235 Y7.17363
G01 X55.31171 Y7.12601
G01 X55.55042 Y7.04547
G01 X55.77245 Y6.93597
G01 X55.97852 Y6.79827
G01 X56.16488 Y6.63482
G01 X56.32830 Y6.44849
G01 X56.46597 Y6.24245
G01 X56.57544 Y6.02045
G01 X56.65601 Y5.78174
G01 X56.70361 Y5.54240
G01 X56.71984 Y5.29503
G01 X56.64506 Y5.29503
G01 X56.62949 Y5.05746
G01 X56.58304 Y4.82396
G01 X56.50651 Y4.59853
G01 X56.40122 Y4.38499
G01 X56.26899 Y4.18710
G01 X56.11197 Y4.00808
G01 X55.93297 Y3.85106
G01 X55.73506 Y3.71883
G01 X55.52190 Y3.61372
G01 X55.29244 Y3.53628
G01 X55.06262 Y3.49056
G01 X54.82503 Y3.47514
G01 X54.58746 Y3.49074
G01 X54.35764 Y3.53643
G01 X54.12820 Y3.61388
G01 X53.91504 Y3.71898
G01 X53.71718 Y3.85119
G01 X53.53816 Y4.00821
G01 X53.38121 Y4.18718
G01 X53.24898 Y4.38507
G01 X53.14367 Y4.59863
G01 X53.06712 Y4.82413
G01 X53.02074 Y5.05746
G01 X53.00514 Y5.29503
G01 X53.02074 Y5.53259
G01 X53.06646 Y5.76244
G01 X53.14385 Y5.99180
G01 X53.24898 Y6.20498
G01 X53.38121 Y6.40287
G01 X53.53816 Y6.58184
G01 X53.71718 Y6.73886
G01 X53.91510 Y6.87110
G01 X54.12820 Y6.97618
G01 X54.35764 Y7.05362
G01 X54.58746 Y7.09931
G01 X54.82503 Y7.11491
G01 X55.06262 Y7.09949
G01 X55.29244 Y7.05377
G01 X55.52190 Y6.97633
G01 X55.73501 Y6.87125
G01 X55.93297 Y6.73896
G01 X56.11197 Y6.58197
G01 X56.26899 Y6.40295
G01 X56.40122 Y6.20506
G01 X56.50633 Y5.99190
G01 X56.58375 Y5.76246
G01 X56.62949 Y5.53257
G01 X56.64506 Y5.29503
G01 X56.62106 Y5.29500
G01 X56.58222 Y4.92152
G01 X56.46617 Y4.56434
G01 X56.27841 Y4.23910
G01 X56.02708 Y3.95998
G01 X55.72327 Y3.73922
G01 X55.38014 Y3.58649
G01 X55.01281 Y3.50839
G01 X54.63724 Y3.50839
G01 X54.26991 Y3.58649
G01 X53.92678 Y3.73922
G01 X53.62297 Y3.95998
G01 X53.37164 Y4.23910
G01 X53.18388 Y4.56434
G01 X53.06783 Y4.92152
G01 X53.02856 Y5.29500
G01 X53.06783 Y5.66853
G01 X53.18388 Y6.02571
G01 X53.37164 Y6.35095
G01 X53.62297 Y6.63007
G01 X53.92678 Y6.85083
G01 X54.26991 Y7.00356
G01 X54.63724 Y7.08166
G01 X55.01281 Y7.08166
G01 X55.38014 Y7.00356
G01 X55.72327 Y6.85083
G01 X56.02708 Y6.63007
G01 X56.27841 Y6.35095
G01 X56.46617 Y6.02571
G01 X56.58222 Y5.66853
G01 X56.62106 Y5.29500
G04 P0 ( dwell for no time -- G64 should not smooth over this point )
G00 Z0.50000 ( retract )

G00 X44.98293 Y13.72132 ( rapid move to begin. )
G01 F100.00000
( Mill infeed pass 1/1 )
G01 Z-0.17000
G04 P0 ( dwell for no time -- G64 should not smooth over this point )
G01 F200.00000
G01 X44.98293 Y13.72132
G01 X45.11816 Y13.81330
G01 X45.20401 Y13.85935
G01 X45.35537 Y13.96585
G01 X45.40688 Y14.01421
G01 X45.48979 Y14.10159
G01 X45.52154 Y14.14045
G01 X45.59934 Y14.25795
G01 X45.66292 Y14.38513
G01 X45.68161 Y14.43382
G01 X45.74265 Y14.64157
G01 X45.78585 Y14.74604
G01 X45.84572 Y14.79130
G01 X45.88864 Y14.81746
G01 X45.93574 Y14.83501
G01 X45.98529 Y14.84334
G01 X46.07653 Y14.84791
G01 X45.98529 Y14.84334
G01 X45.93574 Y14.83501
G01 X45.88864 Y14.81746
G01 X45.84572 Y14.79130
G01 X45.78585 Y14.74604
G01 X45.85303 Y14.88271
G01 X45.92248 Y14.90809
G01 X45.85303 Y14.88271
G01 X45.87368 Y14.92211
G01 X45.96736 Y14.89521
G01 X46.03675 Y14.86933
G01 X46.18402 Y14.79005
G01 X46.29159 Y14.70329
G01 X47.59232 Y13.40255
G01 X47.63309 Y13.35775
G01 X47.69486 Y13.27065
G01 X47.72969 Y13.20926
G01 X47.73581 Y13.19666
G01 X47.73995 Y13.16936
G01 X47.59095 Y13.16105
G01 X47.73995 Y13.16936
G01 X47.75575 Y13.15564
G01 X47.73822 Y13.12483
G01 X47.73995 Y13.16936
G01 X47.73581 Y13.19666
G01 X47.75575 Y13.15564
G01 X47.67576 Y13.02176
G01 X47.57681 Y12.88434
G01 X47.53070 Y12.81210
G01 X47.46746 Y12.68475
G01 X47.44927 Y12.63941
G01 X47.40061 Y12.46501
G01 X47.38308 Y12.29537
G01 X47.38341 Y12.23565
G01 X47.39857 Y12.07820
G01 X47.41384 Y12.00929
G01 X47.44846 Y11.89379
G01 X47.46670 Y11.84711
G01 X47.54155 Y11.69392
G01 X47.59634 Y11.55480
G01 X47.58719 Y11.49136
G01 X47.57536 Y11.44261
G01 X47.55448 Y11.39687
G01 X47.52534 Y11.35595
G01 X47.46413 Y11.28823
G01 X47.52534 Y11.35595
G01 X47.55448 Y11.39687
G01 X47.57536 Y11.44261
G01 X47.58719 Y11.49136
G01 X47.59634 Y11.55480
G01 X47.63949 Y11.40418
G01 X47.61498 Y11.35371
G01 X47.63949 Y11.40418
G01 X47.64711 Y11.37111
G01 X47.57487 Y11.33205
G01 X47.50731 Y11.30121
G01 X47.34694 Y11.25305
G01 X47.20970 Y11.23845
G01 X45.91912 Y11.23845
G01 X45.84920 Y11.24221
G01 X45.73759 Y11.26296
G01 X45.67343 Y11.28206
G01 X45.63871 Y11.30980
G01 X45.60610 Y11.34807
G01 X45.58130 Y11.39181
G01 X45.55235 Y11.45666
G01 X45.53632 Y11.50418
G01 X45.52959 Y11.55392
G01 X45.53236 Y11.60400
G01 X45.54300 Y11.67421
G01 X45.59835 Y11.82140
G01 X45.54638 Y11.68922
G01 X45.51600 Y11.63951
G01 X45.36713 Y11.47413
G01 X45.18712 Y11.34338
G01 X45.05748 Y11.28412
G01 X45.01395 Y11.27480
G01 X45.17927 Y11.30995
G01 X45.33485 Y11.35666
G01 X45.41704 Y11.41871
G01 X45.46845 Y11.47302
G01 X45.48085 Y11.52519
G01 X45.46845 Y11.47302
G01 X45.48423 Y11.42618
G01 X45.51618 Y11.35610
G01 X45.67343 Y11.28206
G01 X45.48235 Y11.37208
G01 X45.45771 Y11.38734
G01 X45.44465 Y11.39019
G01 X45.44508 Y11.39506
G01 X45.44465 Y11.39019
G01 X45.24760 Y11.32834
G01 X45.17927 Y11.30995
G01 X45.01395 Y11.27480
G01 X44.79063 Y11.24820
G01 X44.57102 Y11.24543
G01 X44.35210 Y11.36474
G01 X44.21351 Y11.46004
G01 X44.04275 Y11.58503
G01 X43.91476 Y11.72719
G01 X43.81913 Y11.89290
G01 X43.76000 Y12.07479
G01 X43.74001 Y12.26501
G01 X43.76000 Y12.45526
G01 X43.81913 Y12.63717
G01 X43.91476 Y12.80283
G01 X44.04275 Y12.94500
G01 X44.19751 Y13.05742
G01 X44.37226 Y13.13522
G01 X44.57140 Y13.17563
G01 X44.75065 Y13.17499
G01 X44.93777 Y13.13522
G01 X45.11252 Y13.05742
G01 X45.26726 Y12.94500
G01 X45.39528 Y12.80283
G01 X45.49213 Y12.63403
G01 X45.79124 Y12.63403
G01 X45.78171 Y12.66953
G01 X45.69423 Y12.85925
G01 X45.57539 Y13.03047
G01 X45.42029 Y13.18556
G01 X45.25740 Y13.29963
G01 X45.20848 Y13.32465
G01 X45.14445 Y13.37888
G01 X45.11783 Y13.41256
G01 X45.10970 Y13.43250
G01 X45.08915 Y13.50047
G01 X45.08466 Y13.54378
G01 X45.11605 Y13.65391
G01 X45.14270 Y13.68835
G01 X45.20902 Y13.74520
G01 X45.25405 Y13.76747
G01 X45.42512 Y13.88726
G01 X45.57280 Y14.03494
G01 X45.69258 Y14.20601
G01 X45.78085 Y14.39526
G01 X45.82301 Y14.54461
G01 X45.84386 Y14.58751
G01 X45.86469 Y14.61726
G01 X45.93518 Y14.67184
G01 X45.97434 Y14.69087
G01 X46.08857 Y14.69902
G01 X46.13002 Y14.68579
G01 X46.19233 Y14.65178
G01 X46.21854 Y14.63214
G01 X47.52065 Y13.33004
G01 X47.54980 Y13.29384
G01 X47.56548 Y13.26654
G01 X47.59095 Y13.16105
G01 X47.58511 Y13.11790
G01 X47.55608 Y13.03547
G01 X47.43746 Y12.86405
G01 X47.34922 Y12.67479
G01 X47.29517 Y12.47307
G01 X47.27696 Y12.26501
G01 X47.29517 Y12.05699
G01 X47.34922 Y11.85529
G01 X47.42946 Y11.68318
G01 X47.44955 Y11.61597
G01 X47.44960 Y11.58290
G01 X47.43949 Y11.51264
G01 X47.42524 Y11.47149
G01 X47.35024 Y11.38490
G01 X47.31153 Y11.36497
G01 X47.22738 Y11.34150
G01 X45.91844 Y11.34033
G01 X45.84902 Y11.35054
G01 X45.81907 Y11.36448
G01 X45.75964 Y11.40332
G01 X45.72835 Y11.43362
G01 X45.68862 Y11.51749
G01 X45.67871 Y11.55983
G01 X45.69408 Y11.66758
G01 X45.78171 Y11.86049
G01 X45.79124 Y11.89603
G01 X45.49213 Y11.89603
G01 X45.39528 Y11.72719
G01 X45.26726 Y11.58503
G01 X45.11252 Y11.47264
G01 X44.92614 Y11.39169
G01 X44.75065 Y11.35503
G01 X44.55936 Y11.35503
G01 X44.37226 Y11.39484
G01 X44.19454 Y11.47457
G01 X44.38560 Y11.34421
G01 X44.47394 Y11.29626
G01 X44.53195 Y11.28394
G01 X44.57140 Y11.27977
G01 X44.75845 Y11.28081
G01 X44.94166 Y11.31869
G01 X44.97935 Y11.33095
G01 X45.14981 Y11.40799
G01 X45.31720 Y11.52961
G01 X45.45563 Y11.68333
G01 X45.53655 Y11.82140
G01 X45.53089 Y11.83128
G01 X45.53655 Y11.82140
G01 X45.68156 Y11.82140
G01 X45.73386 Y11.85539
G01 X45.68156 Y11.82140
G01 X45.62261 Y11.68899
G01 X45.60615 Y11.59285
G01 X45.60414 Y11.55686
G01 X45.60899 Y11.52120
G01 X45.64943 Y11.42227
G01 X45.66721 Y11.39085
G01 X45.69063 Y11.36339
G01 X45.77823 Y11.30202
G01 X45.82763 Y11.27911
G01 X45.91844 Y11.26570
G01 X47.23799 Y11.26766
G01 X47.33253 Y11.29336
G01 X47.36601 Y11.30677
G01 X47.39636 Y11.32626
G01 X47.46896 Y11.40484
G01 X47.48986 Y11.43421
G01 X47.50485 Y11.46697
G01 X47.52347 Y11.57228
G01 X47.52336 Y11.62681
G01 X47.49707 Y11.71472
G01 X47.41960 Y11.88086
G01 X47.36865 Y12.06994
G01 X47.35158 Y12.26509
G01 X47.36865 Y12.46011
G01 X47.41935 Y12.64927
G01 X47.50210 Y12.82674
G01 X47.62268 Y13.00182
G01 X47.65582 Y13.09407
G01 X47.66403 Y13.12917
G01 X47.66545 Y13.16519
G01 X47.66004 Y13.20083
G01 X47.63467 Y13.29445
G01 X47.60883 Y13.33951
G01 X47.57340 Y13.38279
G01 X46.27130 Y14.68490
G01 X46.22807 Y14.71726
G01 X46.13264 Y14.76544
G01 X46.09743 Y14.77311
G01 X45.99060 Y14.76892
G01 X45.95504 Y14.76293
G01 X45.92123 Y14.75033
G01 X45.89045 Y14.73156
G01 X45.81110 Y14.66917
G01 X45.79197 Y14.64601
G01 X45.75590 Y14.57723
G01 X45.74326 Y14.54339
G01 X45.71046 Y14.42086
G01 X45.62812 Y14.24324
G01 X45.51565 Y14.08289
G01 X45.37717 Y13.94444
G01 X45.21659 Y13.83235
G01 X45.16820 Y13.80763
G01 X45.09340 Y13.74436
G01 X45.06871 Y13.71807
G01 X45.04945 Y13.68757
G01 X45.01687 Y13.58571
G01 X45.01034 Y13.55028
G01 X45.01062 Y13.51424
G01 X45.01773 Y13.47888
G01 X45.05169 Y13.37802
G01 X45.07104 Y13.34820
G01 X45.09558 Y13.32249
G01 X45.16728 Y13.26245
G01 X45.21935 Y13.23517
G01 X45.37239 Y13.12849
G01 X45.51814 Y12.98261
G01 X45.62946 Y12.82219
G01 X45.68151 Y12.70865
G01 X45.73525 Y12.67426
G01 X45.68151 Y12.70865
G01 X45.53652 Y12.70865
G01 X45.53086 Y12.69877
G01 X45.53652 Y12.70865
G01 X45.45563 Y12.84670
G01 X45.31720 Y13.00045
G01 X45.14981 Y13.12204
G01 X44.96081 Y13.20619
G01 X44.75845 Y13.24921
G01 X44.55156 Y13.24921
G01 X44.34920 Y13.20619
G01 X44.17788 Y13.13105
G01 X44.14356 Y13.11124
G01 X43.99284 Y13.00045
G01 X43.85441 Y12.84670
G01 X43.75096 Y12.66753
G01 X43.68702 Y12.47075
G01 X43.66541 Y12.26501
G01 X43.68314 Y12.08625
G01 X43.79086 Y11.90647
G01 X43.87727 Y11.79090
G01 X43.79086 Y11.90647
G01 X43.71291 Y12.03367
G01 X43.54143 Y12.50314
G01 X43.60191 Y12.69511
G01 X43.63074 Y12.75983
G01 X43.73366 Y12.93441
G01 X43.89297 Y13.11134
G01 X44.08560 Y13.25127
G01 X44.26998 Y13.33540
G01 X44.33734 Y13.35729
G01 X44.53597 Y13.39763
G01 X44.73863 Y13.39948
G01 X44.80909 Y13.39206
G01 X44.89350 Y13.37413
G01 X44.93858 Y13.33265
G01 X44.89350 Y13.37413
G01 X44.87488 Y13.43570
G01 X44.86218 Y13.49884
G01 X44.86167 Y13.56326
G01 X44.87328 Y13.62625
G01 X44.78755 Y13.54401
G01 X44.78796 Y13.49117
G01 X44.79218 Y13.47019
G01 X44.81743 Y13.44632
G01 X44.79218 Y13.47019
G01 X44.78187 Y13.47182
G01 X44.57140 Y13.47408
G01 X44.48542 Y13.46506
G01 X44.28004 Y13.41909
G01 X44.04829 Y13.31589
G01 X43.84306 Y13.16679
G01 X43.67331 Y12.97827
G01 X43.54646 Y12.75856
G01 X43.48842 Y12.58716
G01 X43.53295 Y12.44238
G01 X43.54143 Y12.50314
G01 X43.44557 Y12.76552
G01 X43.41926 Y12.90903
G01 X43.39200 Y13.11609
G01 X43.38456 Y13.21368
G01 X43.53521 Y13.38581
G01 X43.59342 Y13.44403
G01 X43.65997 Y13.49770
G01 X43.54171 Y13.49770
G01 X43.47976 Y13.43575
G01 X43.37638 Y13.32092
G01 X43.38456 Y13.21368
G01 X43.37486 Y13.34070
G01 X43.37257 Y13.42821
G01 X43.43635 Y13.49770
G01 X43.37257 Y13.42821
G01 X43.37074 Y13.49773
G01 X44.72484 Y13.49770
G01 X44.73896 Y13.50050
G01 X44.74087 Y13.49559
G01 X44.73896 Y13.50050
G01 X44.91687 Y13.66699
G01 X44.98293 Y13.72132
G01 X44.96457 Y13.67443
G01 X44.94511 Y13.60616
G01 X44.93599 Y13.55678
G01 X44.93640 Y13.50654
G01 X44.94630 Y13.45729
G01 X44.96685 Y13.38932
G01 X44.98557 Y13.34347
G01 X45.01250 Y13.30192
G01 X45.08313 Y13.23453
G01 X45.30353 Y13.07626
G01 X45.08313 Y13.23453
G01 X44.98387 Y13.27715
G01 X44.76624 Y13.32341
G01 X44.54377 Y13.32341
G01 X44.35286 Y13.28432
G01 X44.30033 Y13.26725
G01 X44.12289 Y13.18665
G01 X43.94290 Y13.05589
G01 X43.81143 Y12.91205
G01 X43.77897 Y12.86735
G01 X43.68278 Y12.69788
G01 X43.61405 Y12.48627
G01 X43.59165 Y12.28150
G01 X43.68314 Y12.08625
G01 X43.60452 Y12.25028
G01 X43.57945 Y12.31101
G01 X43.51827 Y12.48381
G01 X43.49091 Y12.57670
G01 X43.44557 Y12.76552
G01 X43.41926 Y12.90903
G01 X43.39462 Y13.09633
G01 X43.43186 Y13.15371
G01 X43.47874 Y13.21160
G01 X43.59066 Y13.33590
G01 X43.64334 Y13.38858
G01 X43.78690 Y13.49770
G01 X43.91781 Y13.49770
G01 X43.74511 Y13.37512
G01 X43.69327 Y13.33313
G01 X43.53419 Y13.16168
G01 X43.49221 Y13.10984
G01 X43.41054 Y12.97535
G01 X43.42896 Y12.85620
G01 X43.52050 Y13.01657
G01 X43.55258 Y13.06598
G01 X43.70155 Y13.23603
G01 X43.74318 Y13.27769
G01 X43.78898 Y13.31475
G01 X43.97366 Y13.44515
G01 X44.08418 Y13.49770
G01 X44.28557 Y13.49770
G01 X44.20927 Y13.47174
G01 X44.01098 Y13.38051
G01 X43.96813 Y13.35269
G01 X43.79312 Y13.22224
G01 X43.64509 Y13.06184
G01 X43.61293 Y13.02211
G01 X43.50150 Y12.83443
G01 X43.47829 Y12.78891
G01 X43.45507 Y12.72602
G01 X43.44557 Y12.76552
G01 X43.81827 Y11.74523
G01 X43.72881 Y11.86501
G01 X43.63785 Y12.01330
G01 X43.53594 Y12.22089
G01 X43.50945 Y12.28518
G01 X43.44760 Y12.45983
G01 X43.41908 Y12.55650
G01 X43.37277 Y12.74909
G01 X43.35593 Y12.84065
G01 X38.84581 Y17.35078
G01 X38.84149 Y17.34875
G01 X38.84581 Y17.35078
G01 X38.84558 Y17.37473
G01 X38.83428 Y17.48179
G01 X38.80278 Y17.58474
G01 X38.75158 Y17.69581
G01 X38.71068 Y17.75703
G01 X38.66214 Y17.81235
G01 X38.57233 Y17.89538
G01 X38.51111 Y17.93628
G01 X38.44510 Y17.96881
G01 X38.32143 Y18.01344
G01 X38.21548 Y18.03000
G01 X38.20776 Y18.03038
G01 X38.20344 Y18.02391
G01 X38.20776 Y18.03038
G01 X38.13745 Y18.14598
G01 X37.98848 Y18.31603
G01 X37.94683 Y18.35769
G01 X37.90106 Y18.39475
G01 X37.71635 Y18.52515
G01 X37.60583 Y18.57773
G01 X36.46420 Y18.57773
G01 X36.35366 Y18.52515
G01 X36.30426 Y18.49307
G01 X36.12318 Y18.35769
G01 X35.96964 Y18.19175
G01 X35.93258 Y18.14598
G01 X35.81688 Y17.95174
G01 X35.79014 Y17.89927
G01 X35.76903 Y17.84428
G01 X35.70210 Y17.62833
G01 X35.69288 Y17.57016
G01 X35.67233 Y17.34501
G01 X35.69288 Y17.11987
G01 X35.70210 Y17.06170
G01 X35.76903 Y16.84575
G01 X35.79014 Y16.79076
G01 X35.81688 Y16.73828
G01 X35.93258 Y16.54405
G01 X36.08155 Y16.37397
G01 X36.12318 Y16.33234
G01 X36.16898 Y16.29528
G01 X36.30426 Y16.19696
G01 X36.35366 Y16.16488
G01 X36.46415 Y16.11233
G01 X36.29778 Y16.11233
G01 X36.26042 Y16.13661
G01 X36.07327 Y16.27689
G01 X35.91419 Y16.44834
G01 X35.87221 Y16.50018
G01 X35.83588 Y16.55614
G01 X35.72196 Y16.76041
G01 X35.64637 Y16.98174
G01 X35.62913 Y17.04618
G01 X35.61869 Y17.11207
G01 X35.59771 Y17.34501
G01 X35.61869 Y17.57796
G01 X35.62913 Y17.64385
G01 X35.64637 Y17.70828
G01 X35.72196 Y17.92962
G01 X35.83588 Y18.13389
G01 X35.87221 Y18.18984
G01 X35.91419 Y18.24168
G01 X36.07327 Y18.41313
G01 X36.26042 Y18.55342
G01 X36.29783 Y18.57773
G01 X36.46420 Y18.57773
G01 X36.16692 Y18.57773
G01 X36.02334 Y18.46858
G01 X35.97066 Y18.41590
G01 X35.85874 Y18.29160
G01 X35.81186 Y18.23371
G01 X35.77127 Y18.17120
G01 X35.68762 Y18.02637
G01 X35.65382 Y17.95997
G01 X35.62710 Y17.89040
G01 X35.57541 Y17.73135
G01 X35.55613 Y17.65936
G01 X35.54447 Y17.58576
G01 X35.52699 Y17.41944
G01 X35.52308 Y17.34501
G01 X35.52699 Y17.27059
G01 X35.54447 Y17.10427
G01 X35.55613 Y17.03066
G01 X35.57541 Y16.95868
G01 X35.62710 Y16.79963
G01 X35.65382 Y16.73005
G01 X35.68762 Y16.66366
G01 X35.77127 Y16.51883
G01 X35.81186 Y16.45632
G01 X35.85874 Y16.39841
G01 X35.97066 Y16.27412
G01 X36.02334 Y16.22145
G01 X36.16687 Y16.11233
G01 X36.03995 Y16.11233
G01 X35.97342 Y16.16600
G01 X35.91521 Y16.22421
G01 X35.80330 Y16.34850
G01 X35.75148 Y16.41248
G01 X35.70665 Y16.48152
G01 X35.62301 Y16.62635
G01 X35.58564 Y16.69970
G01 X35.55613 Y16.77656
G01 X35.50446 Y16.93564
G01 X35.48641 Y17.00300
G01 X35.48326 Y17.67524
G01 X35.50446 Y17.75439
G01 X35.55613 Y17.91347
G01 X35.58564 Y17.99033
G01 X35.62301 Y18.06368
G01 X35.70665 Y18.20851
G01 X35.75148 Y18.27755
G01 X35.80330 Y18.34153
G01 X35.91521 Y18.46581
G01 X35.97342 Y18.52403
G01 X36.03997 Y18.57773
G01 X36.16692 Y18.57773
G01 X35.92171 Y18.57773
G01 X35.85976 Y18.51575
G01 X35.74785 Y18.39147
G01 X35.69110 Y18.32142
G01 X35.64203 Y18.24583
G01 X35.55839 Y18.10097
G01 X35.51747 Y18.02065
G01 X35.48239 Y17.92797
G01 X35.48089 Y18.11298
G01 X35.57741 Y18.28311
G01 X35.63075 Y18.36528
G01 X35.69240 Y18.44138
G01 X35.81635 Y18.57773
G01 X35.92171 Y18.57773
G01 X35.71475 Y18.57773
G01 X35.63695 Y18.49132
G01 X35.57038 Y18.40912
G01 X35.48051 Y18.26452
G01 X35.48008 Y18.40684
G01 X35.51003 Y18.45299
G01 X35.61434 Y18.57773
G01 X35.71475 Y18.57773
G01 X35.51516 Y18.57773
G01 X35.47906 Y18.53315
G01 X35.51516 Y18.57773
G01 X35.47868 Y18.57773
G01 X35.48727 Y16.74806
G01 X35.51747 Y16.66937
G01 X35.55839 Y16.58906
G01 X35.64203 Y16.44420
G01 X35.69110 Y16.36861
G01 X35.74785 Y16.29856
G01 X35.85976 Y16.17428
G01 X35.92168 Y16.11233
G01 X35.81633 Y16.11233
G01 X35.69240 Y16.24865
G01 X35.63075 Y16.32475
G01 X35.57741 Y16.40689
G01 X35.48879 Y16.56153
G01 X35.48727 Y16.74806
G01 X35.48917 Y16.41050
G01 X35.57038 Y16.28091
G01 X35.63695 Y16.19871
G01 X35.71473 Y16.11233
G01 X35.61432 Y16.11233
G01 X35.51003 Y16.23704
G01 X35.48963 Y16.26846
G01 X35.48917 Y16.41050
G01 X35.49065 Y16.14258
G01 X35.51513 Y16.11233
G01 X35.49065 Y16.14258
G01 X35.49088 Y16.11233
G01 X37.09016 Y16.11233
G01 X37.24762 Y16.26267
G01 X37.32222 Y16.32409
G01 X37.45953 Y16.41703
G01 X37.54434 Y16.46259
G01 X37.74698 Y16.60567
G01 X37.85371 Y16.67031
G01 X37.89600 Y16.71946
G01 X37.91833 Y16.75528
G01 X37.91571 Y16.79399
G01 X37.91833 Y16.75528
G01 X38.01073 Y16.66285
G01 X37.94665 Y16.69696
G01 X37.92178 Y16.70153
G01 X37.92155 Y16.71093
G01 X37.92178 Y16.70153
G01 X37.85371 Y16.67031
G01 X37.91581 Y16.70024
G01 X37.92785 Y16.70184
G01 X37.94665 Y16.69696
G01 X38.10814 Y16.60996
G01 X38.16585 Y16.56737
G01 X38.22496 Y16.51555
G01 X44.17308 Y10.56535
G01 X44.26144 Y10.50784
G01 X44.33858 Y10.48488
G01 X44.46660 Y10.47878
G01 X55.44738 Y10.47843
G01 X55.52828 Y10.49263
G01 X55.56671 Y10.50764
G01 X55.62096 Y10.53769
G01 X55.67082 Y10.58092
G01 X56.51034 Y11.41856
G01 X56.55743 Y11.48638
G01 X56.56792 Y11.50700
G01 X56.59091 Y11.58409
G01 X56.59698 Y11.71213
G01 X56.59734 Y28.63542
G01 X56.57549 Y28.73862
G01 X56.53724 Y28.80935
G01 X56.45169 Y28.90346
G01 X56.24405 Y29.11070
G01 X56.15639 Y29.22767
G01 X56.14196 Y29.38461
G01 X56.14090 Y31.19116
G01 X56.11608 Y31.26472
G01 X56.07907 Y31.31410
G01 X56.02972 Y31.35108
G01 X55.96655 Y31.37445
G01 X55.92441 Y31.37696
G01 X54.22343 Y31.37702
G01 X54.11537 Y31.38555
G01 X53.97446 Y31.41857
G01 X53.89450 Y31.44808
G01 X53.79925 Y31.49886
G01 X53.72500 Y31.49886
G01 X53.65891 Y31.49236
G01 X53.59534 Y31.47305
G01 X53.53676 Y31.44176
G01 X53.48540 Y31.39962
G01 X53.44327 Y31.34826
G01 X53.41197 Y31.28969
G01 X53.39267 Y31.22611
G01 X53.38617 Y31.16002
G01 X53.38617 Y30.50887
G01 X53.40758 Y30.48725
G01 X53.38617 Y30.50887
G01 X49.51508 Y30.50887
G01 X49.50931 Y30.49889
G01 X49.51508 Y30.50887
G01 X49.49931 Y30.53983
G01 X49.41566 Y30.68466
G01 X49.37403 Y30.74196
G01 X49.23705 Y30.89134
G01 X49.04040 Y31.03333
G01 X49.13009 Y31.06358
G01 X49.28699 Y30.94679
G01 X49.45671 Y30.75827
G01 X49.56024 Y30.58349
G01 X49.55508 Y30.57417
G01 X49.56024 Y30.58349
G01 X53.31154 Y30.58349
G01 X53.33341 Y30.56162
G01 X53.31154 Y30.58349
G01 X53.31154 Y31.16002
G01 X53.31949 Y31.24067
G01 X53.34304 Y31.31824
G01 X53.38124 Y31.38972
G01 X53.43265 Y31.45238
G01 X53.49531 Y31.50379
G01 X53.56679 Y31.54199
G01 X53.64436 Y31.56553
G01 X53.67684 Y31.56873
G01 X53.70745 Y31.54781
G01 X53.79925 Y31.49886
G01 X53.70745 Y31.54781
G01 X53.58688 Y31.62568
G01 X53.53824 Y31.61092
G01 X53.45386 Y31.56584
G01 X53.37989 Y31.50513
G01 X53.31919 Y31.43117
G01 X53.27410 Y31.34679
G01 X53.24631 Y31.25522
G01 X53.23694 Y31.16002
G01 X53.23694 Y30.65809
G01 X53.25879 Y30.63625
G01 X53.23694 Y30.65809
G01 X49.60332 Y30.65809
G01 X49.59837 Y30.64900
G01 X49.60332 Y30.65809
G01 X49.54490 Y30.75929
G01 X49.51709 Y30.80211
G01 X49.48493 Y30.84184
G01 X49.33690 Y31.00224
G01 X49.21686 Y31.09276
G01 X49.30167 Y31.12337
G01 X49.38683 Y31.05769
G01 X49.54038 Y30.89175
G01 X49.57746 Y30.84598
G01 X49.64640 Y30.73272
G01 X49.64167 Y30.72388
G01 X49.64640 Y30.73272
G01 X53.16232 Y30.73272
G01 X53.18419 Y30.71085
G01 X53.16232 Y30.73272
G01 X53.16232 Y31.16002
G01 X53.17314 Y31.26978
G01 X53.20517 Y31.37534
G01 X53.25716 Y31.47262
G01 X53.32714 Y31.55789
G01 X53.41240 Y31.62787
G01 X53.50209 Y31.67580
G01 X53.58688 Y31.62568
G01 X53.48772 Y31.68430
G01 X53.29742 Y31.62954
G01 X53.27438 Y31.61064
G01 X53.19511 Y31.51407
G01 X53.13623 Y31.40389
G01 X53.09996 Y31.28436
G01 X53.08772 Y31.16002
G01 X53.08772 Y30.80732
G01 X53.10834 Y30.78616
G01 X53.08772 Y30.80732
G01 X49.68948 Y30.80734
G01 X49.68506 Y30.79886
G01 X49.68948 Y30.80734
G01 X49.63781 Y30.88984
G01 X49.59583 Y30.94168
G01 X49.44599 Y31.10389
G01 X49.57500 Y31.07633
G01 X49.69819 Y30.93371
G01 X49.73179 Y30.88194
G01 X49.72829 Y30.87465
G01 X49.73179 Y30.88194
G01 X53.01309 Y30.88194
G01 X53.03341 Y30.86094
G01 X53.01309 Y30.88194
G01 X53.01309 Y31.16002
G01 X53.02678 Y31.29891
G01 X53.06729 Y31.43246
G01 X53.13145 Y31.55248
G01 X53.29742 Y31.62954
G01 X53.08782 Y31.53208
G01 X53.00908 Y31.48105
G01 X52.99836 Y31.46101
G01 X52.95360 Y31.31346
G01 X52.93847 Y31.16002
G01 X52.93847 Y30.95657
G01 X52.95838 Y30.93582
G01 X52.93847 Y30.95657
G01 X49.77218 Y30.95657
G01 X49.76855 Y30.94908
G01 X49.77218 Y30.95657
G01 X49.75854 Y30.97755
G01 X49.69392 Y31.05578
G01 X49.80413 Y31.03968
G01 X49.81096 Y31.03079
G01 X52.86387 Y31.03117
G01 X52.88317 Y31.01077
G01 X52.86387 Y31.03117
G01 X52.86387 Y31.16002
G01 X52.88040 Y31.32802
G01 X52.90674 Y31.41476
G01 X53.00908 Y31.48105
G01 X52.88020 Y31.39759
G01 X52.67027 Y31.22380
G01 X52.65289 Y31.21580
G01 X52.65437 Y31.21159
G01 X52.65289 Y31.21580
G01 X50.22669 Y31.21524
G01 X50.03913 Y31.11715
G01 X49.84675 Y31.03925
G01 X49.82829 Y31.03678
G01 X49.82854 Y31.03389
G01 X49.82829 Y31.03678
G01 X49.74683 Y31.04664
G01 X49.53715 Y31.08288
G01 X49.32689 Y31.13264
G01 X48.97490 Y31.01090
G01 X48.90119 Y30.98939
G01 X48.73489 Y30.95154
G01 X48.65331 Y30.93808
G01 X49.81221 Y31.11387
G01 X49.82765 Y31.11202
G01 X49.98346 Y31.17509
G01 X49.99186 Y31.18352
G01 X50.08541 Y31.31712
G01 X50.12371 Y31.39927
G01 X50.11627 Y31.41095
G01 X50.12371 Y31.39927
G01 X52.76519 Y31.39927
G01 X52.83427 Y31.45644
G01 X52.67507 Y31.32464
G01 X50.17093 Y31.32464
G01 X50.16499 Y31.33483
G01 X50.17093 Y31.32464
G01 X50.15003 Y31.27984
G01 X50.12732 Y31.24740
G01 X49.98346 Y31.17509
G01 X50.21714 Y31.29154
G01 X52.63303 Y31.28984
G01 X52.83778 Y31.45903
G01 X53.05386 Y31.59858
G01 X53.26547 Y31.69754
G01 X53.47392 Y31.75796
G01 X53.66775 Y31.93942
G01 X53.80664 Y32.03965
G01 X53.86287 Y32.07295
G01 X49.53923 Y32.07079
G01 X49.51797 Y32.09230
G01 X49.53923 Y32.07079
G01 X49.53923 Y31.78502
G01 X49.53522 Y31.73912
G01 X49.52331 Y31.69464
G01 X49.50385 Y31.65291
G01 X49.47744 Y31.61517
G01 X49.44485 Y31.58260
G01 X49.40713 Y31.55619
G01 X49.36540 Y31.53671
G01 X49.32090 Y31.52479
G01 X49.27502 Y31.52078
G01 X48.98925 Y31.52078
G01 X48.96880 Y31.54146
G01 X48.98925 Y31.52078
G01 X48.98925 Y31.33472
G01 X48.98318 Y31.26007
G01 X48.95884 Y31.16236
G01 X48.91602 Y31.07143
G01 X49.19095 Y31.16279
G01 X49.20594 Y31.23813
G01 X49.21122 Y31.29693
G01 X49.19664 Y31.31308
G01 X49.21122 Y31.29693
G01 X49.27502 Y31.29693
G01 X49.35976 Y31.30435
G01 X49.44195 Y31.32637
G01 X49.51904 Y31.36233
G01 X49.58874 Y31.41113
G01 X49.64891 Y31.47127
G01 X49.69771 Y31.54097
G01 X49.73365 Y31.61809
G01 X49.75567 Y31.70026
G01 X49.76308 Y31.78502
G01 X49.76308 Y31.84697
G01 X49.74355 Y31.86749
G01 X49.76308 Y31.84697
G01 X53.56882 Y31.84694
G01 X53.66470 Y31.93688
G01 X53.64837 Y31.92157
G01 X49.68846 Y31.92157
G01 X49.66804 Y31.94262
G01 X49.68846 Y31.92157
G01 X49.68848 Y31.78502
G01 X49.68219 Y31.71321
G01 X49.66354 Y31.64361
G01 X49.63309 Y31.57829
G01 X49.59174 Y31.51926
G01 X49.54078 Y31.46828
G01 X49.48175 Y31.42695
G01 X49.41643 Y31.39650
G01 X49.34680 Y31.37783
G01 X49.27502 Y31.37155
G01 X49.13847 Y31.37155
G01 X49.11978 Y31.39068
G01 X49.13847 Y31.37155
G01 X49.13649 Y31.29421
G01 X49.13167 Y31.24544
G01 X49.10627 Y31.13432
G01 X49.01485 Y31.10348
G01 X49.20947 Y31.16899
G01 X49.31744 Y31.20821
G01 X49.31729 Y31.21108
G01 X49.31744 Y31.20821
G01 X49.33415 Y31.20780
G01 X49.55084 Y31.15624
G01 X49.81221 Y31.11387
G01 X49.82854 Y31.12533
G01 X49.93469 Y31.23147
G01 X50.02079 Y31.35443
G01 X50.07650 Y31.47387
G01 X50.06905 Y31.48558
G01 X50.07650 Y31.47387
G01 X52.86072 Y31.47389
G01 X52.97591 Y31.54849
G01 X50.02283 Y31.54849
G01 X50.01462 Y31.56089
G01 X50.02283 Y31.54849
G01 X50.01411 Y31.51600
G01 X49.95618 Y31.39175
G01 X49.87754 Y31.27943
G01 X49.78059 Y31.18250
G01 X49.70505 Y31.12959
G01 X49.55084 Y31.15624
G01 X49.59019 Y31.14946
G01 X49.63098 Y31.16848
G01 X49.73263 Y31.23965
G01 X49.82039 Y31.32741
G01 X49.89156 Y31.42906
G01 X49.94401 Y31.54153
G01 X49.96585 Y31.62312
G01 X49.95681 Y31.63625
G01 X49.96585 Y31.62312
G01 X53.10631 Y31.62312
G01 X53.27095 Y31.69960
G01 X49.90469 Y31.69772
G01 X49.89191 Y31.71384
G01 X49.90469 Y31.69772
G01 X49.90263 Y31.67435
G01 X49.87388 Y31.56703
G01 X49.82694 Y31.46637
G01 X49.76321 Y31.37536
G01 X49.68467 Y31.29680
G01 X49.59367 Y31.23310
G01 X49.49298 Y31.18613
G01 X49.45988 Y31.17727
G01 X49.32862 Y31.20877
G01 X49.31206 Y31.20668
G01 X49.27251 Y31.19213
G01 X49.27855 Y31.22263
G01 X49.26756 Y31.23389
G01 X49.27855 Y31.22263
G01 X49.37271 Y31.23086
G01 X49.46745 Y31.25626
G01 X49.55635 Y31.29772
G01 X49.63669 Y31.35398
G01 X49.70606 Y31.42332
G01 X49.76232 Y31.50366
G01 X49.80378 Y31.59256
G01 X49.82915 Y31.68730
G01 X49.83659 Y31.77234
G01 X49.82217 Y31.78966
G01 X49.83659 Y31.77234
G01 X53.48924 Y31.77234
G01 X53.56882 Y31.84694
G01 X52.72541 Y31.26945
G01 X52.71665 Y31.18039
G01 X52.73417 Y31.16106
G01 X52.71665 Y31.18039
G01 X50.16024 Y31.18039
G01 X50.01112 Y31.10579
G01 X52.78924 Y31.10579
G01 X52.80771 Y31.08588
G01 X52.78924 Y31.10579
G01 X52.78924 Y31.16002
G01 X52.80664 Y31.33668
G01 X52.88020 Y31.39759
G01 X53.08782 Y31.53208
G01 X53.29442 Y31.62870
G01 X53.48772 Y31.68430
G01 X53.60196 Y31.61679
G01 X53.70745 Y31.54781
G01 X53.89450 Y31.44808
G01 X53.95828 Y31.42423
G01 X53.72500 Y31.42423
G01 X53.67347 Y31.41915
G01 X53.62388 Y31.40412
G01 X53.57822 Y31.37971
G01 X53.53819 Y31.34684
G01 X53.50532 Y31.30681
G01 X53.48091 Y31.26114
G01 X53.46587 Y31.21156
G01 X53.46079 Y31.16002
G01 X53.46079 Y30.43427
G01 X53.48233 Y30.41258
G01 X53.46079 Y30.43427
G01 X49.46293 Y30.43427
G01 X49.45661 Y30.42368
G01 X49.46293 Y30.43427
G01 X49.44724 Y30.47788
G01 X49.33598 Y30.67054
G01 X49.18711 Y30.83589
G01 X49.03032 Y30.95159
G01 X49.00713 Y30.96665
G01 X48.93657 Y30.99967
G01 X48.81909 Y30.97029
G01 X48.96982 Y30.90204
G01 X49.12176 Y30.79294
G01 X49.15122 Y30.76640
G01 X49.26314 Y30.64212
G01 X49.28643 Y30.61004
G01 X49.37906 Y30.44753
G01 X49.40873 Y30.35964
G01 X49.39933 Y30.34618
G01 X49.40873 Y30.35964
G01 X53.53539 Y30.35964
G01 X53.55703 Y30.33790
G01 X53.53539 Y30.35964
G01 X53.53539 Y31.16002
G01 X53.53905 Y31.19701
G01 X53.54984 Y31.23257
G01 X53.56734 Y31.26536
G01 X53.59094 Y31.29408
G01 X53.61967 Y31.31768
G01 X53.65246 Y31.33518
G01 X53.68802 Y31.34598
G01 X53.72500 Y31.34963
G01 X55.92502 Y31.34963
G01 X55.96201 Y31.34598
G01 X55.99757 Y31.33518
G01 X56.03036 Y31.31768
G01 X56.05908 Y31.29408
G01 X56.08268 Y31.26536
G01 X56.10018 Y31.23257
G01 X56.11098 Y31.19701
G01 X56.11463 Y31.16002
G01 X56.11463 Y29.20034
G01 X56.10905 Y29.19805
G01 X56.11463 Y29.20034
G01 X56.47638 Y28.83859
G01 X56.49995 Y28.80986
G01 X56.54458 Y28.73653
G01 X56.55537 Y28.70095
G01 X56.56853 Y28.61611
G01 X56.56853 Y11.64774
G01 X56.55537 Y11.56293
G01 X56.54458 Y11.52737
G01 X56.49998 Y11.45407
G01 X56.47638 Y11.42534
G01 X55.65050 Y10.59936
G01 X55.59625 Y10.55704
G01 X55.55736 Y10.53527
G01 X55.51814 Y10.52044
G01 X55.42802 Y10.50721
G01 X44.40221 Y10.50721
G01 X44.31740 Y10.52039
G01 X44.28182 Y10.53118
G01 X44.24905 Y10.54869
G01 X44.17976 Y10.59936
G01 X37.93786 Y16.84126
G01 X37.90482 Y16.88108
G01 X37.89882 Y16.92810
G01 X37.90482 Y16.88108
G01 X37.84645 Y16.77997
G01 X37.82313 Y16.74791
G01 X37.69720 Y16.60958
G01 X37.52981 Y16.48799
G01 X37.35935 Y16.41095
G01 X37.32166 Y16.39869
G01 X37.13845 Y16.36081
G01 X36.93156 Y16.36081
G01 X36.72920 Y16.40384
G01 X36.55788 Y16.47898
G01 X36.52356 Y16.49879
G01 X36.37284 Y16.60958
G01 X36.24688 Y16.74791
G01 X36.22359 Y16.77997
G01 X36.13096 Y16.94250
G01 X36.06702 Y17.13925
G01 X36.04642 Y17.32520
G01 X36.04642 Y17.36483
G01 X36.06702 Y17.55075
G01 X36.13096 Y17.74753
G01 X36.22359 Y17.91004
G01 X36.24688 Y17.94212
G01 X36.37284 Y18.08045
G01 X36.52356 Y18.19124
G01 X36.55788 Y18.21105
G01 X36.72920 Y18.28619
G01 X36.91195 Y18.32609
G01 X36.95140 Y18.33025
G01 X37.13845 Y18.32921
G01 X37.32166 Y18.29134
G01 X37.35935 Y18.27907
G01 X37.51213 Y18.21105
G01 X37.54647 Y18.19124
G01 X37.69720 Y18.08045
G01 X37.83563 Y17.92670
G01 X37.93908 Y17.74753
G01 X37.96872 Y17.65964
G01 X37.95904 Y17.64659
G01 X37.96872 Y17.65964
G01 X38.16031 Y17.65964
G01 X38.23077 Y17.65157
G01 X38.32458 Y17.61316
G01 X38.34520 Y17.59940
G01 X38.39834 Y17.54854
G01 X38.42846 Y17.50928
G01 X38.45810 Y17.44197
G01 X38.46872 Y17.40729
G01 X38.47253 Y17.37120
G01 X38.47421 Y17.19477
G01 X38.46895 Y17.19251
G01 X38.47421 Y17.19477
G01 X43.61667 Y12.05237
G01 X43.52352 Y12.25097
G01 X38.54853 Y17.22599
G01 X38.54340 Y17.22375
G01 X38.54853 Y17.22599
G01 X38.54713 Y17.37191
G01 X38.54182 Y17.42218
G01 X38.52704 Y17.47054
G01 X38.49308 Y17.54659
G01 X38.47388 Y17.57532
G01 X38.39062 Y17.65858
G01 X38.33090 Y17.69307
G01 X38.24891 Y17.72393
G01 X38.16031 Y17.73427
G01 X38.02293 Y17.73424
G01 X38.01729 Y17.72510
G01 X38.02293 Y17.73424
G01 X38.00723 Y17.77788
G01 X37.89600 Y17.97054
G01 X37.74713 Y18.13589
G01 X37.56712 Y18.26665
G01 X37.36387 Y18.35715
G01 X37.14624 Y18.40341
G01 X36.92377 Y18.40341
G01 X36.70614 Y18.35715
G01 X36.52755 Y18.27923
G01 X36.47970 Y18.25159
G01 X36.32290 Y18.13589
G01 X36.19143 Y17.99205
G01 X36.15897 Y17.94735
G01 X36.07535 Y17.80252
G01 X36.05288 Y17.75205
G01 X35.99405 Y17.56627
G01 X35.97078 Y17.34501
G01 X35.99405 Y17.12375
G01 X36.06278 Y16.91215
G01 X36.17403 Y16.71946
G01 X36.30335 Y16.57369
G01 X36.34439 Y16.53674
G01 X36.47970 Y16.43844
G01 X36.52755 Y16.41080
G01 X36.70614 Y16.33287
G01 X36.92377 Y16.28662
G01 X37.14624 Y16.28662
G01 X37.31950 Y16.32193
G01 X37.20286 Y16.22089
G01 X37.15404 Y16.21240
G01 X36.91597 Y16.21240
G01 X36.68310 Y16.26191
G01 X36.49720 Y16.34265
G01 X36.43586 Y16.37806
G01 X36.27297 Y16.49869
G01 X36.13598 Y16.64806
G01 X36.09435 Y16.70537
G01 X36.01074 Y16.85020
G01 X35.98191 Y16.91492
G01 X35.92105 Y17.10824
G01 X35.89616 Y17.34501
G01 X35.92105 Y17.58179
G01 X35.98191 Y17.77511
G01 X36.01074 Y17.83983
G01 X36.09435 Y17.98466
G01 X36.13598 Y18.04196
G01 X36.27297 Y18.19134
G01 X36.46560 Y18.33127
G01 X36.68310 Y18.42812
G01 X36.88094 Y18.47206
G01 X36.95140 Y18.47948
G01 X37.11863 Y18.47948
G01 X37.18909 Y18.47206
G01 X37.38693 Y18.42812
G01 X37.60443 Y18.33127
G01 X37.79704 Y18.19134
G01 X37.93403 Y18.04196
G01 X37.97568 Y17.98466
G01 X38.05930 Y17.83983
G01 X38.07507 Y17.80887
G01 X38.06984 Y17.79990
G01 X38.07507 Y17.80887
G01 X38.19354 Y17.80724
G01 X38.26704 Y17.79632
G01 X38.31439 Y17.78067
G01 X38.39920 Y17.74240
G01 X38.43606 Y17.71778
G01 X38.50385 Y17.65408
G01 X38.53308 Y17.62076
G01 X38.55770 Y17.58390
G01 X38.59597 Y17.49909
G01 X38.61495 Y17.43709
G01 X38.62176 Y17.37262
G01 X38.62285 Y17.25718
G01 X38.61787 Y17.25500
G01 X38.62285 Y17.25718
G01 X43.46264 Y12.41739
G01 X43.41585 Y12.56969
G01 X38.69717 Y17.28837
G01 X38.69237 Y17.28624
G01 X38.69717 Y17.28837
G01 X38.69636 Y17.37334
G01 X38.68805 Y17.45200
G01 X38.66491 Y17.52764
G01 X38.62231 Y17.62121
G01 X38.59229 Y17.66617
G01 X38.55663 Y17.70684
G01 X38.48147 Y17.77699
G01 X38.43651 Y17.80701
G01 X38.34294 Y17.84961
G01 X38.28518 Y17.86869
G01 X38.22524 Y17.87910
G01 X38.12026 Y17.88349
G01 X38.11497 Y17.87468
G01 X38.12026 Y17.88349
G01 X38.04030 Y18.02197
G01 X37.98950 Y18.09190
G01 X37.84698 Y18.24679
G01 X37.67804 Y18.37232
G01 X37.60319 Y18.41555
G01 X37.45038 Y18.48357
G01 X37.36819 Y18.51029
G01 X37.16187 Y18.55182
G01 X36.95140 Y18.55408
G01 X36.86542 Y18.54506
G01 X36.66004 Y18.49909
G01 X36.42829 Y18.39589
G01 X36.22306 Y18.24679
G01 X36.05331 Y18.05827
G01 X35.94612 Y17.87714
G01 X35.91094 Y17.79818
G01 X35.84808 Y17.59731
G01 X35.82156 Y17.34501
G01 X35.84129 Y17.13546
G01 X35.85928 Y17.05091
G01 X35.92646 Y16.85147
G01 X36.02974 Y16.66805
G01 X36.08054 Y16.59813
G01 X36.19245 Y16.47384
G01 X36.25669 Y16.41601
G01 X36.42829 Y16.29411
G01 X36.61963 Y16.20646
G01 X36.70185 Y16.17974
G01 X36.86542 Y16.14497
G01 X36.95140 Y16.13592
G01 X37.11444 Y16.13592
G01 X37.17398 Y16.19368
G01 X37.09016 Y16.11233
G01 X36.66555 Y16.11233
G01 X36.58927 Y16.13829
G01 X36.39098 Y16.22950
G01 X36.21282 Y16.35563
G01 X36.17312 Y16.38779
G01 X36.13700 Y16.42391
G01 X36.02509 Y16.54819
G01 X35.99293 Y16.58789
G01 X35.96512 Y16.63074
G01 X35.85829 Y16.82111
G01 X35.78831 Y17.02787
G01 X35.77508 Y17.07720
G01 X35.76710 Y17.12767
G01 X35.74693 Y17.34501
G01 X35.74960 Y17.39604
G01 X35.77508 Y17.61281
G01 X35.84000 Y17.82121
G01 X35.85829 Y17.86891
G01 X35.88150 Y17.91443
G01 X35.99293 Y18.10211
G01 X36.13700 Y18.26612
G01 X36.17312 Y18.30224
G01 X36.21282 Y18.33439
G01 X36.39098 Y18.46051
G01 X36.58927 Y18.55174
G01 X36.66563 Y18.57773
G04 P0 ( dwell for no time -- G64 should not smooth over this point )
G00 Z0.50000 ( retract )

G00 X36.66552 Y18.65233 ( rapid move to begin. )
G01 F100.00000
( Mill infeed pass 1/1 )
G01 Z-0.17000
G04 P0 ( dwell for no time -- G64 should not smooth over this point )
G01 F200.00000
G01 X36.66552 Y18.65233
G01 X36.58927 Y18.67829
G01 X36.39098 Y18.76950
G01 X36.21282 Y18.89563
G01 X36.17312 Y18.92779
G01 X36.13700 Y18.96391
G01 X35.99293 Y19.12789
G01 X35.88150 Y19.31560
G01 X35.85829 Y19.36111
G01 X35.84000 Y19.40879
G01 X35.77508 Y19.61720
G01 X35.74960 Y19.83399
G01 X35.74693 Y19.88501
G01 X35.76710 Y20.10236
G01 X35.77508 Y20.15281
G01 X35.78831 Y20.20216
G01 X35.85829 Y20.40891
G01 X35.96512 Y20.59929
G01 X35.99293 Y20.64211
G01 X36.02509 Y20.68184
G01 X36.17312 Y20.84224
G01 X36.34813 Y20.97269
G01 X36.39098 Y21.00051
G01 X36.58927 Y21.09174
G01 X36.66563 Y21.11773
G01 X37.40441 Y21.11773
G01 X37.48074 Y21.09174
G01 X37.63352 Y21.02372
G01 X37.67906 Y21.00051
G01 X37.72188 Y20.97269
G01 X37.89689 Y20.84224
G01 X37.94703 Y20.79057
G01 X37.94754 Y20.76144
G01 X37.94703 Y20.79057
G01 X38.89981 Y21.74300
G01 X39.07997 Y21.81760
G01 X37.94419 Y20.68222
G01 X37.94358 Y20.64935
G01 X37.94419 Y20.68222
G01 X37.87759 Y20.75618
G01 X37.81335 Y20.81402
G01 X37.64175 Y20.93589
G01 X37.45038 Y21.02357
G01 X37.36819 Y21.05029
G01 X37.16187 Y21.09182
G01 X36.90817 Y21.09182
G01 X36.70185 Y21.05029
G01 X36.61963 Y21.02357
G01 X36.42829 Y20.93589
G01 X36.25669 Y20.81402
G01 X36.19245 Y20.75618
G01 X36.05331 Y20.59827
G01 X35.92646 Y20.37856
G01 X35.85928 Y20.17912
G01 X35.84129 Y20.09456
G01 X35.82156 Y19.88501
G01 X35.84808 Y19.63272
G01 X35.92646 Y19.39147
G01 X36.02974 Y19.20805
G01 X36.08054 Y19.13813
G01 X36.22306 Y18.98324
G01 X36.39199 Y18.85769
G01 X36.46685 Y18.81448
G01 X36.66004 Y18.73094
G01 X36.90817 Y18.67821
G01 X37.11863 Y18.67592
G01 X37.20459 Y18.68497
G01 X37.41000 Y18.73094
G01 X37.64175 Y18.83411
G01 X37.81335 Y18.95601
G01 X37.87759 Y19.01384
G01 X38.01673 Y19.17176
G01 X38.12026 Y19.34656
G01 X38.11518 Y19.35487
G01 X38.12026 Y19.34656
G01 X38.16034 Y19.34656
G01 X38.24098 Y19.35451
G01 X38.28881 Y19.36403
G01 X38.36638 Y19.38756
G01 X38.43786 Y19.42576
G01 X38.52638 Y19.49027
G01 X38.56831 Y19.53434
G01 X38.61889 Y19.60302
G01 X38.66491 Y19.70241
G01 X38.68800 Y19.77780
G01 X38.69636 Y19.85621
G01 X38.69697 Y19.91207
G01 X38.69232 Y19.91415
G01 X38.69697 Y19.91207
G01 X43.42304 Y24.63817
G01 X43.46028 Y24.77154
G01 X43.54758 Y25.00794
G01 X43.52350 Y24.94967
G01 X38.54840 Y19.97452
G01 X38.54289 Y19.97684
G01 X38.54840 Y19.97452
G01 X38.54713 Y19.85781
G01 X38.54180 Y19.80770
G01 X38.52704 Y19.75951
G01 X38.49089 Y19.67973
G01 X38.45297 Y19.62901
G01 X38.42615 Y19.60086
G01 X38.35495 Y19.54984
G01 X38.30928 Y19.52543
G01 X38.25970 Y19.51039
G01 X38.16034 Y19.49578
G01 X38.02295 Y19.49581
G01 X38.01711 Y19.50488
G01 X38.02295 Y19.49581
G01 X37.99468 Y19.42751
G01 X37.91106 Y19.28268
G01 X37.87858 Y19.23797
G01 X37.74713 Y19.09413
G01 X37.56712 Y18.96338
G01 X37.36387 Y18.87287
G01 X37.17357 Y18.83094
G01 X37.11863 Y18.82517
G01 X36.95140 Y18.82517
G01 X36.89646 Y18.83094
G01 X36.70614 Y18.87287
G01 X36.50289 Y18.96338
G01 X36.32290 Y19.09413
G01 X36.17403 Y19.25946
G01 X36.06278 Y19.45215
G01 X36.00119 Y19.63703
G01 X35.98971 Y19.69106
G01 X35.97223 Y19.85740
G01 X35.97223 Y19.91262
G01 X35.99405 Y20.10627
G01 X36.06278 Y20.31788
G01 X36.17403 Y20.51054
G01 X36.30335 Y20.65634
G01 X36.34439 Y20.69329
G01 X36.50289 Y20.80665
G01 X36.70614 Y20.89715
G01 X36.92377 Y20.94341
G01 X37.14624 Y20.94341
G01 X37.36387 Y20.89715
G01 X37.54248 Y20.81923
G01 X37.59031 Y20.79159
G01 X37.72562 Y20.69329
G01 X37.76669 Y20.65634
G01 X37.89600 Y20.51054
G01 X37.92910 Y20.45613
G01 X37.92740 Y20.41994
G01 X37.92910 Y20.45613
G01 X42.75535 Y25.28071
G01 X42.88799 Y25.34921
G01 X43.01032 Y25.43009
G01 X37.93789 Y20.35941
G01 X37.91490 Y20.33147
G01 X37.90885 Y20.28440
G01 X37.91490 Y20.33147
G01 X37.83563 Y20.46670
G01 X37.71122 Y20.60640
G01 X37.68178 Y20.63294
G01 X37.52981 Y20.74204
G01 X37.35935 Y20.81907
G01 X37.32166 Y20.83134
G01 X37.13845 Y20.86921
G01 X36.93156 Y20.86921
G01 X36.74838 Y20.83134
G01 X36.71069 Y20.81907
G01 X36.54020 Y20.74204
G01 X36.38826 Y20.63294
G01 X36.35879 Y20.60640
G01 X36.24688 Y20.48212
G01 X36.22359 Y20.45004
G01 X36.13997 Y20.30521
G01 X36.12384 Y20.26899
G01 X36.06702 Y20.09075
G01 X36.04541 Y19.88501
G01 X36.06702 Y19.67925
G01 X36.12384 Y19.50102
G01 X36.13997 Y19.46482
G01 X36.22359 Y19.31997
G01 X36.24688 Y19.28791
G01 X36.37284 Y19.14958
G01 X36.54020 Y19.02799
G01 X36.72920 Y18.94384
G01 X36.91195 Y18.90391
G01 X36.95140 Y18.89977
G01 X37.11863 Y18.89977
G01 X37.15806 Y18.90391
G01 X37.34081 Y18.94384
G01 X37.52981 Y19.02799
G01 X37.69720 Y19.14958
G01 X37.83563 Y19.30333
G01 X37.93908 Y19.48250
G01 X37.96872 Y19.57041
G01 X37.95925 Y19.58296
G01 X37.96872 Y19.57041
G01 X38.16034 Y19.57041
G01 X38.19732 Y19.57407
G01 X38.28074 Y19.59436
G01 X38.31350 Y19.61189
G01 X38.37606 Y19.65613
G01 X38.42689 Y19.71811
G01 X38.45810 Y19.78809
G01 X38.46870 Y19.82266
G01 X38.47253 Y19.85862
G01 X38.47411 Y20.00577
G01 X38.46890 Y20.00800
G01 X38.47411 Y20.00577
G01 X43.61247 Y25.14413
G01 X43.52281 Y24.94797
G01 X43.46541 Y24.78605
G01 X38.62267 Y19.94328
G01 X38.61782 Y19.94544
G01 X38.62267 Y19.94328
G01 X38.62176 Y19.85702
G01 X38.61490 Y19.79276
G01 X38.59597 Y19.73096
G01 X38.55490 Y19.64138
G01 X38.52620 Y19.60061
G01 X38.47626 Y19.54557
G01 X38.39641 Y19.48781
G01 X38.33783 Y19.45649
G01 X38.27426 Y19.43721
G01 X38.22643 Y19.42769
G01 X38.16034 Y19.42118
G01 X38.07507 Y19.42118
G01 X38.06964 Y19.43015
G01 X38.07507 Y19.42118
G01 X38.05930 Y19.39020
G01 X37.95635 Y19.21562
G01 X37.79704 Y19.03869
G01 X37.60443 Y18.89873
G01 X37.42006 Y18.81461
G01 X37.35267 Y18.79274
G01 X37.18909 Y18.75797
G01 X37.11863 Y18.75055
G01 X36.91597 Y18.75240
G01 X36.71734 Y18.79274
G01 X36.64998 Y18.81461
G01 X36.46560 Y18.89873
G01 X36.30055 Y19.01636
G01 X36.24790 Y19.06376
G01 X36.11366 Y19.21562
G01 X35.99463 Y19.42179
G01 X35.92105 Y19.64824
G01 X35.89616 Y19.88501
G01 X35.92105 Y20.12179
G01 X35.99463 Y20.34823
G01 X36.11366 Y20.55441
G01 X36.27297 Y20.73134
G01 X36.46560 Y20.87127
G01 X36.68310 Y20.96812
G01 X36.91597 Y21.01763
G01 X37.15404 Y21.01763
G01 X37.38693 Y20.96812
G01 X37.60443 Y20.87127
G01 X37.79704 Y20.73134
G01 X37.94093 Y20.57346
G01 X37.94015 Y20.54003
G01 X37.94093 Y20.57346
G01 X39.29541 Y21.92748
G04 P0 ( dwell for no time -- G64 should not smooth over this point )
G00 Z0.50000 ( retract )

G00 X38.69107 Y21.73733 ( rapid move to begin. )
G01 F100.00000
( Mill infeed pass 1/1 )
G01 Z-0.17000
G04 P0 ( dwell for no time -- G64 should not smooth over this point )
G01 F200.00000
G01 X38.69107 Y21.73733
G01 X39.09087 Y21.90289
G01 X39.18795 Y21.94927
G01 X39.28972 Y22.01143
G01 X39.24167 Y21.98209
G01 X39.15881 Y21.96535
G01 X39.10583 Y21.96118
G01 X38.07507 Y21.96118
G01 X38.06931 Y21.97117
G01 X38.07507 Y21.96118
G01 X38.05930 Y21.93020
G01 X37.95635 Y21.75562
G01 X37.79704 Y21.57869
G01 X37.60443 Y21.43873
G01 X37.42006 Y21.35461
G01 X37.35267 Y21.33274
G01 X37.18909 Y21.29797
G01 X37.11863 Y21.29055
G01 X36.91597 Y21.29240
G01 X36.71734 Y21.33274
G01 X36.64998 Y21.35461
G01 X36.46560 Y21.43873
G01 X36.27297 Y21.57869
G01 X36.11366 Y21.75562
G01 X35.99463 Y21.96179
G01 X35.92105 Y22.18824
G01 X35.89616 Y22.42501
G01 X35.92105 Y22.66179
G01 X35.99463 Y22.88823
G01 X36.11366 Y23.09441
G01 X36.24790 Y23.24627
G01 X36.30055 Y23.29367
G01 X36.46560 Y23.41127
G01 X36.64998 Y23.49540
G01 X36.71734 Y23.51729
G01 X36.91597 Y23.55763
G01 X37.11863 Y23.55948
G01 X37.18909 Y23.55206
G01 X37.38693 Y23.50812
G01 X37.57284 Y23.42737
G01 X37.63418 Y23.39197
G01 X37.79704 Y23.27134
G01 X37.93403 Y23.12196
G01 X37.97568 Y23.06466
G01 X38.05930 Y22.91983
G01 X38.07507 Y22.88887
G01 X38.06931 Y22.87889
G01 X38.07507 Y22.88887
G01 X38.91368 Y22.88887
G01 X38.91604 Y22.88320
G01 X38.91368 Y22.88887
G01 X41.95916 Y25.93435
G01 X41.96447 Y25.93207
G01 X41.95916 Y25.93435
G01 X41.95297 Y26.01101
G01 X41.96912 Y26.16463
G01 X42.00412 Y26.27842
G01 X42.03295 Y26.34314
G01 X42.09406 Y26.44530
G01 X42.17235 Y26.53501
G01 X42.22500 Y26.58241
G01 X42.29264 Y26.63156
G01 X42.34999 Y26.66493
G01 X42.26876 Y26.64324
G01 X42.12462 Y26.59265
G01 X42.03371 Y26.48914
G01 X41.94867 Y26.34187
G01 X41.90732 Y26.22193
G01 X41.89612 Y26.18015
G01 X41.88063 Y26.05424
G01 X41.88063 Y25.96781
G01 X41.88124 Y25.96194
G01 X41.88586 Y25.95983
G01 X41.88124 Y25.96194
G01 X38.88279 Y22.96349
G01 X38.88513 Y22.95780
G01 X38.88279 Y22.96349
G01 X38.12023 Y22.96349
G01 X38.11467 Y22.95369
G01 X38.12023 Y22.96349
G01 X38.01673 Y23.13827
G01 X37.87759 Y23.29618
G01 X37.81335 Y23.35402
G01 X37.64175 Y23.47589
G01 X37.45038 Y23.56357
G01 X37.36819 Y23.59029
G01 X37.16187 Y23.63182
G01 X36.90817 Y23.63182
G01 X36.66004 Y23.57909
G01 X36.46685 Y23.49555
G01 X36.39199 Y23.45232
G01 X36.22306 Y23.32679
G01 X36.08054 Y23.17190
G01 X36.02974 Y23.10197
G01 X35.92646 Y22.91856
G01 X35.84808 Y22.67731
G01 X35.82156 Y22.42501
G01 X35.84808 Y22.17272
G01 X35.92646 Y21.93147
G01 X36.02974 Y21.74805
G01 X36.08054 Y21.67813
G01 X36.22306 Y21.52324
G01 X36.39199 Y21.39769
G01 X36.46685 Y21.35448
G01 X36.61963 Y21.28646
G01 X36.70185 Y21.25974
G01 X36.90817 Y21.21821
G01 X37.16187 Y21.21821
G01 X37.41000 Y21.27094
G01 X37.60319 Y21.35448
G01 X37.67804 Y21.39769
G01 X37.81335 Y21.49601
G01 X37.87759 Y21.55384
G01 X38.01673 Y21.71176
G01 X38.12026 Y21.88656
G01 X38.11470 Y21.89636
G01 X38.12026 Y21.88656
G01 X39.05145 Y21.88656
G01 X38.87126 Y21.81196
G01 X38.16334 Y21.81196
G01 X38.15785 Y21.82166
G01 X38.16334 Y21.81196
G01 X38.07708 Y21.66789
G01 X37.93303 Y21.50391
G01 X37.89689 Y21.46779
G01 X37.85719 Y21.43563
G01 X37.67906 Y21.30950
G01 X37.48074 Y21.21829
G01 X37.40451 Y21.19233
G01 X36.66552 Y21.19233
G01 X36.58927 Y21.21829
G01 X36.39098 Y21.30950
G01 X36.21282 Y21.43563
G01 X36.17312 Y21.46779
G01 X36.13700 Y21.50391
G01 X35.99293 Y21.66789
G01 X35.88150 Y21.85560
G01 X35.85829 Y21.90111
G01 X35.84000 Y21.94879
G01 X35.77508 Y22.15720
G01 X35.74960 Y22.37399
G01 X35.74693 Y22.42501
G01 X35.74960 Y22.47604
G01 X35.77508 Y22.69281
G01 X35.84000 Y22.90121
G01 X35.85829 Y22.94891
G01 X35.88150 Y22.99443
G01 X35.99293 Y23.18211
G01 X36.13700 Y23.34612
G01 X36.17312 Y23.38224
G01 X36.21282 Y23.41439
G01 X36.39098 Y23.54051
G01 X36.58927 Y23.63174
G01 X36.66563 Y23.65773
G04 P0 ( dwell for no time -- G64 should not smooth over this point )
G00 Z0.50000 ( retract )

G00 X36.66552 Y23.73233 ( rapid move to begin. )
G01 F100.00000
( Mill infeed pass 1/1 )
G01 Z-0.17000
G04 P0 ( dwell for no time -- G64 should not smooth over this point )
G01 F200.00000
G01 X36.66552 Y23.73233
G01 X36.58927 Y23.75829
G01 X36.39098 Y23.84950
G01 X36.21282 Y23.97563
G01 X36.17312 Y24.00779
G01 X36.13700 Y24.04391
G01 X35.99293 Y24.20789
G01 X35.88150 Y24.39560
G01 X35.85829 Y24.44111
G01 X35.84000 Y24.48879
G01 X35.77508 Y24.69720
G01 X35.74960 Y24.91399
G01 X35.74693 Y24.96501
G01 X35.74960 Y25.01604
G01 X35.76710 Y25.18236
G01 X35.77508 Y25.23281
G01 X35.78831 Y25.28216
G01 X35.85829 Y25.48891
G01 X35.96735 Y25.68272
G01 X36.09654 Y25.72968
G01 X36.05331 Y25.67827
G01 X36.02974 Y25.64197
G01 X35.92646 Y25.45856
G01 X35.85928 Y25.25912
G01 X35.84129 Y25.17456
G01 X35.82156 Y24.96501
G01 X35.84129 Y24.75546
G01 X35.85928 Y24.67091
G01 X35.92646 Y24.47147
G01 X36.02974 Y24.28805
G01 X36.08054 Y24.21813
G01 X36.22306 Y24.06324
G01 X36.39199 Y23.93769
G01 X36.46685 Y23.89448
G01 X36.66004 Y23.81094
G01 X36.90817 Y23.75821
G01 X37.11863 Y23.75592
G01 X37.20459 Y23.76497
G01 X37.41000 Y23.81094
G01 X37.64175 Y23.91411
G01 X37.81335 Y24.03601
G01 X37.87759 Y24.09384
G01 X38.01673 Y24.25176
G01 X38.12026 Y24.42656
G01 X38.11564 Y24.43362
G01 X38.12026 Y24.42656
G01 X38.22501 Y24.43166
G01 X38.32671 Y24.45292
G01 X38.38665 Y24.47774
G01 X38.47659 Y24.52923
G01 X38.52574 Y24.57111
G01 X39.09468 Y25.13842
G01 X39.09272 Y25.16039
G01 X39.09750 Y25.13560
G01 X39.19879 Y25.05920
G01 X39.27365 Y25.01599
G01 X39.39044 Y24.96646
G01 X39.55678 Y24.93111
G01 X39.72683 Y24.93111
G01 X39.89318 Y24.96646
G01 X40.04855 Y25.03563
G01 X40.18612 Y25.13560
G01 X40.29991 Y25.26197
G01 X40.36529 Y25.37068
G01 X40.40047 Y25.44965
G01 X40.43750 Y25.57098
G01 X40.45528 Y25.74012
G01 X40.43750 Y25.90923
G01 X40.40047 Y26.03057
G01 X40.36529 Y26.10954
G01 X40.29991 Y26.21825
G01 X40.18612 Y26.34464
G01 X40.08485 Y26.42102
G01 X40.00999 Y26.46425
G01 X39.89318 Y26.51375
G01 X39.76958 Y26.54235
G01 X39.68363 Y26.55137
G01 X39.55678 Y26.54911
G01 X39.39044 Y26.51375
G01 X39.27365 Y26.46425
G01 X39.19879 Y26.42102
G01 X39.09750 Y26.34464
G01 X39.03499 Y26.27860
G01 X39.03661 Y26.27454
G01 X39.03499 Y26.27860
G01 X38.93542 Y26.27860
G01 X38.83522 Y26.26910
G01 X38.75091 Y26.24474
G01 X38.69097 Y26.21990
G01 X38.63565 Y26.18602
G01 X38.55467 Y26.12089
G01 X38.05328 Y25.61947
G01 X38.05071 Y25.58089
G01 X38.05328 Y25.61947
G01 X38.04030 Y25.64197
G01 X38.01673 Y25.67827
G01 X37.94391 Y25.76252
G01 X37.80492 Y25.80347
G01 X37.93403 Y25.66196
G01 X37.97568 Y25.60466
G01 X38.03728 Y25.49796
G01 X38.03141 Y25.45130
G01 X38.03728 Y25.49796
G01 X38.60746 Y26.06811
G01 X38.64787 Y26.10265
G01 X38.72485 Y26.15343
G01 X38.81116 Y26.18587
G01 X38.88929 Y26.20138
G01 X39.06821 Y26.20398
G01 X39.07078 Y26.19839
G01 X39.06821 Y26.20398
G01 X39.14743 Y26.28919
G01 X39.24263 Y26.36064
G01 X39.30400 Y26.39608
G01 X39.38038 Y26.43009
G01 X39.44776 Y26.45198
G01 X39.56458 Y26.47492
G01 X39.68363 Y26.47677
G01 X39.75406 Y26.46935
G01 X39.87014 Y26.44279
G01 X39.97964 Y26.39608
G01 X40.04098 Y26.36064
G01 X40.13621 Y26.28919
G01 X40.21723 Y26.20197
G01 X40.25886 Y26.14464
G01 X40.31677 Y26.04063
G01 X40.36450 Y25.89374
G01 X40.37880 Y25.77553
G01 X40.37880 Y25.70469
G01 X40.36450 Y25.58650
G01 X40.32950 Y25.47271
G01 X40.30067 Y25.40799
G01 X40.23956 Y25.30583
G01 X40.16128 Y25.21612
G01 X40.10862 Y25.16872
G01 X40.01124 Y25.10024
G01 X39.87014 Y25.03743
G01 X39.71904 Y25.00532
G01 X39.56458 Y25.00532
G01 X39.41350 Y25.03743
G01 X39.27240 Y25.10024
G01 X39.14743 Y25.19105
G01 X39.09613 Y25.24523
G01 X39.09496 Y25.27108
G01 X39.09613 Y25.24523
G01 X38.47306 Y24.62394
G01 X38.43278 Y24.58963
G01 X38.35280 Y24.54424
G01 X38.30367 Y24.52389
G01 X38.25196 Y24.51147
G01 X38.16034 Y24.50118
G01 X38.07507 Y24.50118
G01 X38.07007 Y24.50896
G01 X38.07507 Y24.50118
G01 X38.05930 Y24.47020
G01 X37.95635 Y24.29562
G01 X37.79704 Y24.11869
G01 X37.60443 Y23.97873
G01 X37.42006 Y23.89461
G01 X37.35267 Y23.87274
G01 X37.18909 Y23.83797
G01 X37.11863 Y23.83055
G01 X36.91597 Y23.83240
G01 X36.71734 Y23.87274
G01 X36.64998 Y23.89461
G01 X36.46560 Y23.97873
G01 X36.30055 Y24.09636
G01 X36.24790 Y24.14376
G01 X36.11366 Y24.29562
G01 X36.01074 Y24.47020
G01 X35.98191 Y24.53492
G01 X35.92105 Y24.72824
G01 X35.89801 Y24.92961
G01 X35.89801 Y25.00042
G01 X35.91551 Y25.16677
G01 X35.93024 Y25.23606
G01 X35.99463 Y25.42823
G01 X36.11366 Y25.63441
G01 X36.25857 Y25.79694
G01 X36.46740 Y25.86740
G01 X36.47774 Y25.87017
G01 X36.32290 Y25.75589
G01 X36.19143 Y25.61205
G01 X36.15897 Y25.56735
G01 X36.06278 Y25.39788
G01 X36.00119 Y25.21299
G01 X35.98971 Y25.15897
G01 X35.97078 Y24.96501
G01 X35.99405 Y24.74375
G01 X36.05288 Y24.55798
G01 X36.07535 Y24.50751
G01 X36.17403 Y24.33946
G01 X36.32290 Y24.17413
G01 X36.47970 Y24.05844
G01 X36.52755 Y24.03080
G01 X36.70614 Y23.95287
G01 X36.89646 Y23.91094
G01 X36.95140 Y23.90517
G01 X37.14624 Y23.90662
G01 X37.33715 Y23.94571
G01 X37.38970 Y23.96278
G01 X37.54248 Y24.03080
G01 X37.59031 Y24.05844
G01 X37.74713 Y24.17413
G01 X37.89600 Y24.33946
G01 X38.00723 Y24.53215
G01 X38.02295 Y24.57578
G01 X38.01696 Y24.58531
G01 X38.02295 Y24.57578
G01 X38.16034 Y24.57578
G01 X38.24030 Y24.58516
G01 X38.28061 Y24.59486
G01 X38.31891 Y24.61071
G01 X38.38896 Y24.65003
G01 X38.42036 Y24.67680
G01 X39.09643 Y25.35089
G01 X39.09577 Y25.37888
G01 X39.09643 Y25.35089
G01 X39.10364 Y25.35089
G01 X39.17779 Y25.26605
G01 X39.21886 Y25.22910
G01 X39.30969 Y25.16486
G01 X39.43656 Y25.10840
G01 X39.57238 Y25.07952
G01 X39.71124 Y25.07952
G01 X39.84708 Y25.10840
G01 X39.97392 Y25.16486
G01 X40.06478 Y25.22910
G01 X40.10583 Y25.26605
G01 X40.17918 Y25.34970
G01 X40.23605 Y25.44530
G01 X40.25853 Y25.49577
G01 X40.29153 Y25.60202
G01 X40.30461 Y25.71249
G01 X40.30461 Y25.76773
G01 X40.29153 Y25.87822
G01 X40.25853 Y25.98447
G01 X40.23605 Y26.03491
G01 X40.17918 Y26.13054
G01 X40.10583 Y26.21419
G01 X40.06478 Y26.25114
G01 X39.97392 Y26.31535
G01 X39.87288 Y26.36191
G01 X39.82036 Y26.37898
G01 X39.73857 Y26.39638
G01 X39.68363 Y26.40215
G01 X39.60001 Y26.40215
G01 X39.54507 Y26.39638
G01 X39.43656 Y26.37184
G01 X39.33435 Y26.32790
G01 X39.28650 Y26.30029
G01 X39.19735 Y26.23374
G01 X39.12186 Y26.15203
G01 X39.10367 Y26.12938
G01 X39.10651 Y26.12310
G01 X39.10367 Y26.12938
G01 X38.93542 Y26.12938
G01 X38.86433 Y26.12275
G01 X38.79704 Y26.10281
G01 X38.75874 Y26.08693
G01 X38.72338 Y26.06527
G01 X38.66021 Y26.01535
G01 X38.01708 Y25.37223
G01 X38.01083 Y25.32470
G01 X38.01708 Y25.37223
G01 X38.00723 Y25.39788
G01 X37.89600 Y25.59054
G01 X37.74713 Y25.75589
G01 X37.59229 Y25.87017
G01 X37.61190 Y25.94218
G01 X37.75541 Y25.94218
G01 X37.79676 Y25.94545
G01 X37.86578 Y25.95823
G01 X37.94129 Y25.98950
G01 X37.99913 Y26.02927
G01 X38.03065 Y26.05620
G01 X38.78675 Y26.81228
G01 X38.78442 Y26.81792
G01 X38.78675 Y26.81228
G01 X42.70935 Y26.81231
G01 X42.71243 Y26.81901
G01 X42.71014 Y26.81109
G01 X42.77194 Y26.74030
G01 X42.80930 Y26.72181
G01 X43.19912 Y26.53979
G01 X43.28934 Y26.53948
G01 X43.34425 Y26.54525
G01 X43.45276 Y26.56979
G01 X43.55499 Y26.61373
G01 X43.60282 Y26.64134
G01 X43.69198 Y26.70789
G01 X43.76749 Y26.78960
G01 X43.81278 Y26.85650
G01 X43.81164 Y26.89613
G01 X43.81278 Y26.85650
G01 X43.94290 Y26.71413
G01 X44.03803 Y26.64324
G01 X44.16325 Y26.65602
G01 X44.15040 Y26.65437
G01 X44.14356 Y26.65879
G01 X43.99284 Y26.76958
G01 X43.86688 Y26.90791
G01 X43.84359 Y26.93997
G01 X43.80303 Y27.01025
G01 X43.80036 Y27.09094
G01 X43.80303 Y27.01025
G01 X43.78616 Y26.96168
G01 X43.72451 Y26.85495
G01 X43.64204 Y26.76333
G01 X43.54232 Y26.69089
G01 X43.44824 Y26.64787
G01 X43.41054 Y26.63562
G01 X43.32876 Y26.61822
G01 X43.28934 Y26.61408
G01 X43.18588 Y26.61513
G01 X43.08448 Y26.63562
G01 X43.04679 Y26.64787
G01 X42.95271 Y26.69089
G01 X42.86841 Y26.75086
G01 X42.83894 Y26.77738
G01 X42.77052 Y26.85495
G01 X42.75086 Y26.88691
G01 X42.75421 Y26.89402
G01 X42.75086 Y26.88691
G01 X38.75584 Y26.88691
G01 X38.75348 Y26.89259
G01 X38.75584 Y26.88691
G01 X37.97789 Y26.10895
G01 X37.90482 Y26.05460
G01 X37.84553 Y26.03004
G01 X37.75541 Y26.01680
G01 X37.18246 Y26.01680
G01 X37.11863 Y26.02084
G01 X36.95140 Y26.02084
G01 X36.88767 Y26.01680
G01 X36.14391 Y26.01680
G01 X36.07563 Y26.02526
G01 X36.03273 Y26.03735
G01 X35.97571 Y26.06664
G01 X35.92146 Y26.10895
G01 X34.85501 Y27.17540
G01 X34.85735 Y27.18109
G01 X34.85501 Y27.17540
G01 X34.79372 Y27.17540
G01 X34.78366 Y27.18939
G01 X34.79372 Y27.17540
G01 X34.76408 Y27.08749
G01 X34.67145 Y26.92498
G01 X34.64813 Y26.89290
G01 X34.53622 Y26.76862
G01 X34.50678 Y26.74210
G01 X34.35481 Y26.63298
G01 X34.18435 Y26.55594
G01 X34.14666 Y26.54370
G01 X33.98306 Y26.50893
G01 X33.94363 Y26.50479
G01 X33.75656 Y26.50583
G01 X33.57338 Y26.54370
G01 X33.53569 Y26.55594
G01 X33.38288 Y26.62396
G01 X33.34856 Y26.64380
G01 X33.19784 Y26.75460
G01 X33.05941 Y26.90834
G01 X32.95596 Y27.08749
G01 X32.92631 Y27.17540
G01 X32.93635 Y27.18939
G01 X32.92631 Y27.17540
G01 X30.99998 Y27.17540
G01 X31.04473 Y27.16628
G01 X31.14488 Y27.13544
G01 X32.55212 Y26.55455
G01 X32.73068 Y26.36318
G01 X32.84196 Y26.25734
G01 X34.43091 Y26.25734
G01 X34.54135 Y26.30989
G01 X34.59075 Y26.34197
G01 X34.77183 Y26.47733
G01 X34.89418 Y26.60862
G01 X34.89418 Y26.63956
G01 X34.89418 Y26.60862
G01 X35.65765 Y25.84515
G01 X35.72478 Y25.78780
G01 X35.81224 Y25.72910
G01 X35.83698 Y25.71711
G01 X35.85488 Y25.72216
G01 X35.73703 Y25.68881
G01 X35.68094 Y25.72745
G01 X35.60490 Y25.79239
G01 X34.89702 Y26.50027
G01 X34.89669 Y26.53224
G01 X34.89702 Y26.50027
G01 X34.82176 Y26.42188
G01 X34.76992 Y26.37990
G01 X34.59725 Y26.25734
G01 X34.43091 Y26.25734
G01 X34.72816 Y26.25734
G01 X34.87167 Y26.36643
G01 X34.89850 Y26.39326
G01 X34.89979 Y26.41828
G01 X34.89850 Y26.39326
G01 X35.55214 Y25.73964
G01 X35.63708 Y25.66707
G01 X35.64127 Y25.66402
G01 X35.64912 Y25.66595
G01 X35.55245 Y25.64154
G01 X35.49936 Y25.68686
G01 X34.89601 Y26.29023
G01 X34.89728 Y26.31558
G01 X34.89601 Y26.29023
G01 X34.85509 Y26.25734
G01 X34.72816 Y26.25734
G01 X34.89951 Y26.25665
G01 X34.90172 Y26.26209
G01 X34.89951 Y26.25665
G01 X34.91818 Y26.24705
G01 X35.04124 Y26.12993
G01 X35.15920 Y26.00586
G01 X35.27543 Y25.86938
G01 X35.46471 Y25.61863
G01 X35.45575 Y25.62630
G01 X35.46139 Y25.61777
G01 X35.69029 Y25.67558
G01 X35.85488 Y25.72216
G01 X36.06006 Y25.79547
G01 X36.27614 Y25.88366
G01 X36.45821 Y25.94218
G01 X36.14391 Y25.94218
G01 X36.10258 Y25.94545
G01 X36.03357 Y25.95823
G01 X36.00418 Y25.96842
G01 X35.95806 Y25.98950
G01 X35.90022 Y26.02927
G01 X35.86870 Y26.05620
G01 X34.84208 Y27.08282
G01 X34.83583 Y27.13034
G01 X34.84208 Y27.08282
G01 X34.83223 Y27.05716
G01 X34.73606 Y26.88767
G01 X34.70358 Y26.84299
G01 X34.59169 Y26.71868
G01 X34.55062 Y26.68172
G01 X34.39212 Y26.56836
G01 X34.21470 Y26.48777
G01 X34.16215 Y26.47070
G01 X33.99857 Y26.43593
G01 X33.94363 Y26.43016
G01 X33.74877 Y26.43161
G01 X33.55786 Y26.47070
G01 X33.50533 Y26.48777
G01 X33.32789 Y26.56836
G01 X33.14790 Y26.69915
G01 X33.01643 Y26.84299
G01 X32.98397 Y26.88767
G01 X32.90035 Y27.03250
G01 X32.87208 Y27.10077
G01 X32.87841 Y27.11136
G01 X32.87208 Y27.10077
G01 X31.22870 Y27.10077
G01 X31.58946 Y26.95155
G01 X32.77478 Y26.95155
G01 X32.78034 Y26.96135
G01 X32.77478 Y26.95155
G01 X32.85474 Y26.81307
G01 X32.90554 Y26.74312
G01 X33.04806 Y26.58823
G01 X33.21699 Y26.46270
G01 X33.29185 Y26.41947
G01 X33.48504 Y26.33595
G01 X33.73317 Y26.28320
G01 X33.98687 Y26.28320
G01 X34.19319 Y26.32475
G01 X34.27538 Y26.35145
G01 X34.46675 Y26.43913
G01 X34.63835 Y26.56100
G01 X34.70259 Y26.61883
G01 X34.84173 Y26.77677
G01 X34.87828 Y26.83555
G01 X34.87449 Y26.87733
G01 X34.87828 Y26.83555
G01 X35.76316 Y25.95066
G01 X35.81252 Y25.90855
G01 X35.88516 Y25.85930
G01 X35.94706 Y25.83054
G01 X35.99306 Y25.81459
G01 X36.07017 Y25.79948
G01 X35.94279 Y25.75320
G01 X35.84869 Y25.79420
G01 X35.76865 Y25.84817
G01 X35.71041 Y25.89791
G01 X34.89017 Y26.71817
G01 X34.88935 Y26.75170
G01 X34.89017 Y26.71817
G01 X34.86995 Y26.69320
G01 X34.75803 Y26.56892
G01 X34.72189 Y26.53278
G01 X34.68219 Y26.50065
G01 X34.50406 Y26.37451
G01 X34.45852 Y26.35132
G01 X34.25806 Y26.26499
G01 X34.22954 Y26.25734
G01 X33.49050 Y26.25734
G01 X33.41427 Y26.28330
G01 X33.21598 Y26.37451
G01 X33.17313 Y26.40232
G01 X32.99812 Y26.53278
G01 X32.85009 Y26.69320
G01 X32.81793 Y26.73290
G01 X32.73170 Y26.87695
G01 X32.73719 Y26.88665
G01 X32.73170 Y26.87695
G01 X31.76978 Y26.87695
G01 X31.95019 Y26.80232
G01 X32.68862 Y26.80232
G01 X32.69398 Y26.81190
G01 X32.68862 Y26.80232
G01 X32.75758 Y26.68904
G01 X32.79464 Y26.64327
G01 X32.94818 Y26.47733
G01 X33.12926 Y26.34197
G01 X33.17866 Y26.30989
G01 X33.28913 Y26.25734
G01 X33.12278 Y26.25734
G01 X32.95011 Y26.37990
G01 X32.89827 Y26.42188
G01 X32.85110 Y26.46905
G01 X32.73919 Y26.59336
G01 X32.69721 Y26.64520
G01 X32.66088 Y26.70113
G01 X32.64554 Y26.72770
G01 X32.64996 Y26.73618
G01 X32.64554 Y26.72770
G01 X32.13058 Y26.72770
G01 X32.49131 Y26.57847
G01 X32.56284 Y26.57847
G01 X32.56604 Y26.58538
G01 X32.56284 Y26.57847
G01 X32.57648 Y26.55747
G01 X32.62830 Y26.49348
G01 X32.74021 Y26.36920
G01 X32.79842 Y26.31099
G01 X32.86492 Y26.25734
G01 X32.99187 Y26.25734
G01 X32.84834 Y26.36643
G01 X32.79566 Y26.41914
G01 X32.68374 Y26.54342
G01 X32.63686 Y26.60133
G01 X32.60323 Y26.65310
G01 X32.60660 Y26.66024
G01 X32.60323 Y26.65310
G01 X32.31092 Y26.65310
G01 X31.92162 Y26.73336
G01 X31.11801 Y27.06580
G01 X31.02469 Y27.09440
G01 X30.98527 Y27.10222
G01 X31.04933 Y27.07177
G01 X31.07801 Y27.04827
G01 X32.86495 Y25.26463
G01 X32.86261 Y25.25897
G01 X32.86495 Y25.26463
G01 X32.92631 Y25.26463
G01 X32.93637 Y25.25061
G01 X32.92631 Y25.26463
G01 X32.95596 Y25.35252
G01 X33.04859 Y25.51505
G01 X33.07188 Y25.54711
G01 X33.19784 Y25.68543
G01 X33.36520 Y25.80705
G01 X33.53569 Y25.88409
G01 X33.57338 Y25.89633
G01 X33.73695 Y25.93110
G01 X33.77640 Y25.93524
G01 X33.96345 Y25.93420
G01 X34.14666 Y25.89633
G01 X34.18435 Y25.88409
G01 X34.35481 Y25.80705
G01 X34.50678 Y25.69793
G01 X34.53622 Y25.67141
G01 X34.66063 Y25.53169
G01 X34.75506 Y25.37022
G01 X34.77119 Y25.33400
G01 X34.82801 Y25.15577
G01 X34.84859 Y24.96984
G01 X34.84859 Y24.93019
G01 X34.82801 Y24.74426
G01 X34.77119 Y24.56603
G01 X34.75506 Y24.52981
G01 X34.66063 Y24.36834
G01 X34.53622 Y24.22862
G01 X34.50678 Y24.20210
G01 X34.35481 Y24.09298
G01 X34.18435 Y24.01594
G01 X34.14666 Y24.00370
G01 X33.98306 Y23.96893
G01 X33.94363 Y23.96479
G01 X33.75656 Y23.96583
G01 X33.57338 Y24.00370
G01 X33.53569 Y24.01594
G01 X33.36520 Y24.09298
G01 X33.19784 Y24.21460
G01 X33.05941 Y24.36834
G01 X32.95596 Y24.54749
G01 X32.92631 Y24.63540
G01 X32.93515 Y24.64744
G01 X32.92631 Y24.63540
G01 X32.73472 Y24.63540
G01 X32.69774 Y24.63906
G01 X32.61433 Y24.65935
G01 X32.54100 Y24.70398
G01 X32.51227 Y24.72755
G01 X30.74430 Y26.49552
G01 X30.74664 Y26.50121
G01 X30.74430 Y26.49552
G01 X29.67377 Y26.49552
G01 X29.72581 Y26.47545
G01 X29.85650 Y26.41485
G01 X29.96691 Y26.38462
G01 X30.06904 Y26.34629
G01 X30.68248 Y26.34629
G01 X30.68484 Y26.35198
G01 X30.68248 Y26.34629
G01 X32.40676 Y24.62204
G01 X32.45809 Y24.57990
G01 X32.49865 Y24.55280
G01 X32.55723 Y24.52148
G01 X32.62080 Y24.50220
G01 X32.66863 Y24.49268
G01 X32.73472 Y24.48617
G01 X32.81994 Y24.48617
G01 X32.82540 Y24.49514
G01 X32.81994 Y24.48617
G01 X32.83574 Y24.45521
G01 X32.93866 Y24.28061
G01 X33.07290 Y24.12877
G01 X33.12555 Y24.08137
G01 X33.29060 Y23.96375
G01 X33.47498 Y23.87962
G01 X33.54234 Y23.85773
G01 X33.74097 Y23.81742
G01 X33.94363 Y23.81556
G01 X34.01409 Y23.82295
G01 X34.21193 Y23.86690
G01 X34.39784 Y23.94764
G01 X34.45918 Y23.98305
G01 X34.62204 Y24.10367
G01 X34.75903 Y24.25305
G01 X34.80068 Y24.31035
G01 X34.90040 Y24.48681
G01 X34.96479 Y24.67898
G01 X34.97952 Y24.74828
G01 X34.99885 Y24.95000
G01 X34.97952 Y25.15175
G01 X34.96479 Y25.22105
G01 X34.90040 Y25.41322
G01 X34.78135 Y25.61942
G01 X34.64714 Y25.77126
G01 X34.59448 Y25.81866
G01 X34.42943 Y25.93628
G01 X34.24506 Y26.02041
G01 X34.17767 Y26.04230
G01 X33.97904 Y26.08261
G01 X33.74097 Y26.08261
G01 X33.54234 Y26.04230
G01 X33.47498 Y26.02041
G01 X33.29060 Y25.93628
G01 X33.12555 Y25.81866
G01 X33.07290 Y25.77126
G01 X32.93866 Y25.61942
G01 X32.85763 Y25.48277
G01 X32.86352 Y25.43618
G01 X32.85763 Y25.48277
G01 X31.38047 Y26.95721
G01 X31.56084 Y26.88261
G01 X32.84160 Y25.60421
G01 X32.84541 Y25.56250
G01 X32.84160 Y25.60421
G01 X32.87831 Y25.66326
G01 X33.04806 Y25.85178
G01 X33.25329 Y26.00090
G01 X33.48504 Y26.10408
G01 X33.73317 Y26.15683
G01 X33.98687 Y26.15683
G01 X34.23500 Y26.10408
G01 X34.46675 Y26.00090
G01 X34.63835 Y25.87903
G01 X34.70259 Y25.82120
G01 X34.84173 Y25.66326
G01 X34.96858 Y25.44358
G01 X35.04696 Y25.20230
G01 X35.07122 Y24.99323
G01 X35.07122 Y24.90680
G01 X35.04696 Y24.69773
G01 X34.98407 Y24.49687
G01 X34.94892 Y24.41790
G01 X34.84173 Y24.23677
G01 X34.67198 Y24.04823
G01 X34.46675 Y23.89913
G01 X34.27538 Y23.81145
G01 X34.19319 Y23.78475
G01 X34.02959 Y23.74998
G01 X33.94363 Y23.74094
G01 X33.77640 Y23.74094
G01 X33.69042 Y23.74998
G01 X33.48504 Y23.79595
G01 X33.29185 Y23.87947
G01 X33.21699 Y23.92270
G01 X33.08169 Y24.02100
G01 X33.01745 Y24.07883
G01 X32.87831 Y24.23677
G01 X32.77478 Y24.41155
G01 X32.77986 Y24.41985
G01 X32.77478 Y24.41155
G01 X32.73472 Y24.41155
G01 X32.65408 Y24.41950
G01 X32.60625 Y24.42902
G01 X32.52868 Y24.45254
G01 X32.45720 Y24.49075
G01 X32.41664 Y24.51785
G01 X32.35398 Y24.56926
G01 X30.65157 Y26.27167
G01 X30.65393 Y26.27736
G01 X30.65157 Y26.27167
G01 X30.24920 Y26.27167
G01 X30.03851 Y26.35892
G04 P0 ( dwell for no time -- G64 should not smooth over this point )
G00 Z0.50000 ( retract )

G00 X29.44872 Y28.11616 ( rapid move to begin. )
G01 F100.00000
( Mill infeed pass 1/1 )
G01 Z-0.17000
G04 P0 ( dwell for no time -- G64 should not smooth over this point )
G01 F200.00000
G01 X29.44872 Y28.11616
G01 X32.75080 Y28.11616
G01 X32.88179 Y28.19079
G01 X29.26859 Y28.19079
G01 X29.08850 Y28.26539
G01 X33.04028 Y28.26539
G01 X33.14087 Y28.22851
G01 X33.07064 Y28.19721
G01 X32.99903 Y28.11555
G01 X32.88778 Y27.92287
G01 X32.87208 Y27.87923
G01 X32.87859 Y27.86849
G01 X32.87208 Y27.87923
G01 X29.37704 Y27.87926
G01 X29.37468 Y27.87357
G01 X29.37704 Y27.87926
G01 X29.05980 Y28.19648
G01 X28.87969 Y28.27108
G01 X29.34613 Y27.80463
G01 X29.34380 Y27.79894
G01 X29.34613 Y27.80463
G01 X32.92631 Y27.80463
G01 X32.93635 Y27.79061
G01 X32.92631 Y27.80463
G01 X32.95596 Y27.89252
G01 X33.04859 Y28.05505
G01 X33.07188 Y28.08711
G01 X33.19784 Y28.22543
G01 X33.25611 Y28.26905
G01 X33.39505 Y28.31212
G01 X33.53401 Y28.34166
G01 X33.35799 Y28.30217
G01 X33.14087 Y28.22851
G01 X32.97536 Y28.15482
G01 X32.90188 Y28.11726
G01 X32.76815 Y28.04001
G01 X32.74994 Y28.03308
G01 X29.45675 Y28.03361
G01 X29.23996 Y28.12185
G01 X29.42007 Y28.04725
G01 X29.43854 Y28.02693
G01 X32.77478 Y28.02848
G01 X32.78054 Y28.01848
G01 X32.77478 Y28.02848
G01 X32.78809 Y28.05152
G01 X32.91651 Y28.12472
G01 X32.81994 Y27.95386
G01 X32.82588 Y27.94370
G01 X32.81994 Y27.95386
G01 X29.40796 Y27.95386
G01 X29.40559 Y27.94817
G01 X29.40796 Y27.95386
G01 X29.23996 Y28.12185
G01 X28.69759 Y28.34771
G01 X28.60316 Y28.44215
G01 X28.65858 Y28.42437
G01 X28.72947 Y28.41517
G01 X28.90834 Y28.34001
G01 X33.23299 Y28.34001
G01 X33.37663 Y28.38444
G01 X33.51839 Y28.41461
G01 X33.33767 Y28.37397
G01 X33.11313 Y28.29780
G01 X32.94229 Y28.22173
G01 X32.86708 Y28.18327
G01 X32.73950 Y28.10966
G01 X29.46442 Y28.10966
G01 X28.72947 Y28.41517
G01 X28.65858 Y28.42437
G01 X28.60316 Y28.44215
G01 X29.31522 Y27.73001
G01 X32.98052 Y27.73001
G01 X33.02413 Y27.86219
G01 X33.11976 Y28.02785
G01 X33.24775 Y28.16999
G01 X33.39243 Y28.27588
G01 X33.57726 Y28.36023
G01 X33.75247 Y28.39813
G01 X33.96754 Y28.39813
G01 X34.14277 Y28.36023
G01 X34.30678 Y28.28789
G01 X34.47226 Y28.16999
G01 X34.60683 Y28.01774
G01 X34.69591 Y27.86219
G01 X34.73952 Y27.73001
G01 X35.00332 Y27.72861
G01 X35.05948 Y27.71827
G01 X35.12636 Y27.68421
G01 X36.24327 Y26.57141
G01 X36.71368 Y26.57141
G01 X36.54970 Y26.60634
G01 X36.42046 Y26.64604
G01 X36.27414 Y26.64604
G01 X36.27180 Y26.64040
G01 X36.27414 Y26.64604
G01 X35.17018 Y27.74459
G01 X35.08255 Y27.78924
G01 X35.01498 Y27.80230
G01 X34.79372 Y27.80463
G01 X34.78407 Y27.79163
G01 X34.79372 Y27.80463
G01 X34.76408 Y27.89252
G01 X34.66063 Y28.07169
G01 X34.53622 Y28.21141
G01 X34.46390 Y28.26907
G01 X34.57919 Y28.22851
G01 X34.64940 Y28.19724
G01 X34.70358 Y28.13704
G01 X34.73606 Y28.09236
G01 X34.83223 Y27.92287
G01 X34.84793 Y27.87923
G01 X34.84178 Y27.86955
G01 X34.84793 Y27.87923
G01 X34.98531 Y27.87926
G01 X35.06530 Y27.86989
G01 X35.10561 Y27.86018
G01 X35.14391 Y27.84433
G01 X35.21402 Y27.80499
G01 X35.24546 Y27.77817
G01 X36.00954 Y27.01553
G01 X35.88638 Y27.21058
G01 X35.84696 Y27.28325
G01 X35.29817 Y27.83097
G01 X35.25783 Y27.86536
G01 X35.21264 Y27.89305
G01 X35.12867 Y27.93115
G01 X35.03832 Y27.94969
G01 X34.98531 Y27.95386
G01 X34.90007 Y27.95386
G01 X34.89492 Y27.94593
G01 X34.90007 Y27.95386
G01 X34.88430 Y27.98482
G01 X34.80350 Y28.12475
G01 X34.93088 Y28.05340
G01 X34.94526 Y28.02848
G01 X34.94046 Y28.02127
G01 X34.94526 Y28.02848
G01 X35.05001 Y28.02338
G01 X35.15171 Y28.00212
G01 X35.21165 Y27.97730
G01 X35.30167 Y27.92577
G01 X35.35087 Y27.88378
G01 X35.75511 Y27.48030
G01 X35.69171 Y27.64903
G01 X35.40360 Y27.93659
G01 X35.34549 Y27.98614
G01 X35.28039 Y28.02602
G01 X35.23969 Y28.04619
G01 X34.96027 Y28.03859
G01 X34.74470 Y28.15482
G01 X34.57919 Y28.22851
G01 X34.36207 Y28.30217
G01 X34.18600 Y28.34166
G01 X34.36207 Y28.30217
G01 X34.57919 Y28.22851
G01 X34.74470 Y28.15482
G01 X34.81818 Y28.11726
G01 X34.95966 Y28.03605
G01 X35.21788 Y28.04614
G01 X35.58074 Y28.04710
G01 X35.64183 Y27.80423
G01 X35.60495 Y27.94647
G01 X35.50901 Y28.04222
G01 X35.50180 Y28.04837
G01 X35.38641 Y28.04829
G01 X35.45631 Y27.98942
G01 X35.64183 Y27.80423
G01 X35.66774 Y27.71662
G01 X35.73037 Y27.54017
G01 X35.77033 Y27.44367
G01 X35.84681 Y27.28355
G01 X35.88539 Y27.21228
G01 X35.97635 Y27.06392
G01 X36.01533 Y27.00720
G01 X36.11932 Y26.87192
G01 X36.28389 Y26.69496
G01 X36.28236 Y26.69270
G01 X36.28389 Y26.69496
G01 X36.33908 Y26.67250
G01 X36.50975 Y26.61708
G01 X36.71368 Y26.57141
G01 X37.35638 Y26.57141
G01 X37.52036 Y26.60634
G01 X37.62524 Y26.63811
G01 X37.63794 Y26.64522
G01 X37.75196 Y26.74566
G01 X37.86832 Y26.86857
G01 X37.94939 Y26.97032
G01 X38.40306 Y27.42399
G01 X38.47614 Y27.47834
G01 X38.53542 Y27.50291
G01 X38.62551 Y27.51614
G01 X42.75086 Y27.51614
G01 X42.75395 Y27.50938
G01 X42.75086 Y27.51614
G01 X42.77052 Y27.54807
G01 X42.85299 Y27.63968
G01 X42.95271 Y27.71213
G01 X43.06531 Y27.76227
G01 X43.16627 Y27.78480
G01 X43.20569 Y27.78894
G01 X43.30915 Y27.78789
G01 X43.37128 Y27.77441
G01 X43.43280 Y27.80280
G01 X43.46775 Y27.81347
G01 X43.50409 Y27.81723
G01 X43.72098 Y27.81868
G01 X43.73097 Y27.80486
G01 X43.72098 Y27.81868
G01 X43.75096 Y27.90753
G01 X43.84359 Y28.07004
G01 X43.86688 Y28.10212
G01 X43.97879 Y28.22640
G01 X44.03043 Y28.26905
G01 X43.94255 Y28.23750
G01 X43.85212 Y28.19724
G01 X43.79403 Y28.13054
G01 X43.69535 Y27.96252
G01 X43.66665 Y27.89292
G01 X43.67295 Y27.88289
G01 X43.66665 Y27.89292
G01 X43.50361 Y27.89186
G01 X43.45294 Y27.88660
G01 X43.40422 Y27.87174
G01 X43.36183 Y27.85269
G01 X43.31695 Y27.86211
G01 X43.28934 Y27.86356
G01 X43.17808 Y27.86211
G01 X43.04224 Y27.83323
G01 X42.91540 Y27.77674
G01 X42.82454 Y27.71253
G01 X42.78349 Y27.67558
G01 X42.72754 Y27.61342
G01 X42.70938 Y27.59076
G01 X42.71199 Y27.58467
G01 X42.70938 Y27.59076
G01 X38.62551 Y27.59076
G01 X38.58419 Y27.58749
G01 X38.51518 Y27.57471
G01 X38.46765 Y27.55701
G01 X38.41348 Y27.52665
G01 X38.35031 Y27.47674
G01 X38.14485 Y27.27128
G01 X38.24078 Y27.47276
G01 X38.29755 Y27.52950
G01 X38.36961 Y27.58703
G01 X38.43910 Y27.62594
G01 X38.49493 Y27.64652
G01 X38.57253 Y27.66120
G01 X38.62551 Y27.66536
G01 X42.67389 Y27.66536
G01 X42.67661 Y27.65917
G01 X42.67389 Y27.66536
G01 X42.75312 Y27.75058
G01 X42.84834 Y27.82206
G01 X42.90968 Y27.85746
G01 X43.01921 Y27.90420
G01 X43.17029 Y27.93631
G01 X43.28934 Y27.93816
G01 X43.35413 Y27.93057
G01 X43.43815 Y27.95975
G01 X43.50310 Y27.96646
G01 X43.61423 Y27.96719
G01 X43.61987 Y27.95800
G01 X43.61463 Y27.96823
G01 X43.70366 Y28.12615
G01 X43.57443 Y28.05152
G01 X43.56924 Y28.03948
G01 X43.50262 Y28.04108
G01 X43.42335 Y28.03288
G01 X43.34478 Y28.00771
G01 X43.28934 Y28.01279
G01 X43.16249 Y28.01052
G01 X42.99614 Y27.97517
G01 X42.87935 Y27.92564
G01 X42.80448 Y27.88241
G01 X42.70321 Y27.80603
G01 X42.64070 Y27.73999
G01 X42.64245 Y27.73527
G01 X42.64070 Y27.73999
G01 X38.62551 Y27.73999
G01 X38.56085 Y27.73488
G01 X38.47466 Y27.71835
G01 X38.42866 Y27.70240
G01 X38.36677 Y27.67364
G01 X38.30316 Y27.63097
G01 X38.35879 Y27.75256
G01 X38.45442 Y27.79015
G01 X38.54919 Y27.80859
G01 X38.62551 Y27.81459
G01 X42.60747 Y27.81459
G01 X42.60895 Y27.81040
G01 X42.60747 Y27.81459
G01 X42.65327 Y27.86148
G01 X42.69297 Y27.89363
G01 X42.79785 Y27.96696
G01 X42.65705 Y27.92452
G01 X42.58418 Y27.89777
G01 X42.57585 Y27.88800
G01 X38.62551 Y27.88921
G01 X38.49887 Y27.87616
G01 X38.40725 Y27.85264
G01 X38.45597 Y27.94301
G01 X38.48721 Y27.94987
G01 X38.62551 Y27.96381
G01 X39.05193 Y27.96381
G01 X38.90461 Y28.01131
G01 X38.57169 Y28.14619
G01 X38.50161 Y28.02770
G01 X38.54876 Y28.10702
G01 X38.62551 Y28.11306
G01 X38.65399 Y28.11306
G01 X38.83433 Y28.03844
G01 X38.62551 Y28.03844
G01 X38.50161 Y28.02770
G01 X38.39900 Y27.83735
G01 X38.33679 Y27.70649
G01 X38.23248 Y27.45264
G01 X38.15442 Y27.28899
G01 X38.03176 Y27.08208
G01 X37.89867 Y26.90423
G01 X37.75196 Y26.74566
G01 X37.63291 Y26.63918
G01 X37.52036 Y26.60634
G01 X37.35638 Y26.57141
G01 X37.65602 Y26.57141
G01 X38.45582 Y27.37123
G01 X38.51259 Y27.41324
G01 X38.55569 Y27.43107
G01 X38.62551 Y27.44151
G01 X42.79393 Y27.44151
G01 X42.83087 Y27.50423
G01 X42.90290 Y27.58424
G01 X42.99002 Y27.64751
G01 X43.08837 Y27.69130
G01 X43.20569 Y27.71431
G01 X43.30135 Y27.71370
G01 X43.38560 Y27.69643
G01 X43.41629 Y27.71520
G01 X43.46134 Y27.73387
G01 X43.50458 Y27.74263
G01 X43.77531 Y27.74441
G01 X43.81913 Y27.87717
G01 X43.90821 Y28.03275
G01 X44.03424 Y28.17649
G01 X44.19751 Y28.29742
G01 X44.37226 Y28.37522
G01 X44.54747 Y28.41311
G01 X44.57143 Y28.41512
G01 X45.64801 Y28.41461
G01 X45.73017 Y28.42437
G01 X45.78771 Y28.44240
G01 X45.85987 Y28.48286
G01 X45.90612 Y28.52152
G01 X47.49474 Y30.11164
G01 X47.46372 Y30.03894
G01 X47.40188 Y29.86427
G01 X47.38298 Y29.80036
G01 X47.33670 Y29.60778
G01 X47.31704 Y29.50087
G01 X47.28923 Y29.28997
G01 X47.27574 Y29.11400
G01 X47.26936 Y28.82957
G01 X46.90195 Y28.46214
G01 X46.84927 Y28.42513
G01 X46.64061 Y28.24720
G01 X46.41046 Y28.01746
G01 X46.28384 Y27.90100
G01 X46.08006 Y27.98129
G01 X45.94615 Y28.04121
G01 X45.75646 Y28.13021
G01 X45.56604 Y28.23072
G01 X45.48834 Y28.26539
G01 X45.56604 Y28.23072
G01 X45.76159 Y28.12777
G01 X45.81681 Y28.13877
G01 X45.90190 Y28.16666
G01 X45.98181 Y28.20712
G01 X46.04920 Y28.25216
G01 X46.11714 Y28.31050
G01 X47.31917 Y29.51248
G01 X47.30241 Y29.39023
G01 X46.16992 Y28.25772
G01 X46.09654 Y28.19447
G01 X46.01699 Y28.14131
G01 X45.93048 Y28.09772
G01 X45.87109 Y28.07725
G01 X45.96627 Y28.03222
G01 X46.05217 Y28.07550
G01 X46.14389 Y28.13679
G01 X46.18176 Y28.16788
G01 X46.22268 Y28.20496
G01 X47.28765 Y29.26991
G01 X47.27574 Y29.11400
G01 X47.26936 Y28.82957
G01 X46.90195 Y28.46214
G01 X46.88526 Y28.45134
G01 X47.04927 Y28.55741
G01 X47.26919 Y28.79043
G01 X47.27107 Y28.93676
G01 X46.38095 Y28.04669
G01 X46.28588 Y27.96376
G01 X46.22570 Y27.92356
G01 X46.05509 Y27.99247
G01 X46.14145 Y27.95658
G01 X46.23856 Y28.02145
G01 X46.32819 Y28.09945
G01 X47.27391 Y29.04512
G01 X47.27894 Y29.15566
G01 X46.27544 Y28.15221
G01 X46.19121 Y28.07910
G01 X46.08732 Y28.00971
G01 X46.05509 Y27.99247
G01 X45.75646 Y28.13021
G01 X45.64371 Y28.19079
G01 X45.76289 Y28.20209
G01 X45.87335 Y28.23559
G01 X45.94663 Y28.27293
G01 X46.00188 Y28.30984
G01 X46.06439 Y28.36325
G01 X47.34546 Y29.64430
G01 X47.38250 Y29.79851
G01 X47.37881 Y29.78319
G01 X46.01163 Y28.41601
G01 X45.95453 Y28.36750
G01 X45.91148 Y28.33872
G01 X45.82040 Y28.29579
G01 X45.72268 Y28.27146
G01 X45.64801 Y28.26539
G01 X45.48834 Y28.26539
G01 X45.34166 Y28.32752
G01 X45.17252 Y28.38225
G01 X45.03035 Y28.41461
G01 X45.17252 Y28.38225
G01 X45.30272 Y28.34001
G01 X45.64801 Y28.34001
G01 X45.71537 Y28.34573
G01 X45.79873 Y28.36719
G01 X45.87630 Y28.40453
G01 X45.90721 Y28.42518
G01 X45.95888 Y28.46877
G01 X47.42791 Y29.93780
G01 X47.46372 Y30.03894
G01 X47.49474 Y30.11164
G01 X47.52504 Y30.14931
G01 X47.54554 Y30.18273
G01 X47.56873 Y30.23506
G01 X47.58628 Y30.30821
G01 X47.58973 Y30.43292
G01 X47.72641 Y30.56963
G01 X47.85928 Y30.71199
G01 X47.93512 Y30.77836
G01 X48.01752 Y30.83742
G01 X48.20388 Y30.91834
G01 X48.37937 Y30.95499
G01 X48.57066 Y30.95499
G01 X48.75775 Y30.91522
G01 X48.93250 Y30.83742
G01 X49.08727 Y30.72500
G01 X49.21526 Y30.58283
G01 X49.31091 Y30.41717
G01 X49.35450 Y30.28502
G01 X53.61002 Y30.28502
G01 X53.61002 Y31.16002
G01 X53.61875 Y31.20402
G01 X53.62940 Y31.22390
G01 X53.64370 Y31.24133
G01 X53.68101 Y31.26627
G01 X53.72500 Y31.27501
G01 X55.92502 Y31.27501
G01 X55.96902 Y31.26627
G01 X55.98890 Y31.25563
G01 X56.00633 Y31.24133
G01 X56.03127 Y31.20402
G01 X56.04001 Y31.16002
G01 X56.04001 Y29.16945
G01 X56.43793 Y28.76841
G01 X56.47564 Y28.70796
G01 X56.49391 Y28.61611
G01 X56.49391 Y11.64774
G01 X56.59599 Y11.64924
G01 X56.49391 Y11.64774
G01 X56.47564 Y11.55592
G01 X56.42363 Y11.47805
G01 X55.59774 Y10.65211
G01 X55.55238 Y10.61742
G01 X55.52878 Y10.60421
G01 X55.49787 Y10.59227
G01 X55.44603 Y10.58323
G01 X44.40221 Y10.58188
G01 X44.33196 Y10.59354
G01 X44.29050 Y10.61071
G01 X44.23251 Y10.65211
G01 X37.99062 Y16.89401
G01 X37.95775 Y16.93516
G01 X37.93149 Y16.99533
G01 X37.92275 Y17.03780
G01 X37.92183 Y17.10503
G01 X37.91452 Y17.10503
G01 X37.87091 Y16.97285
G01 X37.77528 Y16.80719
G01 X37.64726 Y16.66503
G01 X37.50261 Y16.55916
G01 X37.30614 Y16.47169
G01 X37.13065 Y16.43503
G01 X36.93936 Y16.43503
G01 X36.75226 Y16.47478
G01 X36.57751 Y16.55261
G01 X36.42275 Y16.66503
G01 X36.30233 Y16.79782
G01 X36.19913 Y16.97285
G01 X36.14312 Y17.14313
G01 X36.12064 Y17.35703
G01 X36.14000 Y17.53526
G01 X36.19913 Y17.71717
G01 X36.29476 Y17.88283
G01 X36.41424 Y18.01649
G01 X36.58823 Y18.14288
G01 X36.75226 Y18.21522
G01 X36.93936 Y18.25499
G01 X37.13065 Y18.25499
G01 X37.30614 Y18.21834
G01 X37.49252 Y18.13742
G01 X37.64726 Y18.02500
G01 X37.77528 Y17.88283
G01 X37.87091 Y17.71717
G01 X37.91452 Y17.58502
G01 X38.16031 Y17.58502
G01 X38.19598 Y17.58207
G01 X38.22872 Y17.57387
G01 X38.29979 Y17.54019
G01 X38.34558 Y17.49579
G01 X38.36384 Y17.47196
G01 X38.39562 Y17.39239
G01 X38.39989 Y17.16358
G01 X44.50163 Y11.06182
G01 X55.24067 Y11.06182
G01 X55.31997 Y11.07769
G01 X55.39840 Y11.13162
G01 X55.97811 Y11.71137
G01 X56.00468 Y11.74721
G01 X56.01392 Y11.78826
G01 X56.01392 Y12.03250
G01 X56.01392 Y11.74716
G01 X55.32863 Y11.06182
G01 X54.40938 Y11.06182
G01 X54.14169 Y11.12118
G01 X53.87179 Y11.21107
G01 X48.89291 Y11.21107
G01 X48.78666 Y11.19174
G01 X48.61749 Y11.17378
G01 X48.38943 Y11.17086
G01 X48.16535 Y11.19148
G01 X48.10157 Y11.20164
G01 X47.93238 Y11.23763
G01 X47.86027 Y11.25707
G01 X47.69334 Y11.31129
G01 X47.64599 Y11.28567
G01 X47.77223 Y11.28567
G01 X47.64599 Y11.28567
G01 X47.53129 Y11.23024
G01 X47.36573 Y11.18082
G01 X47.46708 Y11.21107
G01 X48.05714 Y11.21107
G01 X47.46657 Y11.21107
G01 X47.36037 Y11.17929
G01 X47.21105 Y11.16372
G01 X45.91844 Y11.16354
G01 X45.83762 Y11.16847
G01 X45.72202 Y11.18993
G01 X45.64699 Y11.21150
G01 X45.43818 Y11.31180
G01 X45.35781 Y11.28567
G01 X45.49053 Y11.28567
G01 X45.35781 Y11.28567
G01 X45.19769 Y11.23763
G01 X45.07292 Y11.21107
G01 X45.65039 Y11.21107
G01 X45.07292 Y11.21107
G01 X44.96668 Y11.19174
G01 X44.79553 Y11.17360
G01 X44.55052 Y11.17038
G01 X44.31230 Y11.30159
G01 X44.14499 Y11.41848
G01 X44.31230 Y11.30159
G01 X44.43825 Y11.23073
G01 X44.53254 Y11.13644
G01 X44.53020 Y11.13078
G01 X44.53254 Y11.13644
G01 X54.09455 Y11.13644
G01 X53.90798 Y11.19712
G01 X53.84596 Y11.22100
G01 X53.61423 Y11.32415
G01 X53.51997 Y11.37231
G01 X53.27555 Y11.51363
G01 X49.74876 Y11.51363
G01 X49.68023 Y11.50863
G01 X49.54266 Y11.43489
G01 X49.68023 Y11.50863
G01 X49.69466 Y11.50952
G01 X53.28251 Y11.50952
G01 X53.41157 Y11.43489
G01 X49.54266 Y11.43489
G01 X49.34767 Y11.34632
G01 X49.17782 Y11.28567
G01 X49.25887 Y11.31208
G01 X49.37906 Y11.36029
G01 X53.54337 Y11.36029
G01 X53.70059 Y11.28567
G01 X49.17782 Y11.28567
G01 X49.01767 Y11.23763
G01 X48.89291 Y11.21107
G01 X48.83390 Y11.27480
G01 X48.87749 Y11.28412
G01 X49.00713 Y11.34338
G01 X49.18711 Y11.47413
G01 X49.33598 Y11.63951
G01 X49.44724 Y11.83215
G01 X49.46293 Y11.87581
G01 X49.45712 Y11.88488
G01 X49.46293 Y11.87581
G01 X49.60032 Y11.87578
G01 X49.65061 Y11.87952
G01 X49.70350 Y11.89080
G01 X53.52338 Y11.89080
G01 X53.53351 Y11.90484
G01 X53.52338 Y11.89080
G01 X53.57872 Y11.72514
G01 X53.70626 Y11.50136
G01 X53.73874 Y11.45666
G01 X53.89709 Y11.28127
G01 X54.16198 Y11.19298
G01 X54.11753 Y11.20746
G01 X53.96209 Y11.32163
G01 X53.78169 Y11.52201
G01 X53.64690 Y11.75549
G01 X53.57758 Y11.96540
G01 X53.58782 Y11.97957
G01 X53.57758 Y11.96540
G01 X49.69265 Y11.96573
G01 X49.66756 Y11.95772
G01 X49.60032 Y11.95041
G01 X49.40873 Y11.95041
G01 X49.39872 Y11.96428
G01 X49.40873 Y11.95041
G01 X49.37906 Y11.86250
G01 X49.28643 Y11.69997
G01 X49.26314 Y11.66791
G01 X49.15122 Y11.54363
G01 X49.12176 Y11.51709
G01 X48.96982 Y11.40799
G01 X48.78082 Y11.32384
G01 X48.57845 Y11.28081
G01 X48.37157 Y11.28081
G01 X48.16921 Y11.32384
G01 X47.99789 Y11.39898
G01 X47.96357 Y11.41879
G01 X47.81282 Y11.52961
G01 X47.68689 Y11.66791
G01 X47.66360 Y11.69997
G01 X47.57995 Y11.84482
G01 X47.56385 Y11.88102
G01 X47.50703 Y12.05925
G01 X47.48539 Y12.26501
G01 X47.50391 Y12.45117
G01 X47.51216 Y12.48993
G01 X47.57096 Y12.66753
G01 X47.67439 Y12.84670
G01 X47.79880 Y12.98640
G01 X47.82827 Y13.01294
G01 X47.98021 Y13.12204
G01 X48.01026 Y13.13656
G01 X48.05217 Y13.13278
G01 X48.01026 Y13.13656
G01 X47.97117 Y13.16786
G01 X45.23391 Y15.90511
G01 X45.23625 Y15.91075
G01 X45.23391 Y15.90511
G01 X44.63645 Y15.90603
G01 X44.57021 Y15.91827
G01 X44.53462 Y15.92907
G01 X44.46129 Y15.97369
G01 X44.42408 Y16.00633
G01 X44.36950 Y16.08802
G01 X44.36000 Y16.11096
G01 X44.34407 Y16.18274
G01 X44.34041 Y16.21972
G01 X44.34041 Y16.40722
G01 X44.35111 Y16.41451
G01 X44.34041 Y16.40722
G01 X44.33069 Y16.41095
G01 X44.16020 Y16.48799
G01 X43.99284 Y16.60958
G01 X43.85441 Y16.76333
G01 X43.75096 Y16.94250
G01 X43.68702 Y17.13925
G01 X43.66541 Y17.34501
G01 X43.68702 Y17.55075
G01 X43.75096 Y17.74753
G01 X43.85441 Y17.92670
G01 X43.97879 Y18.06640
G01 X44.00826 Y18.09294
G01 X44.14356 Y18.19124
G01 X44.17788 Y18.21105
G01 X44.34920 Y18.28619
G01 X44.53195 Y18.32609
G01 X44.57140 Y18.33025
G01 X44.75845 Y18.32921
G01 X44.96081 Y18.28619
G01 X45.04346 Y18.25052
G01 X45.11834 Y18.19909
G01 X45.27744 Y18.06607
G01 X45.41869 Y17.92012
G01 X45.56678 Y17.72723
G01 X45.62301 Y17.55075
G01 X45.64359 Y17.36483
G01 X45.64359 Y17.32520
G01 X45.62611 Y17.15886
G01 X45.61786 Y17.12010
G01 X45.55908 Y16.94250
G01 X45.46645 Y16.77997
G01 X45.44313 Y16.74791
G01 X45.31720 Y16.60958
G01 X45.21539 Y16.53435
G01 X45.07607 Y16.49267
G01 X45.21539 Y16.53435
G01 X45.36424 Y16.53435
G01 X45.43251 Y16.52589
G01 X45.47541 Y16.51380
G01 X45.51361 Y16.49655
G01 X45.56406 Y16.46153
G01 X47.43667 Y14.59221
G01 X47.34351 Y14.79089
G01 X45.63945 Y16.49495
G01 X45.60792 Y16.52188
G01 X45.55009 Y16.56165
G01 X45.47457 Y16.59292
G01 X45.41427 Y16.60432
G01 X45.35413 Y16.58761
G01 X45.41427 Y16.60432
G01 X45.49858 Y16.69797
G01 X45.53106 Y16.74268
G01 X45.62723 Y16.91215
G01 X45.68882 Y17.09703
G01 X45.70030 Y17.15106
G01 X45.71925 Y17.34501
G01 X45.70576 Y17.48700
G01 X45.79093 Y17.29952
G01 X45.76896 Y17.10824
G01 X45.70810 Y16.91492
G01 X45.67930 Y16.85020
G01 X45.57635 Y16.67562
G01 X45.55065 Y16.64415
G01 X45.52388 Y16.63813
G01 X45.55065 Y16.64415
G01 X45.58654 Y16.62675
G01 X45.65179 Y16.58225
G01 X45.69220 Y16.54771
G01 X47.28262 Y14.95731
G01 X47.23584 Y15.10964
G01 X45.74498 Y16.60049
G01 X45.66030 Y16.66805
G01 X45.63731 Y16.66353
G01 X45.66030 Y16.66805
G01 X45.76358 Y16.85147
G01 X45.83076 Y17.05091
G01 X45.84889 Y17.13704
G01 X45.89096 Y16.99472
G01 X45.83172 Y16.82111
G01 X45.75766 Y16.68746
G01 X45.73896 Y16.68482
G01 X45.75766 Y16.68746
G01 X45.79774 Y16.65325
G01 X47.20249 Y15.24850
G01 X47.17589 Y15.38060
G01 X45.85303 Y16.70346
G01 X45.83680 Y16.70059
G01 X45.85303 Y16.70346
G01 X45.87315 Y16.73828
G01 X45.89990 Y16.79076
G01 X45.92431 Y16.85584
G01 X45.95143 Y16.72782
G01 X45.94181 Y16.71451
G01 X45.94562 Y16.71639
G01 X45.95900 Y16.70303
G04 P0 ( dwell for no time -- G64 should not smooth over this point )
G00 Z0.50000 ( retract )

G00 X45.08562 Y18.31209 ( rapid move to begin. )
G01 F100.00000
( Mill infeed pass 1/1 )
G01 Z-0.17000
G04 P0 ( dwell for no time -- G64 should not smooth over this point )
G01 F200.00000
G01 X45.08562 Y18.31209
G01 X44.95260 Y18.44511
G01 X44.95492 Y18.45063
G01 X44.95260 Y18.44511
G01 X44.65502 Y18.44511
G01 X44.61804 Y18.44877
G01 X44.53462 Y18.46907
G01 X44.46129 Y18.51369
G01 X44.42408 Y18.54633
G01 X44.36950 Y18.62802
G01 X44.36000 Y18.65096
G01 X44.34407 Y18.72274
G01 X44.34041 Y18.75972
G01 X44.34041 Y18.94722
G01 X44.35111 Y18.95451
G01 X44.34041 Y18.94722
G01 X44.33069 Y18.95095
G01 X44.17788 Y19.01898
G01 X44.14356 Y19.03879
G01 X43.99284 Y19.14958
G01 X43.85441 Y19.30333
G01 X43.75096 Y19.48250
G01 X43.69215 Y19.66010
G01 X43.68392 Y19.69886
G01 X43.66541 Y19.88501
G01 X43.68702 Y20.09075
G01 X43.74384 Y20.26899
G01 X43.75997 Y20.30521
G01 X43.85441 Y20.46670
G01 X43.97879 Y20.60640
G01 X44.00826 Y20.63294
G01 X44.16020 Y20.74204
G01 X44.33069 Y20.81907
G01 X44.36838 Y20.83134
G01 X44.55156 Y20.86921
G01 X44.73863 Y20.87025
G01 X44.77806 Y20.86609
G01 X44.96081 Y20.82619
G01 X45.04346 Y20.79052
G01 X45.11834 Y20.73909
G01 X44.97978 Y20.83431
G01 X44.91069 Y20.87483
G01 X44.78766 Y20.88776
G01 X44.65319 Y20.89042
G01 X44.51415 Y20.90038
G01 X44.38778 Y20.92034
G01 X44.17155 Y20.97914
G01 X44.02281 Y21.03243
G01 X43.81796 Y21.11773
G01 X43.78692 Y21.11773
G01 X43.64334 Y21.00858
G01 X43.59066 Y20.95590
G01 X43.47874 Y20.83160
G01 X43.43186 Y20.77371
G01 X43.39127 Y20.71120
G01 X43.30762 Y20.56637
G01 X43.27382 Y20.49997
G01 X43.24710 Y20.43040
G01 X43.19541 Y20.27135
G01 X43.17613 Y20.19936
G01 X43.16447 Y20.12576
G01 X43.14699 Y19.95944
G01 X43.14308 Y19.88501
G01 X43.14699 Y19.81059
G01 X43.16447 Y19.64427
G01 X43.17613 Y19.57066
G01 X43.19541 Y19.49868
G01 X43.24710 Y19.33963
G01 X43.27382 Y19.27005
G01 X43.30762 Y19.20366
G01 X43.39127 Y19.05883
G01 X43.43186 Y18.99632
G01 X43.47874 Y18.93841
G01 X43.59066 Y18.81412
G01 X43.64334 Y18.76145
G01 X43.78687 Y18.65233
G01 X43.43633 Y18.65233
G01 X43.39020 Y18.70219
G01 X43.21905 Y18.98530
G01 X43.03280 Y19.27480
G01 X42.98253 Y19.42952
G01 X42.95718 Y19.52413
G01 X42.94186 Y19.62088
G01 X42.92436 Y19.78720
G01 X42.91926 Y19.88501
G01 X42.92436 Y19.98283
G01 X42.94186 Y20.14915
G01 X42.95718 Y20.24590
G01 X42.98253 Y20.34051
G01 X43.03422 Y20.49957
G01 X43.06932 Y20.59101
G01 X43.11377 Y20.67828
G01 X43.19741 Y20.82311
G01 X43.25075 Y20.90528
G01 X43.31240 Y20.98138
G01 X43.43635 Y21.11773
G01 X43.33473 Y21.11773
G01 X43.25695 Y21.03132
G01 X43.19038 Y20.94912
G01 X43.13280 Y20.86042
G01 X43.04915 Y20.71559
G01 X43.00115 Y20.62136
G01 X42.96325 Y20.52263
G01 X42.91156 Y20.36358
G01 X42.88421 Y20.26142
G01 X42.86765 Y20.15695
G01 X42.85017 Y19.99063
G01 X42.84463 Y19.88501
G01 X42.85017 Y19.77940
G01 X42.86765 Y19.61308
G01 X42.89190 Y19.47986
G01 X42.79119 Y19.62665
G01 X42.77595 Y19.77160
G01 X42.77001 Y19.88501
G01 X42.77595 Y19.99843
G01 X42.79345 Y20.16474
G01 X42.81121 Y20.27694
G01 X42.84059 Y20.38661
G01 X42.89228 Y20.54569
G01 X42.93297 Y20.65171
G01 X42.98454 Y20.75291
G01 X43.06818 Y20.89774
G01 X43.13003 Y20.99299
G01 X43.23434 Y21.11773
G01 X43.13516 Y21.11773
G01 X43.06965 Y21.03685
G01 X43.00356 Y20.93505
G01 X42.91992 Y20.79019
G01 X42.86483 Y20.68207
G01 X42.82132 Y20.56873
G01 X42.76965 Y20.40968
G01 X42.73823 Y20.29243
G01 X42.71923 Y20.17254
G01 X42.70176 Y20.00622
G01 X42.69541 Y19.88501
G01 X42.70328 Y19.74923
G01 X42.62213 Y19.85921
G01 X42.62754 Y20.01402
G01 X42.64504 Y20.18037
G01 X42.66523 Y20.30795
G01 X42.69868 Y20.43274
G01 X42.75035 Y20.59179
G01 X42.79665 Y20.71239
G01 X42.85530 Y20.82751
G01 X42.93892 Y20.97236
G01 X43.00930 Y21.08069
G01 X43.03927 Y21.11773
G01 X42.94448 Y21.11773
G01 X42.87430 Y21.00965
G01 X42.79068 Y20.86482
G01 X42.72850 Y20.74275
G01 X42.67941 Y20.61486
G01 X42.62772 Y20.45580
G01 X42.59226 Y20.32347
G01 X42.57082 Y20.18816
G01 X42.54997 Y19.95674
G01 X42.48126 Y20.04973
G01 X42.49663 Y20.19596
G01 X42.51928 Y20.33899
G01 X42.55675 Y20.47884
G01 X42.60844 Y20.63792
G01 X42.66033 Y20.77310
G01 X42.72607 Y20.90213
G01 X42.80968 Y21.04696
G01 X42.85563 Y21.11773
G01 X42.76678 Y21.11773
G01 X42.66145 Y20.93944
G01 X42.59216 Y20.80345
G01 X42.53747 Y20.66096
G01 X42.48578 Y20.50190
G01 X42.44628 Y20.35448
G01 X42.41565 Y20.13919
G01 X42.35045 Y20.22558
G01 X42.37331 Y20.37000
G01 X42.41481 Y20.52497
G01 X42.46650 Y20.68402
G01 X42.52401 Y20.83381
G01 X42.59683 Y20.97673
G01 X42.67824 Y21.11773
G01 X42.59208 Y21.11773
G01 X42.53221 Y21.01404
G01 X42.45583 Y20.86416
G01 X42.39554 Y20.70709
G01 X42.34387 Y20.54803
G01 X42.30031 Y20.38552
G01 X42.28776 Y20.30612
G01 X42.22500 Y20.38628
G01 X42.27290 Y20.57109
G01 X42.32459 Y20.73015
G01 X42.38766 Y20.89449
G01 X42.46760 Y21.05136
G01 X42.50590 Y21.11773
G01 X42.41974 Y21.11773
G01 X42.40298 Y21.08867
G01 X42.31951 Y20.92484
G01 X42.25363 Y20.75321
G01 X42.20194 Y20.59413
G01 X42.16635 Y20.46121
G01 X42.10897 Y20.53500
G01 X42.13097 Y20.61719
G01 X42.18266 Y20.77625
G01 X42.25134 Y20.95519
G01 X42.33414 Y21.11773
G01 X42.25053 Y21.11773
G01 X42.18319 Y20.98555
G01 X42.11169 Y20.79931
G01 X42.05185 Y20.60970
G01 X41.99587 Y20.68428
G01 X42.04072 Y20.82238
G01 X42.10552 Y20.99116
G04 P0 ( dwell for no time -- G64 should not smooth over this point )
G00 Z0.50000 ( retract )

G00 X43.78692 Y18.57773 ( rapid move to begin. )
G01 F100.00000
( Mill infeed pass 1/1 )
G01 Z-0.17000
G04 P0 ( dwell for no time -- G64 should not smooth over this point )
G01 F200.00000
G01 X43.78692 Y18.57773
G01 X43.64334 Y18.46858
G01 X43.59066 Y18.41590
G01 X43.47874 Y18.29160
G01 X43.43186 Y18.23371
G01 X43.39127 Y18.17120
G01 X43.30762 Y18.02637
G01 X43.27382 Y17.95997
G01 X43.24710 Y17.89040
G01 X43.19541 Y17.73135
G01 X43.17613 Y17.65936
G01 X43.16340 Y17.57552
G01 X43.22147 Y17.41410
G01 X43.24913 Y17.64385
G01 X43.31806 Y17.86734
G01 X43.34196 Y17.92962
G01 X43.37227 Y17.98906
G01 X43.49221 Y18.18984
G01 X43.53419 Y18.24168
G01 X43.69327 Y18.41313
G01 X43.87958 Y18.55278
G01 X43.96251 Y18.51788
G01 X43.78898 Y18.39475
G01 X43.74318 Y18.35769
G01 X43.58964 Y18.19175
G01 X43.55258 Y18.14598
G01 X43.52050 Y18.09657
G01 X43.43688 Y17.95174
G01 X43.41014 Y17.89927
G01 X43.38903 Y17.84428
G01 X43.32210 Y17.62833
G01 X43.31288 Y17.57016
G01 X43.29233 Y17.34501
G01 X43.30122 Y17.23089
G01 X43.34608 Y17.13684
G01 X43.41141 Y17.01832
G01 X43.39508 Y17.07720
G01 X43.38710 Y17.12767
G01 X43.36960 Y17.29399
G01 X43.36693 Y17.34501
G01 X43.36960 Y17.39604
G01 X43.39508 Y17.61281
G01 X43.46000 Y17.82121
G01 X43.47829 Y17.86891
G01 X43.50150 Y17.91443
G01 X43.61293 Y18.10211
G01 X43.64509 Y18.14184
G01 X43.79312 Y18.30224
G01 X43.96813 Y18.43269
G01 X44.01098 Y18.46051
G01 X44.05261 Y18.48171
G01 X44.15398 Y18.44542
G01 X44.04829 Y18.39589
G01 X43.87669 Y18.27402
G01 X43.81245 Y18.21618
G01 X43.70054 Y18.09190
G01 X43.64974 Y18.02197
G01 X43.54646 Y17.83856
G01 X43.47928 Y17.63912
G01 X43.46129 Y17.55456
G01 X43.44156 Y17.34501
G01 X43.46808 Y17.09272
G01 X43.54646 Y16.85147
G01 X43.63820 Y16.68802
G01 X43.23391 Y17.19868
G01 X42.78901 Y17.64357
G01 X42.76523 Y17.64181
G01 X42.78901 Y17.64357
G01 X42.83285 Y17.69685
G01 X42.86493 Y17.74626
G01 X42.93348 Y17.87115
G01 X42.98042 Y18.00567
G01 X42.99566 Y18.06256
G01 X43.01362 Y18.20389
G01 X43.01669 Y18.26272
G01 X43.00488 Y18.40470
G01 X42.99566 Y18.46287
G01 X42.98042 Y18.51976
G01 X42.93348 Y18.65428
G01 X42.86493 Y18.77917
G01 X42.83285 Y18.82858
G01 X42.79579 Y18.87435
G01 X42.69818 Y18.97813
G01 X42.58477 Y19.06434
G01 X42.53536 Y19.09642
G01 X42.48289 Y19.12317
G01 X42.35149 Y19.17828
G01 X42.21281 Y19.21092
G01 X42.15464 Y19.22012
G01 X42.09582 Y19.22322
G01 X41.95337 Y19.22012
G01 X41.81342 Y19.19352
G01 X41.75652 Y19.17828
G01 X41.70153 Y19.15718
G01 X41.57268 Y19.09642
G01 X41.45561 Y19.01519
G01 X41.40984 Y18.97813
G01 X41.36821 Y18.93648
G01 X41.27519 Y18.82858
G01 X41.20130 Y18.70676
G01 X41.17456 Y18.65428
G01 X41.15345 Y18.59929
G01 X41.11235 Y18.46287
G01 X41.09439 Y18.32154
G01 X41.09132 Y18.26272
G01 X41.09439 Y18.20389
G01 X41.11235 Y18.06256
G01 X41.15345 Y17.92614
G01 X41.17456 Y17.87115
G01 X41.20130 Y17.81867
G01 X41.27519 Y17.69685
G01 X41.36633 Y17.59101
G01 X41.37047 Y17.59264
G01 X41.36633 Y17.59101
G01 X41.36633 Y17.40605
G01 X41.36905 Y17.35088
G01 X41.38665 Y17.24842
G01 X41.41868 Y17.14288
G01 X41.47067 Y17.04560
G01 X41.53067 Y16.96069
G01 X41.56775 Y16.91977
G01 X43.33856 Y15.14896
G01 X43.34674 Y15.15172
G01 X43.33734 Y15.14522
G01 X43.32210 Y15.08833
G01 X43.31288 Y15.03016
G01 X43.29233 Y14.80501
G01 X43.31288 Y14.57987
G01 X43.32210 Y14.52170
G01 X43.33734 Y14.46481
G01 X43.41014 Y14.25076
G01 X43.52050 Y14.05343
G01 X43.55258 Y14.00405
G01 X43.70155 Y13.83397
G01 X43.74318 Y13.79234
G01 X43.92426 Y13.65696
G01 X43.97366 Y13.62488
G01 X44.08415 Y13.57233
G01 X44.70958 Y13.57233
G01 X44.86680 Y13.72231
G01 X44.82230 Y13.68076
G01 X44.73863 Y13.67055
G01 X44.53597 Y13.67240
G01 X44.30310 Y13.72191
G01 X44.11720 Y13.80265
G01 X44.05586 Y13.83806
G01 X43.89297 Y13.95869
G01 X43.75598 Y14.10806
G01 X43.71435 Y14.16537
G01 X43.61463 Y14.34179
G01 X43.55024 Y14.53397
G01 X43.53551 Y14.60326
G01 X43.51616 Y14.80501
G01 X43.53551 Y15.00677
G01 X43.55024 Y15.07606
G01 X43.59383 Y15.21025
G01 X43.60610 Y15.21327
G01 X43.59383 Y15.21025
G01 X41.72604 Y17.07806
G01 X41.70369 Y17.10270
G01 X41.65680 Y17.16996
G01 X41.62548 Y17.22853
G01 X41.60620 Y17.29211
G01 X41.59180 Y17.37283
G01 X41.59018 Y17.68916
G01 X41.59549 Y17.69132
G01 X41.58718 Y17.69132
G01 X41.53455 Y17.73871
G01 X41.47860 Y17.80087
G01 X41.43696 Y17.85817
G01 X41.37905 Y17.96221
G01 X41.34050 Y18.07483
G01 X41.32576 Y18.14412
G01 X41.31517 Y18.26272
G01 X41.33130 Y18.41634
G01 X41.37905 Y18.56322
G01 X41.43696 Y18.66726
G01 X41.47860 Y18.72456
G01 X41.55962 Y18.81179
G01 X41.68459 Y18.90257
G01 X41.82569 Y18.96541
G01 X41.97679 Y18.99751
G01 X42.13125 Y18.99751
G01 X42.28233 Y18.96541
G01 X42.42342 Y18.90257
G01 X42.54839 Y18.81179
G01 X42.65175 Y18.69701
G01 X42.72899 Y18.56322
G01 X42.77671 Y18.41634
G01 X42.79287 Y18.26272
G01 X42.77671 Y18.10910
G01 X42.72899 Y17.96221
G01 X42.65175 Y17.82843
G01 X42.54839 Y17.71364
G01 X42.51786 Y17.68916
G01 X42.51248 Y17.69134
G01 X42.51786 Y17.68916
G01 X42.51786 Y17.59818
G01 X42.51220 Y17.59581
G01 X42.51786 Y17.59818
G01 X44.24064 Y15.87540
G01 X44.24295 Y15.87893
G01 X44.24064 Y15.87540
G01 X44.24966 Y15.86635
G01 X44.24798 Y15.86313
G01 X44.26376 Y15.87263
G01 X44.40899 Y15.83625
G01 X44.35286 Y15.82432
G01 X44.30033 Y15.80725
G01 X44.23317 Y15.77735
G01 X44.23015 Y15.76455
G01 X44.23317 Y15.77735
G01 X42.44326 Y17.56726
G01 X42.43757 Y17.56490
G01 X42.44326 Y17.56726
G01 X42.44326 Y17.72718
G01 X42.43610 Y17.73056
G01 X42.44326 Y17.72718
G01 X42.49848 Y17.76909
G01 X42.57397 Y17.85080
G01 X42.60646 Y17.89548
G01 X42.64827 Y17.96790
G01 X42.67072 Y18.01837
G01 X42.70374 Y18.12462
G01 X42.71679 Y18.23508
G01 X42.71679 Y18.29033
G01 X42.70374 Y18.40082
G01 X42.66081 Y18.53287
G01 X42.59139 Y18.65314
G01 X42.51801 Y18.73678
G01 X42.47697 Y18.77374
G01 X42.38614 Y18.83795
G01 X42.28510 Y18.88453
G01 X42.23254 Y18.90160
G01 X42.15076 Y18.91898
G01 X42.09582 Y18.92474
G01 X41.98459 Y18.92329
G01 X41.84875 Y18.89444
G01 X41.72190 Y18.83795
G01 X41.60956 Y18.75634
G01 X41.51664 Y18.65314
G01 X41.44720 Y18.53287
G01 X41.40430 Y18.40082
G01 X41.39122 Y18.29033
G01 X41.39122 Y18.23508
G01 X41.40430 Y18.12462
G01 X41.43729 Y18.01837
G01 X41.45977 Y17.96790
G01 X41.50158 Y17.89548
G01 X41.53404 Y17.85080
G01 X41.60956 Y17.76909
G01 X41.66480 Y17.72718
G01 X41.67082 Y17.72977
G01 X41.66480 Y17.72718
G01 X41.66478 Y17.40605
G01 X41.66986 Y17.35449
G01 X41.69442 Y17.25708
G01 X41.74593 Y17.17085
G01 X41.77880 Y17.13082
G01 X43.67973 Y15.22988
G01 X43.69221 Y15.23290
G01 X43.67973 Y15.22988
G01 X43.67288 Y15.21205
G01 X43.62119 Y15.05299
G01 X43.60971 Y14.99897
G01 X43.59078 Y14.80501
G01 X43.61405 Y14.58375
G01 X43.67288 Y14.39798
G01 X43.69535 Y14.34751
G01 X43.79403 Y14.17946
G01 X43.94290 Y14.01413
G01 X44.12289 Y13.88338
G01 X44.32614 Y13.79287
G01 X44.51646 Y13.75094
G01 X44.57140 Y13.74517
G01 X44.76624 Y13.74662
G01 X44.94021 Y13.78282
G01 X44.86680 Y13.72231
G01 X44.94021 Y13.78282
G01 X44.99421 Y13.82155
G01 X45.07892 Y13.87677
G01 X45.16436 Y13.92262
G01 X45.31041 Y14.02602
G01 X45.43454 Y14.15178
G01 X45.46213 Y14.18645
G01 X45.53553 Y14.29668
G01 X45.59428 Y14.41533
G01 X45.61051 Y14.45655
G01 X45.67290 Y14.66811
G01 X45.72227 Y14.78756
G01 X45.81305 Y14.96717
G01 X45.79934 Y14.99592
G01 X45.76025 Y15.06806
G01 X45.67140 Y15.21307
G01 X45.54399 Y15.38495
G01 X45.67140 Y15.21307
G01 X45.76358 Y15.06191
G01 X45.77452 Y15.00677
G01 X45.78443 Y14.91258
G01 X45.72936 Y14.80108
G01 X45.71925 Y14.80501
G01 X45.64463 Y14.80501
G01 X45.62301 Y14.59925
G01 X45.56619 Y14.42102
G01 X45.55006 Y14.38482
G01 X45.45563 Y14.22333
G01 X45.31720 Y14.06958
G01 X45.14981 Y13.94799
G01 X44.97935 Y13.87095
G01 X44.94166 Y13.85869
G01 X44.75845 Y13.82081
G01 X44.55156 Y13.82081
G01 X44.34920 Y13.86384
G01 X44.17788 Y13.93898
G01 X44.14356 Y13.95879
G01 X43.99284 Y14.06958
G01 X43.86688 Y14.20791
G01 X43.84359 Y14.23997
G01 X43.75096 Y14.40250
G01 X43.68702 Y14.59925
G01 X43.66541 Y14.80501
G01 X43.68392 Y14.99117
G01 X43.69215 Y15.02993
G01 X43.75096 Y15.20755
G01 X43.77092 Y15.24421
G01 X43.78395 Y15.24720
G01 X43.77092 Y15.24421
