( pcb2gcode 2.4.0 )
( Software-independent Gcode )

G94 ( Millimeters per minute feed rate. )
G21 ( Units == Millimeters. )

G90 ( Absolute coordinates. )
G00 S1000 ( RPM spindle speed. )
G64 P0.01016 ( set maximum deviation from commanded toolpath )
G01 F200.00000 ( Feedrate. )


G00 Z0.50000 (Retract to tool change height)
T0
M5      (Spindle stop.)
G04 P1.00000 (Wait for spindle to stop)
(MSG, Change tool bit to mill diameter 0.15000mm)
M6      (Tool change.)
M0      (Temporary machine stop.)
M3 ( Spindle on clockwise. )
G04 P1.00000 (Wait for spindle to get up to speed)
G04 P0 ( dwell for no time -- G64 should not smooth over this point )
G00 Z0.50000 ( retract )

G00 X4.04504 Y65.67931 ( rapid move to begin. )
G01 F100.00000
( Mill infeed pass 1/1 )
G01 Z-0.17000
G04 P0 ( dwell for no time -- G64 should not smooth over this point )
G01 F200.00000
G01 X4.04504 Y65.67931
G01 X4.07219 Y65.94426
G01 X4.13638 Y66.20268
G01 X4.23856 Y66.45340
G01 X4.37024 Y66.68002
G01 X4.53506 Y66.88914
G01 X4.73137 Y67.07562
G01 X4.94463 Y67.22800
G01 X5.18098 Y67.35078
G01 X5.43234 Y67.43905
G01 X5.69363 Y67.49101
G01 X5.95962 Y67.50565
G01 X6.22502 Y67.48266
G01 X6.37778 Y67.44728
G01 X6.48451 Y67.42251
G01 X6.73294 Y67.32640
G01 X6.96538 Y67.19622
G01 X7.17714 Y67.03460
G01 X7.36398 Y66.84481
G01 X7.52225 Y66.63051
G01 X7.64869 Y66.39620
G01 X7.74188 Y66.14194
G01 X7.79703 Y65.88573
G01 X7.81600 Y65.61776
G01 X7.81239 Y65.50385
G01 X7.77666 Y65.23760
G01 X7.70434 Y64.98119
G01 X7.59662 Y64.73755
G01 X7.45796 Y64.51523
G01 X7.28425 Y64.30766
G01 X7.08225 Y64.12750
G01 X6.86436 Y63.98193
G01 X6.62433 Y63.86666
G01 X6.36597 Y63.78556
G01 X6.10744 Y63.74253
G01 X5.84118 Y63.73626
G01 X5.57658 Y63.76758
G01 X5.31910 Y63.83585
G01 X5.07379 Y63.93971
G01 X4.84557 Y64.07710
G01 X4.63902 Y64.24528
G01 X4.45817 Y64.44093
G01 X4.30674 Y64.66003
G01 X4.18766 Y64.89836
G01 X4.10336 Y65.15101
G01 X4.05551 Y65.41307
G01 X4.04504 Y65.67931
G01 X4.11962 Y65.67690
G01 X4.12967 Y65.42125
G01 X4.17562 Y65.16958
G01 X4.25660 Y64.92688
G01 X4.37097 Y64.69801
G01 X4.51644 Y64.48754
G01 X4.69007 Y64.29968
G01 X4.88847 Y64.13814
G01 X5.10770 Y64.00619
G01 X5.34329 Y63.90644
G01 X5.59055 Y63.84088
G01 X5.84468 Y63.81081
G01 X6.10038 Y63.81701
G01 X6.34857 Y63.85831
G01 X6.59685 Y63.93623
G01 X6.82728 Y64.04690
G01 X7.03645 Y64.18663
G01 X7.23051 Y64.35973
G01 X7.39741 Y64.55912
G01 X7.53050 Y64.77255
G01 X7.63396 Y65.00656
G01 X7.70366 Y65.25267
G01 X7.73795 Y65.51004
G01 X7.74158 Y65.61627
G01 X7.72296 Y65.87519
G01 X7.67003 Y66.12114
G01 X7.58049 Y66.36546
G01 X7.45908 Y66.59046
G01 X7.30709 Y66.79625
G01 X7.12766 Y66.97849
G01 X6.92431 Y67.13371
G01 X6.70109 Y67.25873
G01 X6.46249 Y67.35104
G01 X6.21326 Y67.40880
G01 X5.95845 Y67.43087
G01 X5.70295 Y67.41700
G01 X5.45207 Y67.36709
G01 X5.21067 Y67.28233
G01 X4.98357 Y67.16435
G01 X4.77887 Y67.01807
G01 X4.59018 Y66.83887
G01 X4.43193 Y66.63808
G01 X4.30557 Y66.42053
G01 X4.20732 Y66.17956
G01 X4.14570 Y65.93145
G01 X4.11962 Y65.67690
G01 X4.13351 Y65.62000
G01 X4.17278 Y65.99353
G01 X4.28883 Y66.35071
G01 X4.47659 Y66.67595
G01 X4.72792 Y66.95507
G01 X5.03173 Y67.17583
G01 X5.37486 Y67.32856
G01 X5.74219 Y67.40666
G01 X6.11776 Y67.40666
G01 X6.48509 Y67.32856
G01 X6.82822 Y67.17583
G01 X7.13203 Y66.95507
G01 X7.38336 Y66.67595
G01 X7.57112 Y66.35071
G01 X7.68717 Y65.99353
G01 X7.72644 Y65.62000
G01 X7.68717 Y65.24652
G01 X7.57112 Y64.88934
G01 X7.38336 Y64.56410
G01 X7.13203 Y64.28498
G01 X6.82822 Y64.06422
G01 X6.48509 Y63.91149
G01 X6.11776 Y63.83339
G01 X5.74219 Y63.83339
G01 X5.37486 Y63.91149
G01 X5.03173 Y64.06422
G01 X4.72792 Y64.28498
G01 X4.47659 Y64.56410
G01 X4.28883 Y64.88934
G01 X4.17278 Y65.24652
G01 X4.13394 Y65.62000
G04 P0 ( dwell for no time -- G64 should not smooth over this point )
G00 Z0.50000 ( retract )

G00 X11.37972 Y60.39001 ( rapid move to begin. )
G01 F100.00000
( Mill infeed pass 1/1 )
G01 Z-0.17000
G04 P0 ( dwell for no time -- G64 should not smooth over this point )
G01 F200.00000
G01 X11.37972 Y60.39001
G01 X11.38645 Y60.35128
G01 X11.40840 Y60.31844
G01 X11.44124 Y60.29652
G01 X11.47012 Y60.29001
G01 X13.08000 Y60.28976
G01 X13.11871 Y60.29652
G01 X13.15155 Y60.31844
G01 X13.17350 Y60.35128
G01 X13.18023 Y60.39001
G01 X13.18023 Y61.99001
G01 X13.17350 Y62.02880
G01 X13.15155 Y62.06164
G01 X13.11873 Y62.08353
G01 X13.08000 Y62.09029
G01 X11.47998 Y62.09029
G01 X11.44122 Y62.08353
G01 X11.40840 Y62.06164
G01 X11.38645 Y62.02880
G01 X11.37972 Y61.99001
G01 X11.37972 Y60.39001
G04 P0 ( dwell for no time -- G64 should not smooth over this point )
G00 Z0.50000 ( retract )

G00 X11.37794 Y58.66076 ( rapid move to begin. )
G01 F100.00000
( Mill infeed pass 1/1 )
G01 Z-0.17000
G04 P0 ( dwell for no time -- G64 should not smooth over this point )
G01 F200.00000
G01 X11.37794 Y58.66076
G01 X11.39324 Y58.48727
G01 X11.44213 Y58.31831
G01 X11.46171 Y58.27414
G01 X11.52283 Y58.16208
G01 X11.55793 Y58.11240
G01 X11.63222 Y58.02449
G01 X11.68556 Y57.97414
G01 X11.76613 Y57.91074
G01 X11.83908 Y57.86538
G01 X11.91957 Y57.82507
G01 X12.01185 Y57.79083
G01 X12.08666 Y57.77079
G01 X12.17545 Y57.75608
G01 X12.26113 Y57.74989
G01 X12.36359 Y57.75385
G01 X12.43636 Y57.76322
G01 X12.54812 Y57.79065
G01 X12.60573 Y57.81021
G01 X12.72105 Y57.86497
G01 X12.76283 Y57.88918
G01 X12.90169 Y57.99713
G01 X13.01602 Y58.12850
G01 X13.10438 Y58.28298
G01 X13.16006 Y58.45202
G01 X13.18256 Y58.64574
G01 X13.16489 Y58.82525
G01 X13.11350 Y58.99360
G01 X13.03054 Y59.14869
G01 X13.00220 Y59.18781
G01 X12.91914 Y59.28473
G01 X12.87449 Y59.32603
G01 X12.78353 Y59.39657
G01 X12.72089 Y59.43472
G01 X12.62887 Y59.48001
G01 X12.54807 Y59.50919
G01 X12.46100 Y59.53187
G01 X12.36362 Y59.54620
G01 X12.28627 Y59.55024
G01 X12.19636 Y59.54615
G01 X12.11127 Y59.53441
G01 X12.01185 Y59.50924
G01 X11.94264 Y59.48496
G01 X11.83898 Y59.43485
G01 X11.78676 Y59.40376
G01 X11.68534 Y59.32621
G01 X11.64950 Y59.29385
G01 X11.53608 Y59.15938
G01 X11.45082 Y59.00538
G01 X11.39727 Y58.83764
G01 X11.37794 Y58.66076
G04 P0 ( dwell for no time -- G64 should not smooth over this point )
G00 Z0.50000 ( retract )

G00 X11.37794 Y53.58076 ( rapid move to begin. )
G01 F100.00000
( Mill infeed pass 1/1 )
G01 Z-0.17000
G04 P0 ( dwell for no time -- G64 should not smooth over this point )
G01 F200.00000
G01 X11.37794 Y53.58076
G01 X11.39324 Y53.40727
G01 X11.44213 Y53.23831
G01 X11.46171 Y53.19414
G01 X11.52283 Y53.08208
G01 X11.55793 Y53.03240
G01 X11.63222 Y52.94449
G01 X11.68556 Y52.89414
G01 X11.76613 Y52.83074
G01 X11.83908 Y52.78538
G01 X11.91957 Y52.74507
G01 X12.01185 Y52.71083
G01 X12.08666 Y52.69079
G01 X12.17545 Y52.67608
G01 X12.26113 Y52.66989
G01 X12.36359 Y52.67385
G01 X12.43636 Y52.68322
G01 X12.54812 Y52.71065
G01 X12.60573 Y52.73021
G01 X12.72105 Y52.78497
G01 X12.76283 Y52.80918
G01 X12.90169 Y52.91713
G01 X13.01602 Y53.04850
G01 X13.10438 Y53.20298
G01 X13.16006 Y53.37202
G01 X13.18256 Y53.56574
G01 X13.16489 Y53.74525
G01 X13.11350 Y53.91360
G01 X13.03054 Y54.06869
G01 X13.00220 Y54.10781
G01 X12.91914 Y54.20473
G01 X12.87449 Y54.24603
G01 X12.78353 Y54.31657
G01 X12.72089 Y54.35472
G01 X12.62887 Y54.40001
G01 X12.54807 Y54.42919
G01 X12.46100 Y54.45187
G01 X12.36362 Y54.46620
G01 X12.28627 Y54.47024
G01 X12.19636 Y54.46615
G01 X12.11127 Y54.45441
G01 X12.01185 Y54.42924
G01 X11.94264 Y54.40496
G01 X11.83898 Y54.35485
G01 X11.78676 Y54.32376
G01 X11.68534 Y54.24621
G01 X11.64950 Y54.21385
G01 X11.53608 Y54.07938
G01 X11.45082 Y53.92538
G01 X11.39727 Y53.75764
G01 X11.37794 Y53.58076
G04 P0 ( dwell for no time -- G64 should not smooth over this point )
G00 Z0.50000 ( retract )

G00 X11.37794 Y51.04076 ( rapid move to begin. )
G01 F100.00000
( Mill infeed pass 1/1 )
G01 Z-0.17000
G04 P0 ( dwell for no time -- G64 should not smooth over this point )
G01 F200.00000
G01 X11.37794 Y51.04076
G01 X11.39324 Y50.86727
G01 X11.44213 Y50.69831
G01 X11.46171 Y50.65414
G01 X11.52283 Y50.54208
G01 X11.55793 Y50.49240
G01 X11.63222 Y50.40449
G01 X11.68556 Y50.35414
G01 X11.76613 Y50.29074
G01 X11.83908 Y50.24538
G01 X11.91957 Y50.20507
G01 X12.01185 Y50.17083
G01 X12.08666 Y50.15079
G01 X12.17545 Y50.13608
G01 X12.26113 Y50.12989
G01 X12.36359 Y50.13385
G01 X12.43636 Y50.14322
G01 X12.54812 Y50.17065
G01 X12.60573 Y50.19021
G01 X12.72105 Y50.24497
G01 X12.76283 Y50.26918
G01 X12.90169 Y50.37713
G01 X13.01602 Y50.50850
G01 X13.10438 Y50.66298
G01 X13.16006 Y50.83202
G01 X13.18256 Y51.02574
G01 X13.16489 Y51.20525
G01 X13.11350 Y51.37360
G01 X13.03054 Y51.52869
G01 X13.00220 Y51.56781
G01 X12.91914 Y51.66473
G01 X12.87449 Y51.70603
G01 X12.78353 Y51.77657
G01 X12.72089 Y51.81472
G01 X12.62887 Y51.86001
G01 X12.54807 Y51.88919
G01 X12.46100 Y51.91187
G01 X12.36362 Y51.92620
G01 X12.28627 Y51.93024
G01 X12.19636 Y51.92615
G01 X12.11127 Y51.91441
G01 X12.01185 Y51.88924
G01 X11.94264 Y51.86496
G01 X11.83898 Y51.81485
G01 X11.78676 Y51.78376
G01 X11.68534 Y51.70621
G01 X11.64950 Y51.67385
G01 X11.53608 Y51.53938
G01 X11.45082 Y51.38538
G01 X11.39727 Y51.21764
G01 X11.37794 Y51.04076
G04 P0 ( dwell for no time -- G64 should not smooth over this point )
G00 Z0.50000 ( retract )

G00 X11.37794 Y48.50076 ( rapid move to begin. )
G01 F100.00000
( Mill infeed pass 1/1 )
G01 Z-0.17000
G04 P0 ( dwell for no time -- G64 should not smooth over this point )
G01 F200.00000
G01 X11.37794 Y48.50076
G01 X11.39324 Y48.32727
G01 X11.44213 Y48.15831
G01 X11.46171 Y48.11414
G01 X11.52283 Y48.00208
G01 X11.55793 Y47.95240
G01 X11.63222 Y47.86449
G01 X11.68556 Y47.81414
G01 X11.76613 Y47.75074
G01 X11.83908 Y47.70538
G01 X11.91957 Y47.66507
G01 X12.01185 Y47.63083
G01 X12.08666 Y47.61079
G01 X12.17545 Y47.59608
G01 X12.26113 Y47.58989
G01 X12.36359 Y47.59385
G01 X12.43636 Y47.60322
G01 X12.54812 Y47.63065
G01 X12.60573 Y47.65021
G01 X12.72105 Y47.70497
G01 X12.76283 Y47.72918
G01 X12.90169 Y47.83713
G01 X13.01602 Y47.96850
G01 X13.10438 Y48.12298
G01 X13.16006 Y48.29202
G01 X13.18256 Y48.48574
G01 X13.16489 Y48.66525
G01 X13.11350 Y48.83360
G01 X13.03054 Y48.98869
G01 X13.00220 Y49.02781
G01 X12.91914 Y49.12473
G01 X12.87449 Y49.16603
G01 X12.78353 Y49.23657
G01 X12.72089 Y49.27472
G01 X12.62887 Y49.32001
G01 X12.54807 Y49.34919
G01 X12.46100 Y49.37187
G01 X12.36362 Y49.38620
G01 X12.28627 Y49.39024
G01 X12.19636 Y49.38615
G01 X12.11127 Y49.37441
G01 X12.01185 Y49.34924
G01 X11.94264 Y49.32496
G01 X11.83898 Y49.27485
G01 X11.78676 Y49.24376
G01 X11.68534 Y49.16621
G01 X11.64950 Y49.13385
G01 X11.53608 Y48.99938
G01 X11.45082 Y48.84538
G01 X11.39727 Y48.67764
G01 X11.37794 Y48.50076
G04 P0 ( dwell for no time -- G64 should not smooth over this point )
G00 Z0.50000 ( retract )

G00 X11.37794 Y45.96076 ( rapid move to begin. )
G01 F100.00000
( Mill infeed pass 1/1 )
G01 Z-0.17000
G04 P0 ( dwell for no time -- G64 should not smooth over this point )
G01 F200.00000
G01 X11.37794 Y45.96076
G01 X11.39324 Y45.78727
G01 X11.44213 Y45.61831
G01 X11.46171 Y45.57414
G01 X11.52283 Y45.46208
G01 X11.55793 Y45.41240
G01 X11.63222 Y45.32449
G01 X11.68556 Y45.27414
G01 X11.76613 Y45.21074
G01 X11.83908 Y45.16538
G01 X11.91957 Y45.12507
G01 X12.01185 Y45.09083
G01 X12.08666 Y45.07079
G01 X12.17545 Y45.05608
G01 X12.26113 Y45.04989
G01 X12.36359 Y45.05385
G01 X12.43636 Y45.06322
G01 X12.54812 Y45.09065
G01 X12.60573 Y45.11021
G01 X12.72105 Y45.16497
G01 X12.76283 Y45.18918
G01 X12.90169 Y45.29713
G01 X13.01602 Y45.42850
G01 X13.10438 Y45.58298
G01 X13.16006 Y45.75202
G01 X13.18256 Y45.94574
G01 X13.16489 Y46.12525
G01 X13.11350 Y46.29360
G01 X13.03054 Y46.44869
G01 X13.00220 Y46.48781
G01 X12.91914 Y46.58473
G01 X12.87449 Y46.62603
G01 X12.78353 Y46.69657
G01 X12.72089 Y46.73472
G01 X12.62887 Y46.78001
G01 X12.54807 Y46.80919
G01 X12.46100 Y46.83187
G01 X12.36362 Y46.84620
G01 X12.28627 Y46.85024
G01 X12.19636 Y46.84615
G01 X12.11127 Y46.83441
G01 X12.01185 Y46.80924
G01 X11.94264 Y46.78496
G01 X11.83898 Y46.73485
G01 X11.78676 Y46.70376
G01 X11.68534 Y46.62621
G01 X11.64950 Y46.59385
G01 X11.53608 Y46.45938
G01 X11.45082 Y46.30538
G01 X11.39727 Y46.13764
G01 X11.37794 Y45.96076
G04 P0 ( dwell for no time -- G64 should not smooth over this point )
G00 Z0.50000 ( retract )

G00 X11.37794 Y43.42076 ( rapid move to begin. )
G01 F100.00000
( Mill infeed pass 1/1 )
G01 Z-0.17000
G04 P0 ( dwell for no time -- G64 should not smooth over this point )
G01 F200.00000
G01 X11.37794 Y43.42076
G01 X11.39324 Y43.24727
G01 X11.44213 Y43.07831
G01 X11.46171 Y43.03414
G01 X11.52283 Y42.92208
G01 X11.55793 Y42.87240
G01 X11.63222 Y42.78449
G01 X11.68556 Y42.73414
G01 X11.76613 Y42.67074
G01 X11.83908 Y42.62538
G01 X11.91957 Y42.58507
G01 X12.01185 Y42.55083
G01 X12.08666 Y42.53079
G01 X12.17545 Y42.51608
G01 X12.26113 Y42.50989
G01 X12.36359 Y42.51385
G01 X12.43636 Y42.52322
G01 X12.54812 Y42.55065
G01 X12.60573 Y42.57021
G01 X12.72105 Y42.62497
G01 X12.76283 Y42.64918
G01 X12.90169 Y42.75713
G01 X13.01602 Y42.88850
G01 X13.10438 Y43.04298
G01 X13.16006 Y43.21202
G01 X13.18256 Y43.40574
G01 X13.16489 Y43.58525
G01 X13.11350 Y43.75360
G01 X13.03054 Y43.90869
G01 X13.00220 Y43.94781
G01 X12.91914 Y44.04473
G01 X12.87449 Y44.08603
G01 X12.78353 Y44.15657
G01 X12.72089 Y44.19472
G01 X12.62887 Y44.24001
G01 X12.54807 Y44.26919
G01 X12.46100 Y44.29187
G01 X12.36362 Y44.30620
G01 X12.28627 Y44.31024
G01 X12.19636 Y44.30615
G01 X12.11127 Y44.29441
G01 X12.01185 Y44.26924
G01 X11.94264 Y44.24496
G01 X11.83898 Y44.19485
G01 X11.78676 Y44.16376
G01 X11.68534 Y44.08621
G01 X11.64950 Y44.05385
G01 X11.53608 Y43.91938
G01 X11.45082 Y43.76538
G01 X11.39727 Y43.59764
G01 X11.37794 Y43.42076
G04 P0 ( dwell for no time -- G64 should not smooth over this point )
G00 Z0.50000 ( retract )

G00 X11.37794 Y40.88076 ( rapid move to begin. )
G01 F100.00000
( Mill infeed pass 1/1 )
G01 Z-0.17000
G04 P0 ( dwell for no time -- G64 should not smooth over this point )
G01 F200.00000
G01 X11.37794 Y40.88076
G01 X11.39324 Y40.70727
G01 X11.44213 Y40.53831
G01 X11.46171 Y40.49414
G01 X11.52283 Y40.38208
G01 X11.55793 Y40.33240
G01 X11.63222 Y40.24449
G01 X11.68556 Y40.19414
G01 X11.76613 Y40.13074
G01 X11.83908 Y40.08538
G01 X11.91957 Y40.04507
G01 X12.01185 Y40.01083
G01 X12.08666 Y39.99079
G01 X12.17545 Y39.97608
G01 X12.26113 Y39.96989
G01 X12.36359 Y39.97385
G01 X12.43636 Y39.98322
G01 X12.54812 Y40.01065
G01 X12.60573 Y40.03021
G01 X12.72105 Y40.08497
G01 X12.76283 Y40.10918
G01 X12.90169 Y40.21713
G01 X13.01602 Y40.34850
G01 X13.10438 Y40.50298
G01 X13.16006 Y40.67202
G01 X13.18256 Y40.86574
G01 X13.16489 Y41.04525
G01 X13.11350 Y41.21360
G01 X13.03054 Y41.36869
G01 X13.00220 Y41.40781
G01 X12.91914 Y41.50473
G01 X12.87449 Y41.54603
G01 X12.78353 Y41.61657
G01 X12.72089 Y41.65472
G01 X12.62887 Y41.70001
G01 X12.54807 Y41.72919
G01 X12.46100 Y41.75187
G01 X12.36362 Y41.76620
G01 X12.28627 Y41.77024
G01 X12.19636 Y41.76615
G01 X12.11127 Y41.75441
G01 X12.01185 Y41.72924
G01 X11.94264 Y41.70496
G01 X11.83898 Y41.65485
G01 X11.78676 Y41.62376
G01 X11.68534 Y41.54621
G01 X11.64950 Y41.51385
G01 X11.53608 Y41.37938
G01 X11.45082 Y41.22538
G01 X11.39727 Y41.05764
G01 X11.37794 Y40.88076
G04 P0 ( dwell for no time -- G64 should not smooth over this point )
G00 Z0.50000 ( retract )

G00 X15.19795 Y43.39073 ( rapid move to begin. )
G01 F100.00000
( Mill infeed pass 1/1 )
G01 Z-0.17000
G04 P0 ( dwell for no time -- G64 should not smooth over this point )
G01 F200.00000
G01 X15.19795 Y43.39073
G01 X15.21322 Y43.21728
G01 X15.26214 Y43.04829
G01 X15.28170 Y43.00414
G01 X15.34281 Y42.89208
G01 X15.37791 Y42.84240
G01 X15.45221 Y42.75449
G01 X15.50555 Y42.70415
G01 X15.58614 Y42.64072
G01 X15.65906 Y42.59538
G01 X15.73956 Y42.55507
G01 X15.83186 Y42.52083
G01 X15.90666 Y42.50079
G01 X15.99546 Y42.48609
G01 X16.08111 Y42.47989
G01 X16.18357 Y42.48383
G01 X16.25634 Y42.49320
G01 X16.36813 Y42.52066
G01 X16.42571 Y42.54021
G01 X16.54105 Y42.59500
G01 X16.58281 Y42.61918
G01 X16.72172 Y42.72716
G01 X16.83602 Y42.85850
G01 X16.92439 Y43.01298
G01 X16.98007 Y43.18200
G01 X17.00257 Y43.37575
G01 X16.98489 Y43.55525
G01 X16.93351 Y43.72357
G01 X16.85055 Y43.87869
G01 X16.82221 Y43.91781
G01 X16.73912 Y44.01473
G01 X16.69447 Y44.05604
G01 X16.60351 Y44.12657
G01 X16.54088 Y44.16472
G01 X16.44885 Y44.21001
G01 X16.36808 Y44.23919
G01 X16.28101 Y44.26188
G01 X16.20450 Y44.27399
G01 X16.10628 Y44.28024
G01 X16.01637 Y44.27615
G01 X15.93128 Y44.26439
G01 X15.83183 Y44.23925
G01 X15.76264 Y44.21494
G01 X15.65901 Y44.16485
G01 X15.60674 Y44.13373
G01 X15.50532 Y44.05621
G01 X15.46948 Y44.02385
G01 X15.35609 Y43.88939
G01 X15.27082 Y43.73539
G01 X15.21726 Y43.56764
G01 X15.19795 Y43.39073
G04 P0 ( dwell for no time -- G64 should not smooth over this point )
G00 Z0.50000 ( retract )

G00 X15.19795 Y45.93073 ( rapid move to begin. )
G01 F100.00000
( Mill infeed pass 1/1 )
G01 Z-0.17000
G04 P0 ( dwell for no time -- G64 should not smooth over this point )
G01 F200.00000
G01 X15.19795 Y45.93073
G01 X15.21322 Y45.75728
G01 X15.26214 Y45.58829
G01 X15.28170 Y45.54414
G01 X15.34281 Y45.43208
G01 X15.37791 Y45.38240
G01 X15.45221 Y45.29449
G01 X15.50555 Y45.24415
G01 X15.58614 Y45.18072
G01 X15.65906 Y45.13538
G01 X15.73956 Y45.09507
G01 X15.83186 Y45.06083
G01 X15.90666 Y45.04079
G01 X15.99546 Y45.02609
G01 X16.08111 Y45.01989
G01 X16.18357 Y45.02383
G01 X16.25634 Y45.03320
G01 X16.36813 Y45.06066
G01 X16.42571 Y45.08021
G01 X16.54105 Y45.13500
G01 X16.58281 Y45.15918
G01 X16.72172 Y45.26716
G01 X16.83602 Y45.39850
G01 X16.92439 Y45.55298
G01 X16.98007 Y45.72200
G01 X17.00257 Y45.91575
G01 X16.98489 Y46.09525
G01 X16.93351 Y46.26357
G01 X16.85055 Y46.41869
G01 X16.82221 Y46.45781
G01 X16.73912 Y46.55473
G01 X16.69447 Y46.59604
G01 X16.60351 Y46.66657
G01 X16.54088 Y46.70472
G01 X16.44885 Y46.75001
G01 X16.36808 Y46.77919
G01 X16.28101 Y46.80188
G01 X16.20450 Y46.81399
G01 X16.10628 Y46.82024
G01 X16.01637 Y46.81615
G01 X15.93128 Y46.80439
G01 X15.83183 Y46.77925
G01 X15.76264 Y46.75494
G01 X15.65901 Y46.70485
G01 X15.60674 Y46.67373
G01 X15.50532 Y46.59621
G01 X15.46948 Y46.56385
G01 X15.35609 Y46.42939
G01 X15.27082 Y46.27539
G01 X15.21726 Y46.10764
G01 X15.19795 Y45.93073
G04 P0 ( dwell for no time -- G64 should not smooth over this point )
G00 Z0.50000 ( retract )

G00 X15.19795 Y48.47073 ( rapid move to begin. )
G01 F100.00000
( Mill infeed pass 1/1 )
G01 Z-0.17000
G04 P0 ( dwell for no time -- G64 should not smooth over this point )
G01 F200.00000
G01 X15.19795 Y48.47073
G01 X15.21322 Y48.29728
G01 X15.26214 Y48.12829
G01 X15.28170 Y48.08414
G01 X15.34281 Y47.97208
G01 X15.37791 Y47.92240
G01 X15.45221 Y47.83449
G01 X15.50555 Y47.78415
G01 X15.58614 Y47.72072
G01 X15.65906 Y47.67538
G01 X15.73956 Y47.63507
G01 X15.83186 Y47.60083
G01 X15.90666 Y47.58079
G01 X15.99546 Y47.56609
G01 X16.08111 Y47.55989
G01 X16.18357 Y47.56383
G01 X16.25634 Y47.57320
G01 X16.36813 Y47.60066
G01 X16.42571 Y47.62021
G01 X16.54105 Y47.67500
G01 X16.58281 Y47.69918
G01 X16.72172 Y47.80716
G01 X16.83602 Y47.93850
G01 X16.92439 Y48.09298
G01 X16.98007 Y48.26200
G01 X17.00257 Y48.45575
G01 X16.98489 Y48.63525
G01 X16.93351 Y48.80357
G01 X16.85055 Y48.95869
G01 X16.82221 Y48.99781
G01 X16.73912 Y49.09473
G01 X16.69447 Y49.13604
G01 X16.60351 Y49.20657
G01 X16.54088 Y49.24472
G01 X16.44885 Y49.29001
G01 X16.36808 Y49.31919
G01 X16.28101 Y49.34188
G01 X16.20450 Y49.35399
G01 X16.10628 Y49.36024
G01 X16.01637 Y49.35615
G01 X15.93128 Y49.34439
G01 X15.83183 Y49.31925
G01 X15.76264 Y49.29494
G01 X15.65901 Y49.24485
G01 X15.60674 Y49.21373
G01 X15.50532 Y49.13621
G01 X15.46948 Y49.10385
G01 X15.35609 Y48.96939
G01 X15.27082 Y48.81539
G01 X15.21726 Y48.64764
G01 X15.19795 Y48.47073
G04 P0 ( dwell for no time -- G64 should not smooth over this point )
G00 Z0.50000 ( retract )

G00 X15.19795 Y51.01073 ( rapid move to begin. )
G01 F100.00000
( Mill infeed pass 1/1 )
G01 Z-0.17000
G04 P0 ( dwell for no time -- G64 should not smooth over this point )
G01 F200.00000
G01 X15.19795 Y51.01073
G01 X15.21322 Y50.83728
G01 X15.26214 Y50.66829
G01 X15.28170 Y50.62414
G01 X15.34281 Y50.51208
G01 X15.37791 Y50.46240
G01 X15.45221 Y50.37449
G01 X15.50555 Y50.32415
G01 X15.58614 Y50.26072
G01 X15.65906 Y50.21538
G01 X15.73956 Y50.17507
G01 X15.83186 Y50.14083
G01 X15.90666 Y50.12079
G01 X15.99546 Y50.10609
G01 X16.08111 Y50.09989
G01 X16.18357 Y50.10383
G01 X16.25634 Y50.11320
G01 X16.36813 Y50.14066
G01 X16.42571 Y50.16021
G01 X16.54105 Y50.21500
G01 X16.58281 Y50.23918
G01 X16.72172 Y50.34716
G01 X16.83602 Y50.47850
G01 X16.92439 Y50.63298
G01 X16.98007 Y50.80200
G01 X17.00257 Y50.99575
G01 X16.98489 Y51.17525
G01 X16.93351 Y51.34357
G01 X16.85055 Y51.49869
G01 X16.82221 Y51.53781
G01 X16.73912 Y51.63473
G01 X16.69447 Y51.67604
G01 X16.60351 Y51.74657
G01 X16.54088 Y51.78472
G01 X16.44885 Y51.83001
G01 X16.36808 Y51.85919
G01 X16.28101 Y51.88188
G01 X16.20450 Y51.89399
G01 X16.10628 Y51.90024
G01 X16.01637 Y51.89615
G01 X15.93128 Y51.88439
G01 X15.83183 Y51.85925
G01 X15.76264 Y51.83494
G01 X15.65901 Y51.78485
G01 X15.60674 Y51.75373
G01 X15.50532 Y51.67621
G01 X15.46948 Y51.64385
G01 X15.35609 Y51.50939
G01 X15.27082 Y51.35539
G01 X15.21726 Y51.18764
G01 X15.19795 Y51.01073
G04 P0 ( dwell for no time -- G64 should not smooth over this point )
G00 Z0.50000 ( retract )

G00 X15.57669 Y54.43326 ( rapid move to begin. )
G01 F100.00000
( Mill infeed pass 1/1 )
G01 Z-0.17000
G04 P0 ( dwell for no time -- G64 should not smooth over this point )
G01 F200.00000
G01 X15.57669 Y54.43326
G01 X15.60344 Y54.41098
G01 X15.57933 Y54.36920
G01 X15.57870 Y54.32823
G01 X15.56912 Y54.29536
G01 X15.55256 Y54.26788
G01 X15.46948 Y54.18385
G01 X15.35609 Y54.04939
G01 X15.27082 Y53.89539
G01 X15.21726 Y53.72764
G01 X15.19798 Y53.55264
G01 X15.19884 Y53.52940
G01 X15.21599 Y53.36305
G01 X15.26214 Y53.20829
G01 X15.28170 Y53.16414
G01 X15.34281 Y53.05208
G01 X15.37791 Y53.00240
G01 X15.45221 Y52.91449
G01 X15.50555 Y52.86415
G01 X15.58614 Y52.80072
G01 X15.64080 Y52.76577
G01 X15.73956 Y52.71507
G01 X15.83186 Y52.68083
G01 X15.90666 Y52.66079
G01 X16.01637 Y52.64372
G01 X16.08111 Y52.63989
G01 X16.18357 Y52.64383
G01 X16.25634 Y52.65320
G01 X16.38835 Y52.68675
G01 X16.42571 Y52.70021
G01 X16.54105 Y52.75500
G01 X16.58281 Y52.77918
G01 X16.71108 Y52.87725
G01 X16.82274 Y53.00176
G01 X16.83712 Y53.02005
G01 X16.92800 Y53.18304
G01 X16.98007 Y53.34200
G01 X17.00168 Y53.51921
G01 X17.00161 Y53.55071
G01 X16.98489 Y53.71525
G01 X16.93351 Y53.88357
G01 X16.91852 Y53.91606
G01 X16.85055 Y54.03869
G01 X16.77410 Y54.13397
G01 X16.72619 Y54.20542
G01 X16.71367 Y54.24057
G01 X16.71121 Y54.26229
G01 X16.72508 Y54.35401
G01 X16.74054 Y54.39470
G01 X16.80184 Y54.46437
G01 X16.83160 Y54.48718
G01 X16.85655 Y54.49434
G01 X16.95139 Y54.50537
G01 X21.29901 Y54.50272
G01 X21.38100 Y54.49005
G01 X21.40962 Y54.49005
G01 X21.41966 Y54.46374
G01 X21.38900 Y54.48774
G01 X21.37000 Y54.49251
G01 X21.38900 Y54.48774
G01 X21.41651 Y54.46838
G01 X21.51859 Y54.30895
G01 X21.60340 Y54.21654
G01 X21.63281 Y54.18949
G01 X21.72072 Y54.12886
G01 X21.76380 Y54.10412
G01 X21.85364 Y54.06745
G01 X21.91038 Y54.04982
G01 X21.99636 Y54.03498
G01 X22.06530 Y54.02929
G01 X22.14267 Y54.03280
G01 X22.22087 Y54.04352
G01 X22.30629 Y54.06755
G01 X22.36949 Y54.09180
G01 X22.43903 Y54.12909
G01 X22.50373 Y54.17174
G01 X22.58608 Y54.24458
G01 X22.63347 Y54.28111
G01 X22.66456 Y54.29475
G01 X22.68976 Y54.29889
G01 X22.68351 Y54.33404
G01 X22.68503 Y54.35454
G01 X22.65844 Y54.30974
G01 X22.63347 Y54.28111
G01 X22.65844 Y54.30974
G01 X22.68503 Y54.35454
G01 X22.75920 Y54.55487
G01 X22.78239 Y54.73074
G01 X22.76479 Y54.88563
G01 X22.71663 Y55.02518
G01 X22.64102 Y55.15078
G01 X22.55638 Y55.24336
G01 X22.51938 Y55.27654
G01 X22.42108 Y55.34199
G01 X22.38727 Y55.36010
G01 X22.30627 Y55.39251
G01 X22.24000 Y55.41240
G01 X22.16357 Y55.42505
G01 X22.08488 Y55.43084
G01 X21.99634 Y55.42510
G01 X21.92949 Y55.41451
G01 X21.85372 Y55.39249
G01 X21.78156 Y55.36422
G01 X21.72088 Y55.33097
G01 X21.64836 Y55.28243
G01 X21.61907 Y55.25769
G01 X21.53657 Y55.17323
G01 X21.41933 Y54.99996
G01 X21.38562 Y54.97224
G01 X21.37635 Y54.97001
G01 X21.38562 Y54.97224
G01 X21.41933 Y54.99996
G01 X21.40962 Y54.97001
G01 X21.37635 Y54.97001
G01 X21.34358 Y54.96216
G01 X21.29017 Y54.95642
G01 X16.77976 Y54.95528
G01 X16.67174 Y54.97001
G01 X15.72937 Y54.97001
G01 X14.92523 Y55.77417
G01 X14.93748 Y55.80044
G01 X14.97936 Y55.93135
G01 X14.99498 Y56.08001
G01 X14.97936 Y56.22868
G01 X14.93781 Y56.35807
G01 X15.01969 Y56.32418
G01 X15.08713 Y56.26005
G01 X15.15241 Y56.33038
G01 X15.18068 Y56.33856
G01 X15.19991 Y56.34900
G01 X15.24278 Y56.38870
G01 X15.20763 Y56.28012
G01 X15.12729 Y56.19365
G01 X15.12729 Y55.93186
G01 X15.12272 Y55.81969
G01 X15.17784 Y55.72970
G01 X15.13714 Y55.85510
G01 X15.12658 Y55.91585
G01 X15.13714 Y55.85510
G01 X15.17784 Y55.72970
G01 X15.21649 Y55.67100
G01 X15.31799 Y55.53874
G01 X15.48228 Y55.36549
G01 X15.64001 Y55.23353
G01 X15.77895 Y55.13803
G01 X15.79340 Y55.12868
G01 X15.88307 Y55.11885
G01 X15.79419 Y55.13884
G01 X15.75236 Y55.15632
G01 X15.64001 Y55.23353
G01 X15.75236 Y55.15632
G01 X15.79419 Y55.13884
G01 X15.88307 Y55.11885
G01 X16.01733 Y55.10702
G01 X16.22579 Y55.10930
G01 X16.40529 Y55.12866
G01 X16.41235 Y55.14133
G01 X16.31697 Y55.11888
G01 X16.41235 Y55.14133
G01 X16.44255 Y55.19538
G01 X16.48695 Y55.25550
G01 X16.54677 Y55.28212
G01 X16.57395 Y55.29876
G01 X16.54677 Y55.28212
G01 X16.38274 Y55.20978
G01 X16.18360 Y55.16940
G01 X16.00435 Y55.17003
G01 X15.82886 Y55.20669
G01 X15.64248 Y55.28761
G01 X15.48774 Y55.40003
G01 X15.35972 Y55.54219
G01 X15.26409 Y55.70785
G01 X15.20809 Y55.87813
G01 X15.18500 Y56.08001
G01 X15.12729 Y56.05797
G01 X15.18500 Y56.08001
G01 X15.20499 Y56.27026
G01 X15.24278 Y56.38870
G01 X15.19991 Y56.34900
G01 X15.18068 Y56.33856
G01 X15.06869 Y56.31456
G01 X15.02582 Y56.32190
G01 X14.93781 Y56.35807
G01 X14.96575 Y56.27265
G01 X15.05266 Y56.19122
G01 X15.05266 Y55.93272
G01 X15.04873 Y55.80237
G01 X15.11426 Y55.69066
G01 X15.04873 Y55.80237
G01 X15.04596 Y55.80163
G01 X15.04873 Y55.80237
G01 X15.05266 Y55.93272
G01 X15.04720 Y55.89668
G01 X15.01314 Y55.79180
G01 X15.00080 Y55.78878
G01 X15.01314 Y55.79180
G01 X15.11426 Y55.69066
G01 X15.15670 Y55.62634
G01 X15.26061 Y55.49101
G01 X15.43300 Y55.30928
G01 X15.59539 Y55.17374
G01 X15.76996 Y55.05690
G01 X16.01634 Y55.03229
G01 X16.23067 Y55.03483
G01 X16.41974 Y55.05533
G01 X16.51939 Y54.98957
G01 X16.56112 Y54.97001
G01 X16.51939 Y54.98957
G01 X16.43595 Y55.04463
G01 X16.32444 Y55.04463
G01 X16.18357 Y55.03242
G01 X16.01634 Y55.03229
G01 X15.87552 Y55.04463
G01 X15.76028 Y55.04463
G01 X15.75878 Y55.04037
G01 X15.76028 Y55.04463
G01 X15.71009 Y55.09482
G01 X15.76912 Y55.05464
G01 X15.96927 Y55.03483
G01 X16.18357 Y55.03242
G01 X16.32442 Y55.04463
G01 X16.43592 Y55.04463
G01 X16.51939 Y54.98957
G01 X16.56112 Y54.97001
G01 X16.67174 Y54.97001
G01 X16.65731 Y54.97435
G01 X16.62472 Y55.00023
G01 X16.56556 Y55.07168
G01 X16.55131 Y55.11281
G01 X16.54029 Y55.20214
G01 X16.55131 Y55.11281
G01 X16.56556 Y55.07168
G01 X16.62472 Y55.00023
G01 X16.65731 Y54.97435
G01 X16.67174 Y54.97001
G01 X16.64055 Y54.98515
G01 X16.59208 Y55.03790
G01 X16.55805 Y55.05345
G01 X16.47816 Y55.10615
G01 X16.50407 Y55.15307
G01 X16.54029 Y55.20214
G01 X16.55043 Y55.24722
G01 X16.57395 Y55.29876
G01 X16.61903 Y55.34499
G01 X16.72114 Y55.42650
G01 X16.82274 Y55.54176
G01 X16.83712 Y55.56005
G01 X16.92439 Y55.71298
G01 X16.98007 Y55.88200
G01 X17.00168 Y56.05921
G01 X17.00161 Y56.09071
G01 X16.98451 Y56.25708
G01 X16.93351 Y56.42357
G01 X16.85055 Y56.57869
G01 X16.82221 Y56.61781
G01 X16.73912 Y56.71473
G01 X16.71045 Y56.74224
G01 X16.60351 Y56.82657
G01 X16.54088 Y56.86472
G01 X16.44885 Y56.91001
G01 X16.36808 Y56.93919
G01 X16.28101 Y56.96188
G01 X16.20450 Y56.97399
G01 X16.10628 Y56.98024
G01 X16.01637 Y56.97615
G01 X15.93702 Y56.96528
G01 X15.83189 Y56.93899
G01 X15.76237 Y56.91481
G01 X15.64052 Y56.85469
G01 X15.60674 Y56.83373
G01 X15.48921 Y56.74250
G01 X15.37750 Y56.61804
G01 X15.35609 Y56.58939
G01 X15.24278 Y56.38870
G01 X15.21680 Y56.36287
G01 X15.18068 Y56.33856
G01 X15.06869 Y56.31456
G01 X15.02582 Y56.32190
G01 X14.93781 Y56.35807
G01 X14.89269 Y56.41865
G01 X14.82975 Y56.51578
G01 X14.75637 Y56.59337
G01 X14.71937 Y56.62652
G01 X14.63913 Y56.68105
G01 X14.58729 Y56.71009
G01 X14.50626 Y56.74250
G01 X14.44002 Y56.76241
G01 X14.34268 Y56.77740
G01 X14.28487 Y56.78083
G01 X14.19633 Y56.77509
G01 X14.12948 Y56.76449
G01 X14.05368 Y56.74247
G01 X13.98155 Y56.71420
G01 X13.93895 Y56.69175
G01 X13.84837 Y56.63244
G01 X13.80370 Y56.59325
G01 X13.73656 Y56.52322
G01 X13.70728 Y56.48311
G01 X13.65163 Y56.39195
G01 X13.57654 Y56.19609
G01 X13.54200 Y56.15266
G01 X13.52457 Y56.13940
G01 X13.41759 Y56.09856
G01 X13.37411 Y56.09924
G01 X13.30461 Y56.11377
G01 X13.28373 Y56.12025
G01 X13.24746 Y56.14438
G01 X13.19686 Y56.19419
G01 X13.18467 Y56.21410
G01 X13.19686 Y56.19419
G01 X13.26191 Y56.13262
G01 X13.27538 Y56.10265
G01 X13.26191 Y56.13262
G01 X13.28373 Y56.12025
G01 X13.35015 Y56.10425
G01 X13.43570 Y56.10353
G01 X13.50184 Y56.12850
G01 X13.48556 Y56.09388
G01 X13.48693 Y56.08040
G01 X13.49874 Y56.05555
G01 X13.56430 Y56.00399
G01 X13.57393 Y55.98862
G01 X13.56499 Y56.08001
G01 X13.57654 Y56.19609
G01 X13.54200 Y56.15266
G01 X13.50184 Y56.12850
G01 X13.48673 Y56.10059
G01 X13.27538 Y56.10265
G01 X13.27344 Y56.07758
G01 X13.25559 Y56.05007
G01 X13.22082 Y56.02949
G01 X13.20601 Y56.01552
G01 X13.18188 Y55.97948
G01 X13.19664 Y56.09612
G01 X13.19498 Y56.11001
G01 X13.19371 Y56.09177
G01 X13.19435 Y56.12203
G01 X13.18467 Y56.21410
G01 X13.16003 Y56.30803
G01 X13.11373 Y56.45306
G01 X13.09852 Y56.48606
G01 X13.01513 Y56.63104
G01 X12.91914 Y56.74473
G01 X12.87449 Y56.78603
G01 X12.78353 Y56.85657
G01 X12.72089 Y56.89472
G01 X12.62887 Y56.94001
G01 X12.54807 Y56.96919
G01 X12.46100 Y56.99187
G01 X12.36362 Y57.00620
G01 X12.28627 Y57.01024
G01 X12.19636 Y57.00615
G01 X12.11157 Y56.99446
G01 X11.99189 Y56.96266
G01 X11.93738 Y56.94242
G01 X11.83898 Y56.89485
G01 X11.78676 Y56.86376
G01 X11.68534 Y56.78621
G01 X11.64950 Y56.75385
G01 X11.53608 Y56.61938
G01 X11.45082 Y56.46538
G01 X11.39727 Y56.29764
G01 X11.37794 Y56.12076
G01 X11.39600 Y55.93302
G01 X11.45257 Y55.75327
G01 X11.52283 Y55.62208
G01 X11.54518 Y55.58921
G01 X11.63222 Y55.48449
G01 X11.66971 Y55.44801
G01 X11.76613 Y55.37074
G01 X11.82079 Y55.33577
G01 X11.91957 Y55.28507
G01 X11.99189 Y55.25733
G01 X12.08666 Y55.23079
G01 X12.19636 Y55.21375
G01 X12.26113 Y55.20989
G01 X12.38457 Y55.21575
G01 X12.43636 Y55.22322
G01 X12.56832 Y55.25675
G01 X12.60573 Y55.27021
G01 X12.73969 Y55.33506
G01 X12.89107 Y55.44725
G01 X13.01711 Y55.59005
G01 X13.10438 Y55.74298
G01 X13.18188 Y55.97948
G01 X13.20601 Y56.01552
G01 X13.23788 Y56.04064
G01 X13.32069 Y56.08248
G01 X13.36397 Y56.08723
G01 X13.43473 Y56.08149
G01 X13.47664 Y56.06983
G01 X13.49521 Y56.05827
G01 X13.57057 Y55.99650
G01 X13.64248 Y55.78545
G01 X13.72389 Y55.65180
G01 X13.83283 Y55.53950
G01 X13.92074 Y55.47885
G01 X13.96382 Y55.45411
G01 X14.07354 Y55.41052
G01 X14.11037 Y55.39983
G01 X14.19633 Y55.38497
G01 X14.26529 Y55.37928
G01 X14.36364 Y55.38487
G01 X14.42089 Y55.39353
G01 X14.55818 Y55.42482
G01 X14.58421 Y55.43638
G01 X14.60461 Y55.41598
G01 X14.62053 Y55.40605
G01 X14.59856 Y55.41974
G01 X14.55818 Y55.42482
G01 X14.59856 Y55.41974
G01 X14.69333 Y55.34811
G01 X15.47052 Y54.57059
G01 X15.53895 Y54.50890
G01 X15.57489 Y54.49719
G01 X15.61037 Y54.49155
G01 X16.84573 Y54.49124
G01 X16.85655 Y54.49434
G01 X16.83160 Y54.48718
G01 X16.81763 Y54.47865
G01 X16.76368 Y54.42294
G01 X16.68195 Y54.37885
G01 X16.71540 Y54.29851
G01 X16.71121 Y54.26229
G01 X16.71367 Y54.24057
G01 X16.72619 Y54.20542
G01 X16.70288 Y54.22757
G01 X16.55749 Y54.33242
G01 X16.39399 Y54.40593
G01 X16.35312 Y54.41718
G01 X16.39399 Y54.40593
G01 X16.54677 Y54.33788
G01 X16.64707 Y54.26811
G01 X16.60742 Y54.36496
G01 X16.40532 Y54.41001
G01 X16.35312 Y54.41718
G01 X16.19564 Y54.44999
G01 X15.99246 Y54.44811
G01 X15.81723 Y54.41022
G01 X15.64502 Y54.33371
G01 X15.80600 Y54.40593
G01 X15.84746 Y54.41728
G01 X15.79457 Y54.41009
G01 X15.67519 Y54.38474
G01 X15.64502 Y54.33371
G01 X15.55256 Y54.26788
G01 X15.56912 Y54.29536
G01 X15.57870 Y54.32823
G01 X15.57857 Y54.41636
G01 X15.56968 Y54.45896
G01 X15.53895 Y54.50890
G01 X15.59241 Y54.49297
G01 X15.62330 Y54.49155
G01 X15.66265 Y54.45835
G01 X15.78002 Y54.48327
G01 X15.83953 Y54.49150
G01 X16.36107 Y54.49137
G01 X16.41990 Y54.48319
G01 X16.63155 Y54.43572
G01 X16.70006 Y54.47621
G01 X16.73369 Y54.49127
G04 P0 ( dwell for no time -- G64 should not smooth over this point )
G00 Z0.50000 ( retract )

G00 X15.19970 Y60.36002 ( rapid move to begin. )
G01 F100.00000
( Mill infeed pass 1/1 )
G01 Z-0.17000
G04 P0 ( dwell for no time -- G64 should not smooth over this point )
G01 F200.00000
G01 X15.19970 Y60.36002
G01 X15.20644 Y60.32131
G01 X15.22841 Y60.28846
G01 X15.26125 Y60.26652
G01 X15.29013 Y60.26002
G01 X16.89998 Y60.25976
G01 X16.93869 Y60.26649
G01 X16.97153 Y60.28846
G01 X16.99350 Y60.32131
G01 X17.00023 Y60.36002
G01 X17.00023 Y61.96004
G01 X16.99348 Y61.99877
G01 X16.97153 Y62.03162
G01 X16.93869 Y62.05356
G01 X16.89998 Y62.06029
G01 X15.29998 Y62.06029
G01 X15.26125 Y62.05354
G01 X15.22841 Y62.03162
G01 X15.20646 Y61.99877
G01 X15.19970 Y61.96004
G01 X15.19970 Y60.36002
G04 P0 ( dwell for no time -- G64 should not smooth over this point )
G00 Z0.50000 ( retract )

G00 X22.81795 Y61.17073 ( rapid move to begin. )
G01 F100.00000
( Mill infeed pass 1/1 )
G01 Z-0.17000
G04 P0 ( dwell for no time -- G64 should not smooth over this point )
G01 F200.00000
G01 X22.81795 Y61.17073
G01 X22.83322 Y60.99730
G01 X22.88214 Y60.82829
G01 X22.90170 Y60.78414
G01 X22.96281 Y60.67211
G01 X22.99791 Y60.62240
G01 X23.07221 Y60.53449
G01 X23.12555 Y60.48415
G01 X23.20614 Y60.42072
G01 X23.27906 Y60.37538
G01 X23.35956 Y60.33507
G01 X23.45186 Y60.30083
G01 X23.52666 Y60.28079
G01 X23.61546 Y60.26609
G01 X23.70111 Y60.25989
G01 X23.80357 Y60.26383
G01 X23.87634 Y60.27320
G01 X23.98813 Y60.30066
G01 X24.04571 Y60.32021
G01 X24.16105 Y60.37500
G01 X24.20281 Y60.39918
G01 X24.34172 Y60.50716
G01 X24.45712 Y60.64005
G01 X24.54439 Y60.79298
G01 X24.60007 Y60.96200
G01 X24.62257 Y61.15575
G01 X24.60489 Y61.33527
G01 X24.55351 Y61.50360
G01 X24.47055 Y61.65872
G01 X24.44221 Y61.69781
G01 X24.35912 Y61.79476
G01 X24.31447 Y61.83604
G01 X24.22351 Y61.90657
G01 X24.16088 Y61.94472
G01 X24.06885 Y61.99001
G01 X23.98808 Y62.01919
G01 X23.90098 Y62.04188
G01 X23.80357 Y62.05623
G01 X23.72628 Y62.06027
G01 X23.63634 Y62.05615
G01 X23.55128 Y62.04439
G01 X23.45183 Y62.01927
G01 X23.38264 Y61.99494
G01 X23.27901 Y61.94487
G01 X23.22674 Y61.91373
G01 X23.12532 Y61.83621
G01 X23.08948 Y61.80385
G01 X22.97609 Y61.66941
G01 X22.89085 Y61.51541
G01 X22.83726 Y61.34764
G01 X22.81795 Y61.17073
G04 P0 ( dwell for no time -- G64 should not smooth over this point )
G00 Z0.50000 ( retract )

G00 X27.88794 Y51.66074 ( rapid move to begin. )
G01 F100.00000
( Mill infeed pass 1/1 )
G01 Z-0.17000
G04 P0 ( dwell for no time -- G64 should not smooth over this point )
G01 F200.00000
G01 X27.88794 Y51.66074
G01 X27.90324 Y51.48726
G01 X27.95213 Y51.31830
G01 X27.97171 Y51.27416
G01 X28.03283 Y51.16209
G01 X28.06790 Y51.11241
G01 X28.14222 Y51.02447
G01 X28.19556 Y50.97413
G01 X28.27613 Y50.91073
G01 X28.34908 Y50.86537
G01 X28.42957 Y50.82508
G01 X28.52185 Y50.79082
G01 X28.59666 Y50.77078
G01 X28.68545 Y50.75610
G01 X28.77113 Y50.74990
G01 X28.87362 Y50.75384
G01 X28.94636 Y50.76321
G01 X29.05812 Y50.79067
G01 X29.11570 Y50.81023
G01 X29.23105 Y50.86499
G01 X29.27283 Y50.88919
G01 X29.41172 Y50.99714
G01 X29.52711 Y51.13004
G01 X29.61438 Y51.28297
G01 X29.67006 Y51.45201
G01 X29.69256 Y51.64573
G01 X29.67489 Y51.82523
G01 X29.62350 Y51.99359
G01 X29.54054 Y52.14870
G01 X29.51222 Y52.18779
G01 X29.42914 Y52.28472
G01 X29.38449 Y52.32605
G01 X29.29356 Y52.39658
G01 X29.23089 Y52.43473
G01 X29.13887 Y52.48000
G01 X29.05807 Y52.50918
G01 X28.97098 Y52.53186
G01 X28.87362 Y52.54619
G01 X28.79625 Y52.55025
G01 X28.70636 Y52.54616
G01 X28.62127 Y52.53440
G01 X28.52185 Y52.50926
G01 X28.45264 Y52.48495
G01 X28.34901 Y52.43486
G01 X28.29676 Y52.40377
G01 X28.19534 Y52.32622
G01 X28.15950 Y52.29386
G01 X28.04608 Y52.15937
G01 X27.96084 Y52.00540
G01 X27.90727 Y51.83766
G01 X27.88794 Y51.66074
G04 P0 ( dwell for no time -- G64 should not smooth over this point )
G00 Z0.50000 ( retract )

G00 X27.88794 Y49.12074 ( rapid move to begin. )
G01 F100.00000
( Mill infeed pass 1/1 )
G01 Z-0.17000
G04 P0 ( dwell for no time -- G64 should not smooth over this point )
G01 F200.00000
G01 X27.88794 Y49.12074
G01 X27.90324 Y48.94726
G01 X27.95213 Y48.77830
G01 X27.97171 Y48.73416
G01 X28.03283 Y48.62209
G01 X28.06790 Y48.57241
G01 X28.14222 Y48.48447
G01 X28.19556 Y48.43413
G01 X28.27613 Y48.37073
G01 X28.34908 Y48.32537
G01 X28.42957 Y48.28508
G01 X28.52185 Y48.25082
G01 X28.59666 Y48.23078
G01 X28.68545 Y48.21610
G01 X28.77113 Y48.20990
G01 X28.87362 Y48.21384
G01 X28.94636 Y48.22321
G01 X29.05812 Y48.25067
G01 X29.11570 Y48.27023
G01 X29.23105 Y48.32499
G01 X29.27283 Y48.34919
G01 X29.41172 Y48.45714
G01 X29.52711 Y48.59004
G01 X29.61438 Y48.74297
G01 X29.67006 Y48.91201
G01 X29.69256 Y49.10573
G01 X29.67489 Y49.28523
G01 X29.62350 Y49.45359
G01 X29.54054 Y49.60870
G01 X29.51222 Y49.64779
G01 X29.42914 Y49.74472
G01 X29.38449 Y49.78605
G01 X29.29356 Y49.85658
G01 X29.23089 Y49.89473
G01 X29.13887 Y49.94000
G01 X29.05807 Y49.96918
G01 X28.97098 Y49.99186
G01 X28.87362 Y50.00619
G01 X28.79625 Y50.01025
G01 X28.70636 Y50.00616
G01 X28.62127 Y49.99440
G01 X28.52185 Y49.96926
G01 X28.45264 Y49.94495
G01 X28.34901 Y49.89486
G01 X28.29676 Y49.86377
G01 X28.19534 Y49.78622
G01 X28.15950 Y49.75386
G01 X28.04608 Y49.61937
G01 X27.96084 Y49.46540
G01 X27.90727 Y49.29766
G01 X27.88794 Y49.12074
G04 P0 ( dwell for no time -- G64 should not smooth over this point )
G00 Z0.50000 ( retract )

G00 X27.88794 Y46.58074 ( rapid move to begin. )
G01 F100.00000
( Mill infeed pass 1/1 )
G01 Z-0.17000
G04 P0 ( dwell for no time -- G64 should not smooth over this point )
G01 F200.00000
G01 X27.88794 Y46.58074
G01 X27.90324 Y46.40726
G01 X27.95213 Y46.23830
G01 X27.97171 Y46.19416
G01 X28.03283 Y46.08209
G01 X28.06790 Y46.03241
G01 X28.14222 Y45.94447
G01 X28.19556 Y45.89413
G01 X28.27613 Y45.83073
G01 X28.34908 Y45.78537
G01 X28.42957 Y45.74508
G01 X28.52185 Y45.71082
G01 X28.59666 Y45.69078
G01 X28.68545 Y45.67610
G01 X28.77113 Y45.66990
G01 X28.87362 Y45.67384
G01 X28.94636 Y45.68321
G01 X29.05812 Y45.71067
G01 X29.11570 Y45.73023
G01 X29.23105 Y45.78499
G01 X29.27283 Y45.80919
G01 X29.41172 Y45.91714
G01 X29.52711 Y46.05004
G01 X29.61438 Y46.20297
G01 X29.67006 Y46.37201
G01 X29.69256 Y46.56573
G01 X29.67489 Y46.74523
G01 X29.62350 Y46.91359
G01 X29.54054 Y47.06870
G01 X29.51222 Y47.10779
G01 X29.42914 Y47.20472
G01 X29.38449 Y47.24605
G01 X29.29356 Y47.31658
G01 X29.23089 Y47.35473
G01 X29.13887 Y47.40000
G01 X29.05807 Y47.42918
G01 X28.97098 Y47.45186
G01 X28.87362 Y47.46619
G01 X28.79625 Y47.47025
G01 X28.70636 Y47.46616
G01 X28.62127 Y47.45440
G01 X28.52185 Y47.42926
G01 X28.45264 Y47.40495
G01 X28.34901 Y47.35486
G01 X28.29676 Y47.32377
G01 X28.19534 Y47.24622
G01 X28.15950 Y47.21386
G01 X28.04608 Y47.07937
G01 X27.96084 Y46.92540
G01 X27.90727 Y46.75766
G01 X27.88794 Y46.58074
G04 P0 ( dwell for no time -- G64 should not smooth over this point )
G00 Z0.50000 ( retract )

G00 X27.88794 Y44.04074 ( rapid move to begin. )
G01 F100.00000
( Mill infeed pass 1/1 )
G01 Z-0.17000
G04 P0 ( dwell for no time -- G64 should not smooth over this point )
G01 F200.00000
G01 X27.88794 Y44.04074
G01 X27.90324 Y43.86726
G01 X27.95213 Y43.69830
G01 X27.97171 Y43.65416
G01 X28.03283 Y43.54209
G01 X28.06790 Y43.49241
G01 X28.14222 Y43.40447
G01 X28.19556 Y43.35413
G01 X28.27613 Y43.29073
G01 X28.34908 Y43.24537
G01 X28.42957 Y43.20508
G01 X28.52185 Y43.17082
G01 X28.59666 Y43.15078
G01 X28.68545 Y43.13610
G01 X28.77113 Y43.12990
G01 X28.87362 Y43.13384
G01 X28.94636 Y43.14321
G01 X29.05812 Y43.17067
G01 X29.11570 Y43.19023
G01 X29.23105 Y43.24499
G01 X29.27283 Y43.26919
G01 X29.41172 Y43.37714
G01 X29.52711 Y43.51004
G01 X29.61438 Y43.66297
G01 X29.67006 Y43.83201
G01 X29.69256 Y44.02573
G01 X29.67489 Y44.20523
G01 X29.62350 Y44.37359
G01 X29.54054 Y44.52870
G01 X29.51222 Y44.56779
G01 X29.42914 Y44.66472
G01 X29.38449 Y44.70605
G01 X29.29356 Y44.77658
G01 X29.23089 Y44.81473
G01 X29.13887 Y44.86000
G01 X29.05807 Y44.88918
G01 X28.97098 Y44.91186
G01 X28.87362 Y44.92619
G01 X28.79625 Y44.93025
G01 X28.70636 Y44.92616
G01 X28.62127 Y44.91440
G01 X28.52185 Y44.88926
G01 X28.45264 Y44.86495
G01 X28.34901 Y44.81486
G01 X28.29676 Y44.78377
G01 X28.19534 Y44.70622
G01 X28.15950 Y44.67386
G01 X28.04608 Y44.53937
G01 X27.96084 Y44.38540
G01 X27.90727 Y44.21766
G01 X27.88794 Y44.04074
G04 P0 ( dwell for no time -- G64 should not smooth over this point )
G00 Z0.50000 ( retract )

G00 X27.88794 Y41.50074 ( rapid move to begin. )
G01 F100.00000
( Mill infeed pass 1/1 )
G01 Z-0.17000
G04 P0 ( dwell for no time -- G64 should not smooth over this point )
G01 F200.00000
G01 X27.88794 Y41.50074
G01 X27.90324 Y41.32726
G01 X27.95213 Y41.15830
G01 X27.97171 Y41.11416
G01 X28.03283 Y41.00209
G01 X28.06790 Y40.95241
G01 X28.14222 Y40.86447
G01 X28.19556 Y40.81413
G01 X28.27613 Y40.75073
G01 X28.34908 Y40.70537
G01 X28.42957 Y40.66508
G01 X28.52185 Y40.63082
G01 X28.59666 Y40.61078
G01 X28.68545 Y40.59610
G01 X28.77113 Y40.58990
G01 X28.87362 Y40.59384
G01 X28.94636 Y40.60321
G01 X29.05812 Y40.63067
G01 X29.11570 Y40.65023
G01 X29.23105 Y40.70499
G01 X29.27283 Y40.72919
G01 X29.41172 Y40.83714
G01 X29.52711 Y40.97004
G01 X29.61438 Y41.12297
G01 X29.67006 Y41.29201
G01 X29.69256 Y41.48573
G01 X29.67489 Y41.66523
G01 X29.62350 Y41.83359
G01 X29.54054 Y41.98870
G01 X29.51222 Y42.02779
G01 X29.42914 Y42.12472
G01 X29.38449 Y42.16605
G01 X29.29356 Y42.23658
G01 X29.23089 Y42.27473
G01 X29.13887 Y42.32000
G01 X29.05807 Y42.34918
G01 X28.97098 Y42.37186
G01 X28.87362 Y42.38619
G01 X28.79625 Y42.39025
G01 X28.70636 Y42.38616
G01 X28.62127 Y42.37440
G01 X28.52185 Y42.34926
G01 X28.45264 Y42.32495
G01 X28.34901 Y42.27486
G01 X28.29676 Y42.24377
G01 X28.19534 Y42.16622
G01 X28.15950 Y42.13386
G01 X28.04608 Y41.99937
G01 X27.96084 Y41.84540
G01 X27.90727 Y41.67766
G01 X27.88794 Y41.50074
G04 P0 ( dwell for no time -- G64 should not smooth over this point )
G00 Z0.50000 ( retract )

G00 X22.81795 Y43.39073 ( rapid move to begin. )
G01 F100.00000
( Mill infeed pass 1/1 )
G01 Z-0.17000
G04 P0 ( dwell for no time -- G64 should not smooth over this point )
G01 F200.00000
G01 X22.81795 Y43.39073
G01 X22.83322 Y43.21728
G01 X22.88214 Y43.04829
G01 X22.90170 Y43.00414
G01 X22.96281 Y42.89208
G01 X22.99791 Y42.84240
G01 X23.07221 Y42.75449
G01 X23.12555 Y42.70415
G01 X23.20614 Y42.64072
G01 X23.27906 Y42.59538
G01 X23.35956 Y42.55507
G01 X23.45186 Y42.52083
G01 X23.52666 Y42.50079
G01 X23.61546 Y42.48609
G01 X23.70111 Y42.47989
G01 X23.80357 Y42.48383
G01 X23.87634 Y42.49320
G01 X23.98813 Y42.52066
G01 X24.04571 Y42.54021
G01 X24.16105 Y42.59500
G01 X24.20281 Y42.61918
G01 X24.34172 Y42.72716
G01 X24.45602 Y42.85850
G01 X24.54439 Y43.01298
G01 X24.60007 Y43.18200
G01 X24.62257 Y43.37575
G01 X24.60489 Y43.55525
G01 X24.55351 Y43.72357
G01 X24.47055 Y43.87869
G01 X24.44221 Y43.91781
G01 X24.35912 Y44.01473
G01 X24.31447 Y44.05604
G01 X24.22351 Y44.12657
G01 X24.16088 Y44.16472
G01 X24.06885 Y44.21001
G01 X23.98808 Y44.23919
G01 X23.90101 Y44.26188
G01 X23.82450 Y44.27399
G01 X23.72628 Y44.28024
G01 X23.63637 Y44.27615
G01 X23.55128 Y44.26439
G01 X23.45183 Y44.23925
G01 X23.38264 Y44.21494
G01 X23.27901 Y44.16485
G01 X23.22674 Y44.13373
G01 X23.12532 Y44.05621
G01 X23.08948 Y44.02385
G01 X22.97609 Y43.88939
G01 X22.89082 Y43.73539
G01 X22.83726 Y43.56764
G01 X22.81795 Y43.39073
G04 P0 ( dwell for no time -- G64 should not smooth over this point )
G00 Z0.50000 ( retract )

G00 X23.26372 Y46.71305 ( rapid move to begin. )
G01 F100.00000
( Mill infeed pass 1/1 )
G01 Z-0.17000
G04 P0 ( dwell for no time -- G64 should not smooth over this point )
G01 F200.00000
G01 X23.26372 Y46.71305
G01 X23.44886 Y46.79334
G01 X23.62435 Y46.82999
G01 X23.80360 Y46.83063
G01 X24.00274 Y46.79022
G01 X24.17749 Y46.71242
G01 X24.26552 Y46.64927
G01 X24.35912 Y46.55476
G01 X24.44221 Y46.45781
G01 X24.47055 Y46.41869
G01 X24.54784 Y46.27696
G01 X24.59920 Y46.11778
G01 X24.60489 Y46.09525
G01 X24.62257 Y45.91575
G01 X24.60007 Y45.72200
G01 X24.54800 Y45.56304
G01 X24.45572 Y45.39868
G01 X24.44276 Y45.38176
G01 X24.33108 Y45.25725
G01 X24.20281 Y45.15918
G01 X24.16105 Y45.13500
G01 X24.04571 Y45.08021
G01 X23.98813 Y45.06066
G01 X23.87634 Y45.03320
G01 X23.80357 Y45.02383
G01 X23.70111 Y45.01989
G01 X23.61546 Y45.02609
G01 X23.52666 Y45.04079
G01 X23.45186 Y45.06083
G01 X23.35956 Y45.09507
G01 X23.27906 Y45.13538
G01 X23.20614 Y45.18072
G01 X23.10970 Y45.25801
G01 X23.00543 Y45.36830
G01 X22.96763 Y45.40188
G01 X22.90241 Y45.42329
G01 X22.85923 Y45.42878
G01 X22.76890 Y45.40742
G01 X22.72961 Y45.38870
G01 X22.69067 Y45.34956
G01 X22.72961 Y45.38870
G01 X22.74836 Y45.39992
G01 X22.83764 Y45.42530
G01 X22.87083 Y45.42840
G01 X22.76903 Y45.48456
G01 X22.72207 Y45.46942
G01 X22.76903 Y45.48456
G01 X22.75628 Y45.48895
G01 X22.74345 Y45.51283
G01 X22.73713 Y45.51171
G01 X22.74345 Y45.51283
G01 X22.74693 Y45.53975
G01 X22.70261 Y45.52261
G01 X22.74693 Y45.53975
G01 X22.77820 Y45.66396
G01 X22.74216 Y45.62703
G01 X22.70642 Y45.60218
G01 X22.61650 Y45.57932
G01 X22.57299 Y45.57775
G01 X22.50213 Y45.60198
G01 X22.57299 Y45.57775
G01 X22.60132 Y45.57729
G01 X22.64820 Y45.54907
G01 X22.71135 Y45.51758
G01 X22.71394 Y45.52009
G01 X22.71135 Y45.51758
G01 X22.72364 Y45.50137
G01 X22.72621 Y45.48796
G01 X22.73124 Y45.48849
G01 X22.72621 Y45.48796
G01 X22.69067 Y45.34956
G01 X22.65250 Y45.30538
G01 X22.63776 Y45.26934
G01 X22.63403 Y45.15723
G01 X22.61142 Y44.99855
G01 X22.57597 Y44.89784
G01 X22.55565 Y44.85250
G01 X22.50454 Y44.77005
G01 X22.46898 Y44.72240
G01 X22.40817 Y44.65987
G01 X22.35572 Y44.61473
G01 X22.19438 Y44.51067
G01 X22.17198 Y44.47453
G01 X22.19466 Y44.51090
G01 X22.17198 Y44.50079
G01 X22.17198 Y44.47453
G01 X22.15930 Y44.39233
G01 X22.15722 Y14.86884
G01 X22.16433 Y14.79270
G01 X22.17198 Y14.76120
G01 X22.17198 Y14.73024
G01 X22.20370 Y14.71609
G01 X22.17437 Y14.75134
G01 X22.16433 Y14.79270
G01 X22.17437 Y14.75134
G01 X22.20370 Y14.71609
G01 X22.37193 Y14.60415
G01 X22.45163 Y14.52676
G01 X22.50469 Y14.48502
G01 X22.57299 Y14.46275
G01 X22.60132 Y14.46232
G01 X22.64831 Y14.43402
G01 X22.71135 Y14.40258
G01 X22.71394 Y14.40509
G01 X22.71135 Y14.40258
G01 X22.72364 Y14.38637
G01 X22.74345 Y14.39783
G01 X22.75628 Y14.37395
G01 X22.76901 Y14.36956
G01 X22.75280 Y14.38010
G01 X22.74549 Y14.39138
G01 X22.74262 Y14.40451
G01 X22.74693 Y14.42475
G01 X22.74345 Y14.39783
G01 X22.72364 Y14.38637
G01 X22.72621 Y14.37296
G01 X22.73124 Y14.37349
G01 X22.72621 Y14.37296
G01 X22.69067 Y14.23456
G01 X22.72207 Y14.35439
G01 X22.76901 Y14.36956
G01 X22.87083 Y14.31340
G01 X22.90241 Y14.30829
G01 X22.96761 Y14.28690
G01 X22.91856 Y14.37187
G01 X22.82481 Y14.42544
G01 X22.85112 Y14.53232
G01 X22.88409 Y14.43285
G01 X22.96761 Y14.28690
G01 X22.88409 Y14.43285
G01 X22.82324 Y14.62569
G01 X22.81569 Y14.59920
G01 X22.80546 Y14.57989
G01 X22.72547 Y14.49790
G01 X22.68569 Y14.48028
G01 X22.59481 Y14.46145
G01 X22.60132 Y14.46229
G01 X22.64831 Y14.43402
G01 X22.70264 Y14.40763
G01 X22.74693 Y14.42475
G01 X22.77820 Y14.54896
G01 X22.80546 Y14.57989
G01 X22.81569 Y14.59920
G01 X22.82324 Y14.62569
G01 X22.82575 Y14.72124
G01 X22.81798 Y14.81761
G01 X22.83726 Y14.99264
G01 X22.89082 Y15.16039
G01 X22.90109 Y15.18126
G01 X22.97609 Y15.31439
G01 X22.99750 Y15.34304
G01 X23.10921 Y15.46750
G01 X23.22674 Y15.55873
G01 X23.27901 Y15.58985
G01 X23.38264 Y15.63994
G01 X23.45183 Y15.66425
G01 X23.55128 Y15.68939
G01 X23.61544 Y15.69909
G01 X23.72628 Y15.70524
G01 X23.82450 Y15.69899
G01 X23.90101 Y15.68688
G01 X23.98808 Y15.66419
G01 X24.06885 Y15.63501
G01 X24.16088 Y15.58972
G01 X24.22351 Y15.55157
G01 X24.31447 Y15.48104
G01 X24.35912 Y15.43973
G01 X24.44221 Y15.34281
G01 X24.47055 Y15.30369
G01 X24.55351 Y15.14857
G01 X24.60489 Y14.98025
G01 X24.62257 Y14.80075
G01 X24.60007 Y14.60700
G01 X24.54800 Y14.44804
G01 X24.45712 Y14.28505
G01 X24.44274 Y14.26676
G01 X24.33108 Y14.14225
G01 X24.20281 Y14.04418
G01 X24.16105 Y14.02000
G01 X24.04571 Y13.96521
G01 X23.98813 Y13.94566
G01 X23.87634 Y13.91820
G01 X23.80357 Y13.90883
G01 X23.70111 Y13.90489
G01 X23.61546 Y13.91109
G01 X23.52666 Y13.92579
G01 X23.45186 Y13.94583
G01 X23.35956 Y13.98007
G01 X23.27906 Y14.02038
G01 X23.20614 Y14.06572
G01 X23.10970 Y14.14301
G01 X23.00543 Y14.25330
G01 X22.96761 Y14.28690
G01 X22.88107 Y14.31309
G01 X22.83764 Y14.31030
G01 X22.76890 Y14.29242
G01 X22.72961 Y14.27370
G01 X22.65250 Y14.19038
G01 X22.63761 Y14.15333
G01 X22.63136 Y14.20667
G01 X22.61777 Y14.25053
G01 X22.64386 Y14.35353
G01 X22.55433 Y14.40349
G01 X22.50469 Y14.48502
G01 X22.58516 Y14.34883
G01 X22.63136 Y14.20667
G01 X22.63761 Y14.15333
G01 X22.63403 Y14.04223
G01 X22.61564 Y13.90182
G01 X22.57597 Y13.78284
G01 X22.55565 Y13.73750
G01 X22.50454 Y13.65505
G01 X22.46898 Y13.60740
G01 X22.39273 Y13.53057
G01 X22.35572 Y13.49973
G01 X22.29108 Y13.45711
G01 X22.22148 Y13.41980
G01 X22.13830 Y13.38904
G01 X22.07289 Y13.37151
G01 X21.99469 Y13.36080
G01 X21.91729 Y13.35729
G01 X21.84833 Y13.36298
G01 X21.76238 Y13.37781
G01 X21.70564 Y13.39547
G01 X21.59075 Y13.44578
G01 X21.48481 Y13.51751
G01 X21.45539 Y13.54454
G01 X21.37109 Y13.63740
G01 X21.29431 Y13.76387
G01 X21.24485 Y13.91200
G01 X21.22977 Y14.06783
G01 X21.24981 Y14.22305
G01 X21.30363 Y14.36994
G01 X21.35928 Y14.46110
G01 X21.38857 Y14.50120
G01 X21.47107 Y14.58569
G01 X21.50038 Y14.61045
G01 X21.66883 Y14.72000
G01 X21.68973 Y14.74936
G01 X21.69443 Y14.76826
G01 X21.68973 Y14.74936
G01 X21.66858 Y14.71980
G01 X21.69200 Y14.73024
G01 X21.69200 Y14.75724
G01 X21.70673 Y14.86808
G01 X21.70673 Y44.36119
G01 X21.70007 Y44.43490
G01 X21.68996 Y44.47755
G01 X21.65882 Y44.51557
G01 X21.68996 Y44.47755
G01 X21.70007 Y44.43490
G01 X21.69200 Y44.46899
G01 X21.69200 Y44.50079
G01 X21.65882 Y44.51557
G01 X21.47066 Y44.64481
G01 X21.37589 Y44.74481
G01 X21.29494 Y44.87767
G01 X21.24485 Y45.02700
G01 X21.22977 Y45.18283
G01 X21.24788 Y45.32936
G01 X21.28775 Y45.44829
G01 X21.30363 Y45.48494
G01 X21.35928 Y45.57610
G01 X21.38857 Y45.61620
G01 X21.45570 Y45.68623
G01 X21.50005 Y45.72517
G01 X21.59118 Y45.78430
G01 X21.63967 Y45.80963
G01 X21.72563 Y45.84211
G01 X21.78148 Y45.85750
G01 X21.84833 Y45.86810
G01 X21.93688 Y45.87384
G01 X21.99469 Y45.87038
G01 X22.09202 Y45.85540
G01 X22.13835 Y45.84229
G01 X22.23926 Y45.80312
G01 X22.29113 Y45.77404
G01 X22.37193 Y45.71913
G01 X22.45163 Y45.64176
G01 X22.50533 Y45.59959
G01 X22.51699 Y45.58318
G01 X22.58948 Y45.45260
G01 X22.63136 Y45.32167
G01 X22.63761 Y45.26833
G01 X22.63136 Y45.32167
G01 X22.61777 Y45.36553
G01 X22.64386 Y45.46853
G01 X22.55433 Y45.51849
G01 X22.51699 Y45.58318
G01 X22.50213 Y45.60198
G01 X22.55181 Y45.58313
G01 X22.59481 Y45.57645
G01 X22.70642 Y45.60218
G01 X22.74216 Y45.62703
G01 X22.79174 Y45.67785
G01 X22.81569 Y45.71420
G01 X22.82324 Y45.74066
G01 X22.88409 Y45.54785
G01 X22.96763 Y45.40188
G01 X22.91856 Y45.48687
G01 X22.82481 Y45.54044
G01 X22.85112 Y45.64732
G01 X22.82324 Y45.74066
G01 X22.82575 Y45.83624
G01 X22.81798 Y45.93261
G01 X22.83726 Y46.10764
G01 X22.89082 Y46.27539
G01 X22.97609 Y46.42939
G01 X23.09088 Y46.56545
G01 X23.16850 Y46.64490
G01 X23.18811 Y46.68783
G01 X23.19837 Y46.73012
G01 X23.18722 Y46.82225
G01 X23.17297 Y46.86337
G01 X23.11381 Y46.93482
G01 X23.08061 Y46.96108
G01 X23.05867 Y46.96766
G01 X22.95880 Y46.97993
G01 X22.72359 Y46.97876
G01 X22.67188 Y46.97338
G01 X22.62862 Y46.96322
G01 X22.59215 Y46.93370
G01 X22.62862 Y46.96322
G01 X22.67188 Y46.97338
G01 X22.63652 Y46.96510
G01 X22.60236 Y46.96507
G01 X22.59215 Y46.93370
G01 X22.46898 Y46.75440
G01 X22.40817 Y46.69187
G01 X22.35572 Y46.64673
G01 X22.29108 Y46.60411
G01 X22.22148 Y46.56680
G01 X22.13830 Y46.53604
G01 X22.07289 Y46.51851
G01 X21.99469 Y46.50780
G01 X21.92385 Y46.50460
G01 X21.86926 Y46.50797
G01 X21.76197 Y46.52494
G01 X21.72555 Y46.53553
G01 X21.61582 Y46.57912
G01 X21.57272 Y46.60386
G01 X21.48483 Y46.66451
G01 X21.37589 Y46.77681
G01 X21.35880 Y46.80170
G01 X21.29449 Y46.91049
G01 X21.24485 Y47.05900
G01 X21.22977 Y47.21483
G01 X21.24432 Y47.34038
G01 X21.24981 Y47.37005
G01 X21.30363 Y47.51694
G01 X21.35928 Y47.60810
G01 X21.38857 Y47.64820
G01 X21.47107 Y47.73269
G01 X21.50038 Y47.75745
G01 X21.57287 Y47.80596
G01 X21.63355 Y47.83921
G01 X21.72563 Y47.87411
G01 X21.78148 Y47.88950
G01 X21.84833 Y47.90010
G01 X21.93688 Y47.90584
G01 X22.01562 Y47.90005
G01 X22.08552 Y47.88846
G01 X22.15809 Y47.86713
G01 X22.23964 Y47.83489
G01 X22.27307 Y47.81699
G01 X22.37137 Y47.75153
G01 X22.40838 Y47.71836
G01 X22.48173 Y47.64076
G01 X22.59502 Y47.46756
G01 X22.60236 Y47.44500
G01 X22.63172 Y47.44500
G01 X22.59502 Y47.46756
G01 X22.62626 Y47.44625
G01 X22.71356 Y47.43236
G01 X22.92593 Y47.43027
G01 X22.98981 Y47.43599
G01 X23.03045 Y47.44500
G01 X23.05798 Y47.45786
G01 X23.09321 Y47.48343
G01 X23.11389 Y47.51231
G01 X23.20965 Y47.56563
G01 X23.16182 Y47.65760
G01 X23.15920 Y47.71587
G01 X23.14612 Y47.74958
G01 X22.98513 Y47.93921
G01 X22.96281 Y47.97208
G01 X22.90170 Y48.08414
G01 X22.88214 Y48.12829
G01 X22.83599 Y48.28305
G01 X22.81884 Y48.44940
G01 X22.81798 Y48.47264
G01 X22.83726 Y48.64764
G01 X22.89082 Y48.81539
G01 X22.97609 Y48.96939
G01 X23.08948 Y49.10385
G01 X23.10921 Y49.12250
G01 X23.22674 Y49.21373
G01 X23.27901 Y49.24485
G01 X23.38264 Y49.29496
G01 X23.45183 Y49.31925
G01 X23.54561 Y49.34297
G01 X23.61549 Y49.35374
G01 X23.72659 Y49.36022
G01 X23.82450 Y49.35399
G01 X23.90101 Y49.34188
G01 X23.98808 Y49.31919
G01 X24.06885 Y49.29001
G01 X24.17927 Y49.23446
G01 X24.22351 Y49.20657
G01 X24.31447 Y49.13604
G01 X24.35912 Y49.09473
G01 X24.44221 Y48.99781
G01 X24.47055 Y48.95869
G01 X24.55351 Y48.80357
G01 X24.60489 Y48.63525
G01 X24.62161 Y48.47071
G01 X24.62168 Y48.43921
G01 X24.59964 Y48.26017
G01 X24.53931 Y48.08354
G01 X24.45602 Y47.93850
G01 X24.30080 Y47.75643
G01 X24.27810 Y47.70149
G01 X24.27500 Y47.67988
G01 X24.28615 Y47.58780
G01 X24.30040 Y47.54668
G01 X24.35955 Y47.47523
G01 X24.39219 Y47.44932
G01 X24.40657 Y47.44500
G01 X24.37538 Y47.46014
G01 X24.32686 Y47.51292
G01 X24.29242 Y47.52865
G01 X24.23309 Y47.56560
G01 X24.27667 Y47.65374
G01 X24.27810 Y47.70149
G01 X24.30080 Y47.75643
G01 X24.17749 Y47.66761
G01 X24.01399 Y47.59410
G01 X23.80360 Y47.54940
G01 X23.62435 Y47.55003
G01 X23.43723 Y47.58978
G01 X23.26248 Y47.66761
G01 X23.14188 Y47.75562
G01 X23.15288 Y47.73680
G01 X23.16149 Y47.69413
G01 X23.16212 Y47.62313
G01 X23.15427 Y47.58034
G01 X23.09321 Y47.48343
G01 X23.07680 Y47.46896
G01 X23.03045 Y47.44500
G01 X23.14676 Y47.44500
G01 X23.26487 Y47.51231
G01 X23.42811 Y47.47980
G01 X23.59730 Y47.46177
G01 X23.80360 Y47.45991
G01 X24.01183 Y47.47980
G01 X24.17688 Y47.51270
G01 X24.25506 Y47.46403
G01 X24.29595 Y47.44500
G01 X24.40657 Y47.44500
G01 X24.39219 Y47.44932
G01 X24.35955 Y47.47523
G01 X24.31307 Y47.52888
G01 X24.29130 Y47.56657
G01 X24.27500 Y47.67988
G01 X24.27810 Y47.70149
G01 X24.30080 Y47.75643
G01 X24.21292 Y47.69258
G01 X24.15887 Y47.58516
G01 X24.00111 Y47.55364
G01 X23.80261 Y47.53451
G01 X23.60413 Y47.53627
G01 X23.43883 Y47.55364
G01 X23.28333 Y47.58468
G01 X23.22814 Y47.69177
G01 X23.14188 Y47.75562
G01 X23.15288 Y47.73680
G01 X23.16149 Y47.69413
G01 X23.16212 Y47.62313
G01 X23.15427 Y47.58034
G01 X23.09321 Y47.48343
G01 X23.07680 Y47.46896
G01 X23.03045 Y47.44500
G01 X24.40657 Y47.44500
G01 X24.51457 Y47.43027
G01 X25.92143 Y47.43027
G01 X26.02915 Y47.44500
G01 X26.06339 Y47.46179
G01 X26.08820 Y47.48597
G01 X26.14185 Y47.56002
G01 X26.14944 Y47.57907
G01 X26.15620 Y47.62291
G01 X26.14944 Y47.57907
G01 X26.13100 Y47.54262
G01 X26.07672 Y47.47294
G01 X26.04855 Y47.45278
G01 X26.02915 Y47.44500
G01 X26.09958 Y47.44500
G01 X26.18874 Y47.53418
G01 X26.15620 Y47.62291
G01 X26.13179 Y47.84983
G01 X26.15180 Y48.00505
G01 X26.20563 Y48.15194
G01 X26.26128 Y48.24310
G01 X26.29056 Y48.28320
G01 X26.35770 Y48.35323
G01 X26.40237 Y48.39245
G01 X26.47489 Y48.44099
G01 X26.53555 Y48.47421
G01 X26.62762 Y48.50911
G01 X26.68348 Y48.52450
G01 X26.75033 Y48.53510
G01 X26.83887 Y48.54084
G01 X26.89668 Y48.53738
G01 X26.99402 Y48.52240
G01 X27.04035 Y48.50929
G01 X27.14129 Y48.47010
G01 X27.19313 Y48.44104
G01 X27.27337 Y48.38653
G01 X27.31037 Y48.35336
G01 X27.38375 Y48.27576
G01 X27.40689 Y48.24320
G01 X27.47062 Y48.13517
G01 X27.51848 Y47.99651
G01 X27.53547 Y47.82014
G01 X27.51705 Y47.68402
G01 X27.46991 Y47.54531
G01 X27.40654 Y47.43705
G01 X27.37098 Y47.38940
G01 X27.31017 Y47.32687
G01 X27.25775 Y47.28173
G01 X27.19308 Y47.23909
G01 X27.12348 Y47.20180
G01 X27.04030 Y47.17104
G01 X26.97489 Y47.15351
G01 X26.89671 Y47.14280
G01 X26.81929 Y47.13929
G01 X26.75033 Y47.14498
G01 X26.55711 Y47.18412
G01 X26.53834 Y47.18366
G01 X26.50753 Y47.17414
G01 X26.53834 Y47.18366
G01 X26.56011 Y47.18356
G01 X26.52978 Y47.19639
G01 X26.50753 Y47.17414
G01 X26.41652 Y47.10401
G01 X26.33301 Y47.02250
G01 X26.28068 Y46.99382
G01 X26.22049 Y46.97952
G01 X24.47977 Y46.98041
G01 X24.41231 Y46.97416
G01 X24.37772 Y46.96621
G01 X24.34497 Y46.95034
G01 X24.31010 Y46.92428
G01 X24.29697 Y46.90678
G01 X24.25041 Y46.82654
G01 X24.24472 Y46.80543
G01 X24.24393 Y46.74757
G01 X24.18968 Y46.84081
G01 X24.29163 Y46.89804
G01 X24.31010 Y46.92428
G01 X24.32628 Y46.93896
G01 X24.37772 Y46.96621
G01 X23.05867 Y46.96766
G01 X23.08061 Y46.96108
G01 X23.09799 Y46.94991
G01 X23.14609 Y46.89758
G01 X23.18092 Y46.88168
G01 X23.24742 Y46.83949
G01 X23.19750 Y46.74810
G01 X23.19527 Y46.70851
G01 X23.16850 Y46.64490
G01 X23.26372 Y46.71305
G01 X23.32151 Y46.81930
G01 X23.43563 Y46.84153
G01 X23.63736 Y46.86088
G01 X23.83906 Y46.85903
G01 X24.00436 Y46.84170
G01 X24.11584 Y46.82027
G01 X24.17845 Y46.71181
G01 X24.26552 Y46.64927
G01 X24.25397 Y46.67010
G01 X24.24475 Y46.71267
G01 X24.24315 Y46.78364
G01 X24.25041 Y46.82654
G01 X24.31010 Y46.92428
G01 X24.32628 Y46.93896
G01 X24.37772 Y46.96621
G01 X24.26088 Y46.96614
G01 X24.17441 Y46.91981
G01 X24.13294 Y46.89291
G01 X24.01508 Y46.91557
G01 X23.84586 Y46.93335
G01 X23.63634 Y46.93568
G01 X23.42682 Y46.91562
G01 X23.30393 Y46.89200
G01 X23.21879 Y46.94602
G01 X23.17708 Y46.96545
G04 P0 ( dwell for no time -- G64 should not smooth over this point )
G00 Z0.50000 ( retract )

G00 X22.81795 Y51.01073 ( rapid move to begin. )
G01 F100.00000
( Mill infeed pass 1/1 )
G01 Z-0.17000
G04 P0 ( dwell for no time -- G64 should not smooth over this point )
G01 F200.00000
G01 X22.81795 Y51.01073
G01 X22.83322 Y50.83728
G01 X22.88214 Y50.66829
G01 X22.90170 Y50.62414
G01 X22.96281 Y50.51208
G01 X22.99791 Y50.46240
G01 X23.07221 Y50.37449
G01 X23.12555 Y50.32415
G01 X23.20614 Y50.26072
G01 X23.27906 Y50.21538
G01 X23.35956 Y50.17507
G01 X23.45186 Y50.14083
G01 X23.52666 Y50.12079
G01 X23.61546 Y50.10609
G01 X23.70111 Y50.09989
G01 X23.80357 Y50.10383
G01 X23.87634 Y50.11320
G01 X23.98813 Y50.14066
G01 X24.04571 Y50.16021
G01 X24.16105 Y50.21500
G01 X24.20281 Y50.23918
G01 X24.34172 Y50.34716
G01 X24.45602 Y50.47850
G01 X24.54439 Y50.63298
G01 X24.60007 Y50.80200
G01 X24.62257 Y50.99575
G01 X24.60489 Y51.17525
G01 X24.55351 Y51.34357
G01 X24.47055 Y51.49869
G01 X24.44221 Y51.53781
G01 X24.35912 Y51.63473
G01 X24.31447 Y51.67604
G01 X24.22351 Y51.74657
G01 X24.16088 Y51.78472
G01 X24.06885 Y51.83001
G01 X23.98808 Y51.85919
G01 X23.90101 Y51.88188
G01 X23.82450 Y51.89399
G01 X23.72628 Y51.90024
G01 X23.63637 Y51.89615
G01 X23.55128 Y51.88439
G01 X23.45183 Y51.85925
G01 X23.38264 Y51.83494
G01 X23.27901 Y51.78485
G01 X23.22674 Y51.75373
G01 X23.12532 Y51.67621
G01 X23.08948 Y51.64385
G01 X22.97609 Y51.50939
G01 X22.89082 Y51.35539
G01 X22.83726 Y51.18764
G01 X22.81795 Y51.01073
G04 P0 ( dwell for no time -- G64 should not smooth over this point )
G00 Z0.50000 ( retract )

G00 X22.95808 Y54.04072 ( rapid move to begin. )
G01 F100.00000
( Mill infeed pass 1/1 )
G01 Z-0.17000
G04 P0 ( dwell for no time -- G64 should not smooth over this point )
G01 F200.00000
G01 X22.95808 Y54.04072
G01 X22.97972 Y54.07783
G01 X23.02631 Y54.13051
G01 X23.12557 Y54.21588
G01 X23.22699 Y54.29391
G01 X23.27901 Y54.32485
G01 X23.38264 Y54.37494
G01 X23.45183 Y54.39925
G01 X23.55097 Y54.42432
G01 X23.63637 Y54.43587
G01 X23.73210 Y54.43994
G01 X23.82450 Y54.43399
G01 X23.90098 Y54.42188
G01 X23.98808 Y54.39919
G01 X24.06885 Y54.37001
G01 X24.16088 Y54.32472
G01 X24.22351 Y54.28657
G01 X24.31447 Y54.21604
G01 X24.35912 Y54.17473
G01 X24.44221 Y54.07781
G01 X24.47055 Y54.03869
G01 X24.55351 Y53.88357
G01 X24.60489 Y53.71525
G01 X24.62257 Y53.53575
G01 X24.60007 Y53.34200
G01 X24.54439 Y53.17298
G01 X24.45602 Y53.01850
G01 X24.34172 Y52.88716
G01 X24.20281 Y52.77918
G01 X24.16105 Y52.75500
G01 X24.04571 Y52.70021
G01 X23.98813 Y52.68066
G01 X23.87634 Y52.65320
G01 X23.80357 Y52.64383
G01 X23.70111 Y52.63989
G01 X23.61546 Y52.64609
G01 X23.52666 Y52.66079
G01 X23.45186 Y52.68083
G01 X23.35956 Y52.71507
G01 X23.27906 Y52.75538
G01 X23.20614 Y52.80072
G01 X23.12555 Y52.86415
G01 X23.07221 Y52.91449
G01 X22.99791 Y53.00240
G01 X22.96281 Y53.05208
G01 X22.90170 Y53.16414
G01 X22.88214 Y53.20829
G01 X22.83322 Y53.37728
G01 X22.81795 Y53.55073
G01 X22.83726 Y53.72764
G01 X22.89082 Y53.89539
G01 X22.93271 Y53.97641
G01 X22.95890 Y54.04326
G01 X22.96029 Y54.08332
G01 X22.95471 Y54.10562
G01 X22.98364 Y54.11014
G01 X23.02631 Y54.13051
G04 P0 ( dwell for no time -- G64 should not smooth over this point )
G00 Z0.50000 ( retract )

G00 X27.88794 Y59.28074 ( rapid move to begin. )
G01 F100.00000
( Mill infeed pass 1/1 )
G01 Z-0.17000
G04 P0 ( dwell for no time -- G64 should not smooth over this point )
G01 F200.00000
G01 X27.88794 Y59.28074
G01 X27.90324 Y59.10726
G01 X27.95213 Y58.93830
G01 X27.97171 Y58.89416
G01 X28.03283 Y58.78209
G01 X28.06790 Y58.73241
G01 X28.14222 Y58.64447
G01 X28.19556 Y58.59413
G01 X28.27613 Y58.53073
G01 X28.34908 Y58.48537
G01 X28.42957 Y58.44508
G01 X28.52185 Y58.41082
G01 X28.59666 Y58.39078
G01 X28.68545 Y58.37610
G01 X28.77113 Y58.36990
G01 X28.87362 Y58.37384
G01 X28.94636 Y58.38321
G01 X29.05812 Y58.41067
G01 X29.11570 Y58.43023
G01 X29.23105 Y58.48499
G01 X29.27283 Y58.50919
G01 X29.41172 Y58.61714
G01 X29.52711 Y58.75004
G01 X29.61438 Y58.90297
G01 X29.67006 Y59.07201
G01 X29.69256 Y59.26573
G01 X29.67489 Y59.44523
G01 X29.62350 Y59.61359
G01 X29.54054 Y59.76870
G01 X29.51222 Y59.80779
G01 X29.42914 Y59.90472
G01 X29.38449 Y59.94605
G01 X29.29356 Y60.01658
G01 X29.23089 Y60.05473
G01 X29.13887 Y60.10000
G01 X29.05807 Y60.12918
G01 X28.97098 Y60.15186
G01 X28.87362 Y60.16619
G01 X28.79625 Y60.17025
G01 X28.70636 Y60.16616
G01 X28.62127 Y60.15440
G01 X28.52185 Y60.12926
G01 X28.45264 Y60.10495
G01 X28.34901 Y60.05486
G01 X28.29676 Y60.02377
G01 X28.19534 Y59.94622
G01 X28.15950 Y59.91386
G01 X28.04608 Y59.77937
G01 X27.96084 Y59.62540
G01 X27.90727 Y59.45766
G01 X27.88794 Y59.28074
G04 P0 ( dwell for no time -- G64 should not smooth over this point )
G00 Z0.50000 ( retract )

G00 X27.88794 Y61.82077 ( rapid move to begin. )
G01 F100.00000
( Mill infeed pass 1/1 )
G01 Z-0.17000
G04 P0 ( dwell for no time -- G64 should not smooth over this point )
G01 F200.00000
G01 X27.88794 Y61.82077
G01 X27.90324 Y61.64729
G01 X27.95213 Y61.47835
G01 X27.97171 Y61.43416
G01 X28.03283 Y61.32212
G01 X28.06790 Y61.27241
G01 X28.14222 Y61.18447
G01 X28.19556 Y61.13413
G01 X28.27613 Y61.07073
G01 X28.34908 Y61.02539
G01 X28.42957 Y60.98508
G01 X28.52185 Y60.95082
G01 X28.59666 Y60.93078
G01 X28.68545 Y60.91612
G01 X28.77113 Y60.90990
G01 X28.87362 Y60.91386
G01 X28.94636 Y60.92324
G01 X29.05812 Y60.95067
G01 X29.11570 Y60.97023
G01 X29.23105 Y61.02499
G01 X29.27283 Y61.04919
G01 X29.41172 Y61.15717
G01 X29.52602 Y61.28851
G01 X29.61438 Y61.44300
G01 X29.67006 Y61.61201
G01 X29.69256 Y61.80576
G01 X29.67489 Y61.98523
G01 X29.62350 Y62.15359
G01 X29.54054 Y62.30870
G01 X29.51222 Y62.34779
G01 X29.42914 Y62.44472
G01 X29.38449 Y62.48605
G01 X29.29356 Y62.55658
G01 X29.23089 Y62.59473
G01 X29.13887 Y62.64000
G01 X29.05807 Y62.66918
G01 X28.97098 Y62.69189
G01 X28.89452 Y62.70400
G01 X28.79625 Y62.71025
G01 X28.70636 Y62.70619
G01 X28.62127 Y62.69440
G01 X28.52185 Y62.66926
G01 X28.45264 Y62.64497
G01 X28.34901 Y62.59486
G01 X28.29676 Y62.56377
G01 X28.19534 Y62.48622
G01 X28.15950 Y62.45386
G01 X28.04608 Y62.31940
G01 X27.96155 Y62.16712
G01 X27.90727 Y61.99766
G01 X27.88794 Y61.82077
G04 P0 ( dwell for no time -- G64 should not smooth over this point )
G00 Z0.50000 ( retract )

G00 X27.88794 Y64.36074 ( rapid move to begin. )
G01 F100.00000
( Mill infeed pass 1/1 )
G01 Z-0.17000
G04 P0 ( dwell for no time -- G64 should not smooth over this point )
G01 F200.00000
G01 X27.88794 Y64.36074
G01 X27.90727 Y64.53766
G01 X27.96084 Y64.70540
G01 X28.04608 Y64.85937
G01 X28.15950 Y64.99386
G01 X28.19534 Y65.02622
G01 X28.29676 Y65.10377
G01 X28.34901 Y65.13486
G01 X28.45264 Y65.18495
G01 X28.52185 Y65.20926
G01 X28.62127 Y65.23440
G01 X28.70636 Y65.24616
G01 X28.79625 Y65.25025
G01 X28.87362 Y65.24619
G01 X28.97098 Y65.23186
G01 X29.05807 Y65.20918
G01 X29.13887 Y65.18000
G01 X29.23089 Y65.13473
G01 X29.29356 Y65.09658
G01 X29.38449 Y65.02605
G01 X29.42914 Y64.98472
G01 X29.51222 Y64.88779
G01 X29.54054 Y64.84870
G01 X29.62350 Y64.69359
G01 X29.67489 Y64.52523
G01 X29.69256 Y64.34573
G01 X29.67006 Y64.15201
G01 X29.61438 Y63.98297
G01 X29.52711 Y63.83004
G01 X29.41172 Y63.69714
G01 X29.27283 Y63.58919
G01 X29.23105 Y63.56499
G01 X29.11570 Y63.51023
G01 X29.05812 Y63.49067
G01 X28.94636 Y63.46321
G01 X28.87362 Y63.45384
G01 X28.77113 Y63.44990
G01 X28.68545 Y63.45610
G01 X28.59666 Y63.47078
G01 X28.52185 Y63.49082
G01 X28.42957 Y63.52508
G01 X28.34908 Y63.56537
G01 X28.27613 Y63.61073
G01 X28.19556 Y63.67413
G01 X28.14222 Y63.72447
G01 X28.06790 Y63.81241
G01 X28.03283 Y63.86209
G01 X27.97171 Y63.97416
G01 X27.95213 Y64.01830
G01 X27.90324 Y64.18726
G01 X27.88794 Y64.36074
G04 P0 ( dwell for no time -- G64 should not smooth over this point )
G00 Z0.50000 ( retract )

G00 X27.88794 Y66.90074 ( rapid move to begin. )
G01 F100.00000
( Mill infeed pass 1/1 )
G01 Z-0.17000
G04 P0 ( dwell for no time -- G64 should not smooth over this point )
G01 F200.00000
G01 X27.88794 Y66.90074
G01 X27.90727 Y67.07766
G01 X27.96084 Y67.24540
G01 X28.04608 Y67.39937
G01 X28.15950 Y67.53386
G01 X28.19534 Y67.56622
G01 X28.29676 Y67.64377
G01 X28.34901 Y67.67486
G01 X28.45264 Y67.72495
G01 X28.52185 Y67.74926
G01 X28.62127 Y67.77440
G01 X28.70636 Y67.78616
G01 X28.79625 Y67.79025
G01 X28.87362 Y67.78619
G01 X28.97098 Y67.77186
G01 X29.05807 Y67.74918
G01 X29.13887 Y67.72000
G01 X29.23089 Y67.67473
G01 X29.29356 Y67.63658
G01 X29.38449 Y67.56605
G01 X29.42914 Y67.52472
G01 X29.51222 Y67.42779
G01 X29.54054 Y67.38870
G01 X29.62350 Y67.23359
G01 X29.67489 Y67.06523
G01 X29.69256 Y66.88573
G01 X29.67006 Y66.69201
G01 X29.61438 Y66.52297
G01 X29.52711 Y66.37004
G01 X29.41172 Y66.23714
G01 X29.27283 Y66.12919
G01 X29.23105 Y66.10499
G01 X29.11570 Y66.05023
G01 X29.05812 Y66.03067
G01 X28.94636 Y66.00321
G01 X28.87362 Y65.99384
G01 X28.77113 Y65.98990
G01 X28.68545 Y65.99610
G01 X28.59666 Y66.01078
G01 X28.52185 Y66.03082
G01 X28.42957 Y66.06508
G01 X28.34908 Y66.10537
G01 X28.27613 Y66.15073
G01 X28.19556 Y66.21413
G01 X28.14222 Y66.26447
G01 X28.06790 Y66.35241
G01 X28.03283 Y66.40209
G01 X27.97171 Y66.51416
G01 X27.95213 Y66.55830
G01 X27.90324 Y66.72726
G01 X27.88794 Y66.90074
G04 P0 ( dwell for no time -- G64 should not smooth over this point )
G00 Z0.50000 ( retract )

G00 X29.58662 Y70.46787 ( rapid move to begin. )
G01 F100.00000
( Mill infeed pass 1/1 )
G01 Z-0.17000
G04 P0 ( dwell for no time -- G64 should not smooth over this point )
G01 F200.00000
G01 X29.58662 Y70.46787
G01 X29.53552 Y70.53556
G01 X29.58352 Y70.62075
G01 X29.61776 Y70.65751
G01 X29.68004 Y70.70000
G01 X43.86993 Y70.70000
G01 X43.83274 Y70.62141
G01 X43.75461 Y70.48428
G01 X43.68012 Y70.37554
G01 X43.64435 Y70.33142
G04 P0 ( dwell for no time -- G64 should not smooth over this point )
G00 Z0.50000 ( retract )

G00 X43.12794 Y66.90074 ( rapid move to begin. )
G01 F100.00000
( Mill infeed pass 1/1 )
G01 Z-0.17000
G04 P0 ( dwell for no time -- G64 should not smooth over this point )
G01 F200.00000
G01 X43.12794 Y66.90074
G01 X43.14324 Y66.72726
G01 X43.19213 Y66.55830
G01 X43.21171 Y66.51416
G01 X43.27283 Y66.40209
G01 X43.30790 Y66.35241
G01 X43.38222 Y66.26447
G01 X43.43556 Y66.21413
G01 X43.51613 Y66.15073
G01 X43.58908 Y66.10537
G01 X43.66957 Y66.06508
G01 X43.76185 Y66.03082
G01 X43.83666 Y66.01078
G01 X43.92545 Y65.99610
G01 X44.01113 Y65.98990
G01 X44.11362 Y65.99384
G01 X44.18636 Y66.00321
G01 X44.29812 Y66.03067
G01 X44.35570 Y66.05023
G01 X44.47105 Y66.10499
G01 X44.51283 Y66.12919
G01 X44.65172 Y66.23714
G01 X44.76711 Y66.37004
G01 X44.85438 Y66.52297
G01 X44.91006 Y66.69201
G01 X44.93256 Y66.88573
G01 X44.91489 Y67.06523
G01 X44.86350 Y67.23359
G01 X44.78054 Y67.38870
G01 X44.75222 Y67.42779
G01 X44.66914 Y67.52472
G01 X44.62449 Y67.56605
G01 X44.53356 Y67.63658
G01 X44.47089 Y67.67473
G01 X44.37887 Y67.72000
G01 X44.29807 Y67.74918
G01 X44.21098 Y67.77186
G01 X44.11359 Y67.78619
G01 X44.03625 Y67.79025
G01 X43.94636 Y67.78616
G01 X43.86127 Y67.77440
G01 X43.76185 Y67.74926
G01 X43.69264 Y67.72495
G01 X43.58901 Y67.67486
G01 X43.53676 Y67.64377
G01 X43.43534 Y67.56622
G01 X43.39950 Y67.53386
G01 X43.28608 Y67.39937
G01 X43.20084 Y67.24540
G01 X43.14727 Y67.07766
G01 X43.12794 Y66.90074
G04 P0 ( dwell for no time -- G64 should not smooth over this point )
G00 Z0.50000 ( retract )

G00 X43.12794 Y64.36074 ( rapid move to begin. )
G01 F100.00000
( Mill infeed pass 1/1 )
G01 Z-0.17000
G04 P0 ( dwell for no time -- G64 should not smooth over this point )
G01 F200.00000
G01 X43.12794 Y64.36074
G01 X43.14324 Y64.18726
G01 X43.19213 Y64.01830
G01 X43.21171 Y63.97416
G01 X43.27283 Y63.86209
G01 X43.30790 Y63.81241
G01 X43.38222 Y63.72447
G01 X43.43556 Y63.67413
G01 X43.51613 Y63.61073
G01 X43.58908 Y63.56537
G01 X43.66957 Y63.52508
G01 X43.76185 Y63.49082
G01 X43.83666 Y63.47078
G01 X43.92545 Y63.45610
G01 X44.01113 Y63.44990
G01 X44.11362 Y63.45384
G01 X44.18636 Y63.46321
G01 X44.29812 Y63.49067
G01 X44.35570 Y63.51023
G01 X44.47105 Y63.56499
G01 X44.51283 Y63.58919
G01 X44.65172 Y63.69714
G01 X44.76711 Y63.83004
G01 X44.85438 Y63.98297
G01 X44.91006 Y64.15201
G01 X44.93256 Y64.34573
G01 X44.91489 Y64.52523
G01 X44.86350 Y64.69359
G01 X44.78054 Y64.84870
G01 X44.75222 Y64.88779
G01 X44.66914 Y64.98472
G01 X44.62449 Y65.02605
G01 X44.53356 Y65.09658
G01 X44.47089 Y65.13473
G01 X44.37887 Y65.18000
G01 X44.29807 Y65.20918
G01 X44.21098 Y65.23186
G01 X44.11359 Y65.24619
G01 X44.03625 Y65.25025
G01 X43.94636 Y65.24616
G01 X43.86127 Y65.23440
G01 X43.76185 Y65.20926
G01 X43.69264 Y65.18495
G01 X43.58901 Y65.13486
G01 X43.53676 Y65.10377
G01 X43.43534 Y65.02622
G01 X43.39950 Y64.99386
G01 X43.28608 Y64.85937
G01 X43.20084 Y64.70540
G01 X43.14727 Y64.53766
G01 X43.12794 Y64.36074
G04 P0 ( dwell for no time -- G64 should not smooth over this point )
G00 Z0.50000 ( retract )

G00 X43.12794 Y61.82077 ( rapid move to begin. )
G01 F100.00000
( Mill infeed pass 1/1 )
G01 Z-0.17000
G04 P0 ( dwell for no time -- G64 should not smooth over this point )
G01 F200.00000
G01 X43.12794 Y61.82077
G01 X43.14324 Y61.64729
G01 X43.19213 Y61.47835
G01 X43.21171 Y61.43416
G01 X43.27283 Y61.32212
G01 X43.30790 Y61.27241
G01 X43.38222 Y61.18447
G01 X43.43556 Y61.13413
G01 X43.51613 Y61.07073
G01 X43.58908 Y61.02539
G01 X43.66957 Y60.98508
G01 X43.76185 Y60.95082
G01 X43.83666 Y60.93078
G01 X43.92545 Y60.91612
G01 X44.01113 Y60.90990
G01 X44.11362 Y60.91386
G01 X44.18636 Y60.92324
G01 X44.29812 Y60.95067
G01 X44.35570 Y60.97023
G01 X44.47105 Y61.02499
G01 X44.51283 Y61.04919
G01 X44.65172 Y61.15717
G01 X44.76602 Y61.28851
G01 X44.85438 Y61.44300
G01 X44.91006 Y61.61201
G01 X44.93256 Y61.80576
G01 X44.91489 Y61.98523
G01 X44.86350 Y62.15359
G01 X44.78054 Y62.30870
G01 X44.75222 Y62.34779
G01 X44.66914 Y62.44472
G01 X44.62449 Y62.48605
G01 X44.53356 Y62.55658
G01 X44.47089 Y62.59473
G01 X44.37887 Y62.64000
G01 X44.29807 Y62.66918
G01 X44.21098 Y62.69189
G01 X44.13452 Y62.70400
G01 X44.03625 Y62.71025
G01 X43.94633 Y62.70619
G01 X43.86127 Y62.69440
G01 X43.76185 Y62.66926
G01 X43.69264 Y62.64497
G01 X43.58901 Y62.59486
G01 X43.53676 Y62.56377
G01 X43.43534 Y62.48622
G01 X43.39950 Y62.45386
G01 X43.28608 Y62.31940
G01 X43.20155 Y62.16712
G01 X43.14727 Y61.99766
G01 X43.12794 Y61.82077
G04 P0 ( dwell for no time -- G64 should not smooth over this point )
G00 Z0.50000 ( retract )

G00 X43.12794 Y59.28074 ( rapid move to begin. )
G01 F100.00000
( Mill infeed pass 1/1 )
G01 Z-0.17000
G04 P0 ( dwell for no time -- G64 should not smooth over this point )
G01 F200.00000
G01 X43.12794 Y59.28074
G01 X43.14324 Y59.10726
G01 X43.19213 Y58.93830
G01 X43.21171 Y58.89416
G01 X43.27283 Y58.78209
G01 X43.30790 Y58.73241
G01 X43.38222 Y58.64447
G01 X43.43556 Y58.59413
G01 X43.51613 Y58.53073
G01 X43.58908 Y58.48537
G01 X43.66957 Y58.44508
G01 X43.76185 Y58.41082
G01 X43.83666 Y58.39078
G01 X43.92545 Y58.37610
G01 X44.01113 Y58.36990
G01 X44.11362 Y58.37384
G01 X44.18636 Y58.38321
G01 X44.29812 Y58.41067
G01 X44.35570 Y58.43023
G01 X44.47105 Y58.48499
G01 X44.51283 Y58.50919
G01 X44.65172 Y58.61714
G01 X44.76711 Y58.75004
G01 X44.85438 Y58.90297
G01 X44.91006 Y59.07201
G01 X44.93256 Y59.26573
G01 X44.91489 Y59.44523
G01 X44.86350 Y59.61359
G01 X44.78054 Y59.76870
G01 X44.75222 Y59.80779
G01 X44.66914 Y59.90472
G01 X44.62449 Y59.94605
G01 X44.53356 Y60.01658
G01 X44.47089 Y60.05473
G01 X44.37887 Y60.10000
G01 X44.29807 Y60.12918
G01 X44.21098 Y60.15186
G01 X44.11359 Y60.16619
G01 X44.03625 Y60.17025
G01 X43.94636 Y60.16616
G01 X43.86127 Y60.15440
G01 X43.76185 Y60.12926
G01 X43.69264 Y60.10495
G01 X43.58901 Y60.05486
G01 X43.53676 Y60.02377
G01 X43.43534 Y59.94622
G01 X43.39950 Y59.91386
G01 X43.28608 Y59.77937
G01 X43.20084 Y59.62540
G01 X43.14727 Y59.45766
G01 X43.12794 Y59.28074
G04 P0 ( dwell for no time -- G64 should not smooth over this point )
G00 Z0.50000 ( retract )

G00 X43.12794 Y56.74074 ( rapid move to begin. )
G01 F100.00000
( Mill infeed pass 1/1 )
G01 Z-0.17000
G04 P0 ( dwell for no time -- G64 should not smooth over this point )
G01 F200.00000
G01 X43.12794 Y56.74074
G01 X43.14324 Y56.56726
G01 X43.19213 Y56.39830
G01 X43.21171 Y56.35416
G01 X43.27283 Y56.24209
G01 X43.30790 Y56.19241
G01 X43.38222 Y56.10447
G01 X43.43556 Y56.05413
G01 X43.51613 Y55.99073
G01 X43.58908 Y55.94537
G01 X43.66957 Y55.90508
G01 X43.76185 Y55.87082
G01 X43.83666 Y55.85078
G01 X43.92545 Y55.83610
G01 X44.01113 Y55.82990
G01 X44.11362 Y55.83384
G01 X44.18636 Y55.84321
G01 X44.29812 Y55.87067
G01 X44.35570 Y55.89023
G01 X44.47105 Y55.94499
G01 X44.51283 Y55.96919
G01 X44.65172 Y56.07714
G01 X44.76711 Y56.21004
G01 X44.85438 Y56.36297
G01 X44.91006 Y56.53201
G01 X44.93256 Y56.72573
G01 X44.91489 Y56.90523
G01 X44.86350 Y57.07359
G01 X44.78054 Y57.22870
G01 X44.75222 Y57.26779
G01 X44.66914 Y57.36472
G01 X44.62449 Y57.40605
G01 X44.53356 Y57.47658
G01 X44.47089 Y57.51473
G01 X44.37887 Y57.56000
G01 X44.29807 Y57.58918
G01 X44.21098 Y57.61186
G01 X44.11359 Y57.62619
G01 X44.03625 Y57.63025
G01 X43.94636 Y57.62616
G01 X43.86127 Y57.61440
G01 X43.76185 Y57.58926
G01 X43.69264 Y57.56495
G01 X43.58901 Y57.51486
G01 X43.53676 Y57.48377
G01 X43.43534 Y57.40622
G01 X43.39950 Y57.37386
G01 X43.28608 Y57.23937
G01 X43.20084 Y57.08540
G01 X43.14727 Y56.91766
G01 X43.12794 Y56.74074
G04 P0 ( dwell for no time -- G64 should not smooth over this point )
G00 Z0.50000 ( retract )

G00 X43.12794 Y54.20074 ( rapid move to begin. )
G01 F100.00000
( Mill infeed pass 1/1 )
G01 Z-0.17000
G04 P0 ( dwell for no time -- G64 should not smooth over this point )
G01 F200.00000
G01 X43.12794 Y54.20074
G01 X43.14324 Y54.02726
G01 X43.19213 Y53.85830
G01 X43.21171 Y53.81416
G01 X43.27283 Y53.70209
G01 X43.30790 Y53.65241
G01 X43.38222 Y53.56447
G01 X43.43556 Y53.51413
G01 X43.51613 Y53.45073
G01 X43.58908 Y53.40537
G01 X43.66957 Y53.36508
G01 X43.76185 Y53.33082
G01 X43.83666 Y53.31078
G01 X43.92545 Y53.29610
G01 X44.01113 Y53.28990
G01 X44.11362 Y53.29384
G01 X44.18636 Y53.30321
G01 X44.29812 Y53.33067
G01 X44.35570 Y53.35023
G01 X44.47105 Y53.40499
G01 X44.51283 Y53.42919
G01 X44.65172 Y53.53714
G01 X44.76711 Y53.67004
G01 X44.85438 Y53.82297
G01 X44.91006 Y53.99201
G01 X44.93256 Y54.18573
G01 X44.91489 Y54.36523
G01 X44.86350 Y54.53359
G01 X44.78054 Y54.68870
G01 X44.75222 Y54.72779
G01 X44.66914 Y54.82472
G01 X44.62449 Y54.86605
G01 X44.53356 Y54.93658
G01 X44.47089 Y54.97473
G01 X44.37887 Y55.02000
G01 X44.29807 Y55.04918
G01 X44.21098 Y55.07186
G01 X44.11359 Y55.08619
G01 X44.03625 Y55.09025
G01 X43.94636 Y55.08616
G01 X43.86127 Y55.07440
G01 X43.76185 Y55.04926
G01 X43.69264 Y55.02495
G01 X43.58901 Y54.97486
G01 X43.53676 Y54.94377
G01 X43.43534 Y54.86622
G01 X43.39950 Y54.83386
G01 X43.28608 Y54.69937
G01 X43.20084 Y54.54540
G01 X43.14727 Y54.37766
G01 X43.12794 Y54.20074
G04 P0 ( dwell for no time -- G64 should not smooth over this point )
G00 Z0.50000 ( retract )

G00 X43.12794 Y51.66074 ( rapid move to begin. )
G01 F100.00000
( Mill infeed pass 1/1 )
G01 Z-0.17000
G04 P0 ( dwell for no time -- G64 should not smooth over this point )
G01 F200.00000
G01 X43.12794 Y51.66074
G01 X43.14324 Y51.48726
G01 X43.19213 Y51.31830
G01 X43.21171 Y51.27416
G01 X43.27283 Y51.16209
G01 X43.30790 Y51.11241
G01 X43.38222 Y51.02447
G01 X43.43556 Y50.97413
G01 X43.51613 Y50.91073
G01 X43.58908 Y50.86537
G01 X43.66957 Y50.82508
G01 X43.76185 Y50.79082
G01 X43.83666 Y50.77078
G01 X43.92545 Y50.75610
G01 X44.01113 Y50.74990
G01 X44.11362 Y50.75384
G01 X44.18636 Y50.76321
G01 X44.29812 Y50.79067
G01 X44.35570 Y50.81023
G01 X44.47105 Y50.86499
G01 X44.51283 Y50.88919
G01 X44.65172 Y50.99714
G01 X44.76711 Y51.13004
G01 X44.85438 Y51.28297
G01 X44.91006 Y51.45201
G01 X44.93256 Y51.64573
G01 X44.91489 Y51.82523
G01 X44.86350 Y51.99359
G01 X44.78054 Y52.14870
G01 X44.75222 Y52.18779
G01 X44.66914 Y52.28472
G01 X44.62449 Y52.32605
G01 X44.53356 Y52.39658
G01 X44.47089 Y52.43473
G01 X44.37887 Y52.48000
G01 X44.29807 Y52.50918
G01 X44.21098 Y52.53186
G01 X44.11359 Y52.54619
G01 X44.03625 Y52.55025
G01 X43.94636 Y52.54616
G01 X43.86127 Y52.53440
G01 X43.76185 Y52.50926
G01 X43.69264 Y52.48495
G01 X43.58901 Y52.43486
G01 X43.53676 Y52.40377
G01 X43.43534 Y52.32622
G01 X43.39950 Y52.29386
G01 X43.28608 Y52.15937
G01 X43.20084 Y52.00540
G01 X43.14727 Y51.83766
G01 X43.12794 Y51.66074
G04 P0 ( dwell for no time -- G64 should not smooth over this point )
G00 Z0.50000 ( retract )

G00 X43.12794 Y49.12074 ( rapid move to begin. )
G01 F100.00000
( Mill infeed pass 1/1 )
G01 Z-0.17000
G04 P0 ( dwell for no time -- G64 should not smooth over this point )
G01 F200.00000
G01 X43.12794 Y49.12074
G01 X43.14324 Y48.94726
G01 X43.19213 Y48.77830
G01 X43.21171 Y48.73416
G01 X43.27283 Y48.62209
G01 X43.30790 Y48.57241
G01 X43.38222 Y48.48447
G01 X43.43556 Y48.43413
G01 X43.51613 Y48.37073
G01 X43.58908 Y48.32537
G01 X43.66957 Y48.28508
G01 X43.76185 Y48.25082
G01 X43.83666 Y48.23078
G01 X43.92545 Y48.21610
G01 X44.01113 Y48.20990
G01 X44.11362 Y48.21384
G01 X44.18636 Y48.22321
G01 X44.29812 Y48.25067
G01 X44.35570 Y48.27023
G01 X44.47105 Y48.32499
G01 X44.51283 Y48.34919
G01 X44.65172 Y48.45714
G01 X44.76711 Y48.59004
G01 X44.85438 Y48.74297
G01 X44.91006 Y48.91201
G01 X44.93256 Y49.10573
G01 X44.91489 Y49.28523
G01 X44.86350 Y49.45359
G01 X44.78054 Y49.60870
G01 X44.75222 Y49.64779
G01 X44.66914 Y49.74472
G01 X44.62449 Y49.78605
G01 X44.53356 Y49.85658
G01 X44.47089 Y49.89473
G01 X44.37887 Y49.94000
G01 X44.29807 Y49.96918
G01 X44.21098 Y49.99186
G01 X44.11359 Y50.00619
G01 X44.03625 Y50.01025
G01 X43.94636 Y50.00616
G01 X43.86127 Y49.99440
G01 X43.76185 Y49.96926
G01 X43.69264 Y49.94495
G01 X43.58901 Y49.89486
G01 X43.53676 Y49.86377
G01 X43.43534 Y49.78622
G01 X43.39950 Y49.75386
G01 X43.28608 Y49.61937
G01 X43.20084 Y49.46540
G01 X43.14727 Y49.29766
G01 X43.12794 Y49.12074
G04 P0 ( dwell for no time -- G64 should not smooth over this point )
G00 Z0.50000 ( retract )

G00 X43.12794 Y46.58074 ( rapid move to begin. )
G01 F100.00000
( Mill infeed pass 1/1 )
G01 Z-0.17000
G04 P0 ( dwell for no time -- G64 should not smooth over this point )
G01 F200.00000
G01 X43.12794 Y46.58074
G01 X43.14324 Y46.40726
G01 X43.19213 Y46.23830
G01 X43.21171 Y46.19416
G01 X43.27283 Y46.08209
G01 X43.30790 Y46.03241
G01 X43.38222 Y45.94447
G01 X43.43556 Y45.89413
G01 X43.51613 Y45.83073
G01 X43.58908 Y45.78537
G01 X43.66957 Y45.74508
G01 X43.76185 Y45.71082
G01 X43.83666 Y45.69078
G01 X43.92545 Y45.67610
G01 X44.01113 Y45.66990
G01 X44.11362 Y45.67384
G01 X44.18636 Y45.68321
G01 X44.29812 Y45.71067
G01 X44.35570 Y45.73023
G01 X44.47105 Y45.78499
G01 X44.51283 Y45.80919
G01 X44.65172 Y45.91714
G01 X44.76711 Y46.05004
G01 X44.85438 Y46.20297
G01 X44.91006 Y46.37201
G01 X44.93256 Y46.56573
G01 X44.91489 Y46.74523
G01 X44.86350 Y46.91359
G01 X44.78054 Y47.06870
G01 X44.75222 Y47.10779
G01 X44.66914 Y47.20472
G01 X44.62449 Y47.24605
G01 X44.53356 Y47.31658
G01 X44.47089 Y47.35473
G01 X44.37887 Y47.40000
G01 X44.29807 Y47.42918
G01 X44.21098 Y47.45186
G01 X44.11359 Y47.46619
G01 X44.03625 Y47.47025
G01 X43.94636 Y47.46616
G01 X43.86127 Y47.45440
G01 X43.76185 Y47.42926
G01 X43.69264 Y47.40495
G01 X43.58901 Y47.35486
G01 X43.53676 Y47.32377
G01 X43.43534 Y47.24622
G01 X43.39950 Y47.21386
G01 X43.28608 Y47.07937
G01 X43.20084 Y46.92540
G01 X43.14727 Y46.75766
G01 X43.12794 Y46.58074
G04 P0 ( dwell for no time -- G64 should not smooth over this point )
G00 Z0.50000 ( retract )

G00 X60.52164 Y65.80636 ( rapid move to begin. )
G01 F100.00000
( Mill infeed pass 1/1 )
G01 Z-0.17000
G04 P0 ( dwell for no time -- G64 should not smooth over this point )
G01 F200.00000
G01 X60.52164 Y65.80636
G01 X60.52959 Y65.58358
G01 X60.52786 Y5.88616
G01 X60.52164 Y5.74359
G01 X60.45173 Y5.04725
G01 X60.38917 Y4.76361
G01 X60.19898 Y4.13666
G01 X60.08079 Y3.85040
G01 X59.68384 Y3.10770
G01 X59.05209 Y2.33791
G01 X58.28230 Y1.70616
G01 X57.40401 Y1.23672
G01 X56.62837 Y1.00141
G01 X56.35398 Y0.94027
G01 X55.64641 Y0.86836
G01 X55.50442 Y0.86217
G01 X5.96701 Y0.86041
G01 X5.74036 Y0.86869
G01 X5.07897 Y0.93385
G01 X5.03597 Y0.94027
G01 X4.76160 Y1.00138
G01 X4.13323 Y1.19206
G01 X3.84715 Y1.31088
G01 X3.26745 Y1.62076
G01 X3.03369 Y1.76968
G01 X2.99889 Y1.79544
G01 X2.48530 Y2.21693
G01 X2.35538 Y2.33570
G01 X2.21362 Y2.48929
G01 X1.79541 Y2.99892
G01 X1.76963 Y3.03374
G01 X1.62074 Y3.26745
G04 P0 ( dwell for no time -- G64 should not smooth over this point )
G00 Z0.50000 ( retract )

G00 X4.13394 Y5.93003 ( rapid move to begin. )
G01 F100.00000
( Mill infeed pass 1/1 )
G01 Z-0.17000
G04 P0 ( dwell for no time -- G64 should not smooth over this point )
G01 F200.00000
G01 X4.13394 Y5.93003
G01 X4.17278 Y5.55652
G01 X4.28883 Y5.19934
G01 X4.47659 Y4.87410
G01 X4.72792 Y4.59498
G01 X5.03173 Y4.37422
G01 X5.37486 Y4.22149
G01 X5.74219 Y4.14339
G01 X6.11776 Y4.14339
G01 X6.48509 Y4.22149
G01 X6.82822 Y4.37422
G01 X7.13203 Y4.59498
G01 X7.38336 Y4.87410
G01 X7.57112 Y5.19934
G01 X7.68717 Y5.55652
G01 X7.72644 Y5.93005
G01 X7.68717 Y6.30353
G01 X7.57112 Y6.66071
G01 X7.38336 Y6.98595
G01 X7.13203 Y7.26507
G01 X6.82822 Y7.48583
G01 X6.48509 Y7.63856
G01 X6.11776 Y7.71666
G01 X5.74219 Y7.71666
G01 X5.37486 Y7.63856
G01 X5.03173 Y7.48583
G01 X4.72792 Y7.26507
G01 X4.47659 Y6.98595
G01 X4.28883 Y6.66071
G01 X4.17278 Y6.30353
G01 X4.13351 Y5.93005
G01 X4.11962 Y5.98690
G01 X4.14570 Y6.24145
G01 X4.20732 Y6.48956
G01 X4.30554 Y6.73051
G01 X4.43193 Y6.94808
G01 X4.59018 Y7.14884
G01 X4.77890 Y7.32809
G01 X4.98362 Y7.47437
G01 X5.21065 Y7.59233
G01 X5.45202 Y7.67709
G01 X5.70300 Y7.72700
G01 X5.95840 Y7.74087
G01 X6.21331 Y7.71880
G01 X6.46251 Y7.66101
G01 X6.70107 Y7.56876
G01 X6.92431 Y7.44371
G01 X7.12764 Y7.28852
G01 X7.30411 Y7.10927
G01 X7.45921 Y6.90025
G01 X7.58059 Y6.67531
G01 X7.66914 Y6.43528
G01 X7.72296 Y6.18524
G01 X7.74158 Y5.92629
G01 X7.73795 Y5.82002
G01 X7.70368 Y5.56269
G01 X7.63396 Y5.31656
G01 X7.53053 Y5.08261
G01 X7.39512 Y4.86551
G01 X7.23066 Y4.66983
G01 X7.03642 Y4.49663
G01 X6.82726 Y4.35688
G01 X6.59685 Y4.24623
G01 X6.34857 Y4.16831
G01 X6.10043 Y4.12701
G01 X5.84463 Y4.12081
G01 X5.59061 Y4.15086
G01 X5.34329 Y4.21644
G01 X5.10770 Y4.31619
G01 X4.88850 Y4.44814
G01 X4.69007 Y4.60968
G01 X4.51644 Y4.79754
G01 X4.37095 Y5.00806
G01 X4.25657 Y5.23694
G01 X4.17562 Y5.47958
G01 X4.12967 Y5.73125
G01 X4.11962 Y5.98690
G01 X4.04504 Y5.98931
G01 X4.05551 Y5.72307
G01 X4.10336 Y5.46101
G01 X4.18764 Y5.20839
G01 X4.30674 Y4.97006
G01 X4.45820 Y4.75091
G01 X4.63899 Y4.55530
G01 X4.84557 Y4.38710
G01 X5.07379 Y4.24971
G01 X5.31910 Y4.14585
G01 X5.57658 Y4.07758
G01 X5.84118 Y4.04626
G01 X6.10744 Y4.05253
G01 X6.36591 Y4.09556
G01 X6.62433 Y4.17666
G01 X6.86431 Y4.29190
G01 X7.08225 Y4.43750
G01 X7.28435 Y4.61776
G01 X7.45568 Y4.82157
G01 X7.59662 Y5.04758
G01 X7.70434 Y5.29119
G01 X7.77666 Y5.54760
G01 X7.81239 Y5.81385
G01 X7.81600 Y5.92779
G01 X7.79703 Y6.19573
G01 X7.74097 Y6.45619
G01 X7.64877 Y6.70610
G01 X7.52233 Y6.94039
G01 X7.36096 Y7.15789
G01 X7.17711 Y7.34463
G01 X6.96538 Y7.50622
G01 X6.73294 Y7.63640
G01 X6.48451 Y7.73251
G01 X6.37778 Y7.75728
G01 X6.22502 Y7.79266
G01 X5.95962 Y7.81567
G01 X5.69363 Y7.80101
G01 X5.43234 Y7.74905
G01 X5.18098 Y7.66078
G01 X4.94463 Y7.53800
G01 X4.73142 Y7.38565
G01 X4.53506 Y7.19914
G01 X4.37021 Y6.99004
G01 X4.23859 Y6.76342
G01 X4.13638 Y6.51268
G01 X4.07219 Y6.25426
G01 X4.04504 Y5.98931
G04 P0 ( dwell for no time -- G64 should not smooth over this point )
G00 Z0.50000 ( retract )

G00 X5.56000 Y15.97702 ( rapid move to begin. )
G01 F100.00000
( Mill infeed pass 1/1 )
G01 Z-0.17000
G04 P0 ( dwell for no time -- G64 should not smooth over this point )
G01 F200.00000
G01 X5.56000 Y15.97702
G01 X5.80297 Y16.02835
G01 X6.05700 Y16.02835
G01 X6.30544 Y15.97555
G01 X6.40381 Y15.93249
G01 X6.45916 Y15.89696
G01 X6.53124 Y15.86145
G01 X6.72576 Y15.71969
G01 X6.84915 Y15.59130
G01 X6.90696 Y15.51685
G01 X6.96878 Y15.41980
G01 X7.03063 Y15.29856
G01 X7.05748 Y15.23041
G01 X7.10206 Y15.07997
G01 X7.11270 Y15.02856
G01 X7.13251 Y14.82023
G01 X7.11176 Y14.60628
G01 X7.10206 Y14.56008
G01 X7.05748 Y14.40964
G01 X7.02192 Y14.32236
G01 X6.96878 Y14.22026
G01 X6.89474 Y14.10608
G01 X6.84915 Y14.04875
G01 X6.74112 Y13.93494
G01 X6.70196 Y13.90001
G01 X6.54013 Y13.78459
G01 X6.45984 Y13.74352
G01 X6.40219 Y13.70687
G01 X6.38618 Y13.69031
G01 X6.36632 Y13.65226
G01 X6.34577 Y13.58432
G01 X6.34128 Y13.54101
G01 X6.36470 Y13.45124
G01 X6.38436 Y13.41238
G01 X6.40384 Y13.39244
G01 X6.45916 Y13.35696
G01 X6.54013 Y13.31546
G01 X6.70196 Y13.20004
G01 X6.74112 Y13.16511
G01 X6.84915 Y13.05130
G01 X6.89474 Y12.99397
G01 X6.96878 Y12.87980
G01 X7.02192 Y12.77769
G01 X7.05748 Y12.69041
G01 X7.10206 Y12.53997
G01 X7.11270 Y12.48856
G01 X7.13251 Y12.28003
G01 X7.11273 Y12.07149
G01 X7.10206 Y12.02008
G01 X7.05748 Y11.86966
G01 X7.02192 Y11.78236
G01 X6.96878 Y11.68026
G01 X6.90696 Y11.58320
G01 X6.84915 Y11.50878
G01 X6.72576 Y11.38036
G01 X6.53124 Y11.23860
G01 X6.34074 Y11.15148
G01 X6.29091 Y11.13502
G01 X6.13831 Y11.09839
G01 X6.06589 Y11.08755
G01 X5.92997 Y11.08051
G01 X5.79406 Y11.08755
G01 X5.72164 Y11.09839
G01 X5.54875 Y11.14104
G01 X5.32871 Y11.23860
G01 X5.13419 Y11.38036
G01 X5.01080 Y11.50878
G01 X4.96521 Y11.56608
G01 X4.89117 Y11.68026
G01 X4.83803 Y11.78236
G01 X4.80247 Y11.86966
G01 X4.75294 Y12.04068
G01 X4.72817 Y12.26931
G01 X4.74725 Y12.48856
G01 X4.75789 Y12.53997
G01 X4.80247 Y12.69041
G01 X4.83803 Y12.77769
G01 X4.89117 Y12.87980
G01 X4.95299 Y12.97685
G01 X5.01080 Y13.05130
G01 X5.11883 Y13.16511
G01 X5.15799 Y13.20004
G01 X5.32871 Y13.32145
G01 X5.40011 Y13.35653
G01 X5.45756 Y13.39305
G01 X5.55454 Y13.43555
G01 X5.80297 Y13.48835
G01 X6.06889 Y13.48647
G01 X6.30544 Y13.43555
G01 X6.40384 Y13.39244
G01 X6.38436 Y13.41238
G01 X6.37267 Y13.43087
G01 X6.35421 Y13.48810
G01 X6.29350 Y13.55000
G01 X6.35400 Y13.61160
G01 X6.37445 Y13.67222
G01 X6.40219 Y13.70687
G01 X6.29993 Y13.66300
G01 X6.22632 Y13.58734
G01 X5.63366 Y13.58734
G01 X5.56023 Y13.66295
G01 X5.45604 Y13.70766
G01 X5.47559 Y13.68767
G01 X5.48728 Y13.66918
G01 X5.50574 Y13.61193
G01 X5.56645 Y13.55005
G01 X5.50595 Y13.48846
G01 X5.48550 Y13.42783
G01 X5.45756 Y13.39305
G01 X5.47377 Y13.40974
G01 X5.49363 Y13.44779
G01 X5.51418 Y13.51574
G01 X5.51867 Y13.55904
G01 X5.48728 Y13.66918
G01 X5.47559 Y13.68767
G01 X5.45604 Y13.70766
G01 X5.55454 Y13.66448
G01 X5.81501 Y13.61104
G01 X6.06889 Y13.61355
G01 X6.30544 Y13.66448
G01 X6.40219 Y13.70687
G01 X6.38618 Y13.69031
G01 X6.36632 Y13.65226
G01 X6.34577 Y13.58432
G01 X6.34128 Y13.54101
G01 X6.37267 Y13.43087
G01 X6.38436 Y13.41238
G01 X6.40384 Y13.39244
G01 X6.29975 Y13.43707
G01 X6.22629 Y13.51271
G01 X5.63363 Y13.51271
G01 X5.56000 Y13.43702
G01 X5.45756 Y13.39305
G01 X5.48550 Y13.42783
G01 X5.51849 Y13.53717
G01 X5.51471 Y13.58053
G01 X5.48728 Y13.66918
G01 X5.47559 Y13.68767
G01 X5.45604 Y13.70766
G01 X5.40079 Y13.74309
G01 X5.32871 Y13.77860
G01 X5.15799 Y13.90001
G01 X5.11883 Y13.93494
G01 X5.01080 Y14.04875
G01 X4.95299 Y14.12320
G01 X4.89117 Y14.22026
G01 X4.83803 Y14.32236
G01 X4.80247 Y14.40964
G01 X4.75789 Y14.56008
G01 X4.74819 Y14.60628
G01 X4.72744 Y14.82023
G01 X4.74725 Y15.02856
G01 X4.75789 Y15.07997
G01 X4.80247 Y15.23041
G01 X4.83803 Y15.31769
G01 X4.89117 Y15.41980
G01 X4.95299 Y15.51685
G01 X5.01080 Y15.59130
G01 X5.11883 Y15.70511
G01 X5.15799 Y15.74004
G01 X5.32871 Y15.86145
G01 X5.40011 Y15.89653
G01 X5.45888 Y15.93417
G01 X5.48550 Y15.96783
G01 X5.51849 Y16.07717
G01 X5.51471 Y16.12053
G01 X5.49525 Y16.18881
G01 X5.48728 Y16.20918
G01 X5.46063 Y16.24362
G01 X5.40079 Y16.28309
G01 X5.32871 Y16.31860
G01 X5.15799 Y16.44001
G01 X5.11883 Y16.47494
G01 X5.01080 Y16.58875
G01 X4.95299 Y16.66320
G01 X4.89117 Y16.76026
G01 X4.83803 Y16.86236
G01 X4.80247 Y16.94964
G01 X4.75789 Y17.10008
G01 X4.74819 Y17.14628
G01 X4.72744 Y17.36023
G01 X4.75294 Y17.59937
G01 X4.80247 Y17.77041
G01 X4.82932 Y17.83856
G01 X4.89117 Y17.95980
G01 X4.96521 Y18.07397
G01 X5.01080 Y18.13130
G01 X5.13419 Y18.25969
G01 X5.32871 Y18.40145
G01 X5.40011 Y18.43653
G01 X5.45756 Y18.47305
G01 X5.54329 Y18.51123
G01 X5.80297 Y18.56835
G01 X6.04496 Y18.56899
G01 X6.30544 Y18.51555
G01 X6.40391 Y18.47237
G01 X6.38436 Y18.49238
G01 X6.37267 Y18.51087
G01 X6.35418 Y18.56810
G01 X6.29350 Y18.63000
G01 X6.35400 Y18.69160
G01 X6.37445 Y18.75222
G01 X6.40219 Y18.78687
G01 X6.29993 Y18.74300
G01 X6.22632 Y18.66734
G01 X5.63366 Y18.66734
G01 X5.56023 Y18.74295
G01 X5.45604 Y18.78766
G01 X5.47559 Y18.76767
G01 X5.48728 Y18.74918
G01 X5.50574 Y18.69193
G01 X5.56645 Y18.63005
G01 X5.50595 Y18.56846
G01 X5.48550 Y18.50783
G01 X5.45756 Y18.47305
G01 X5.47377 Y18.48974
G01 X5.49363 Y18.52779
G01 X5.51418 Y18.59574
G01 X5.51867 Y18.63904
G01 X5.48728 Y18.74918
G01 X5.47559 Y18.76767
G01 X5.45604 Y18.78766
G01 X5.55454 Y18.74448
G01 X5.81501 Y18.69104
G01 X6.06889 Y18.69355
G01 X6.30544 Y18.74448
G01 X6.40219 Y18.78687
G01 X6.38618 Y18.77031
G01 X6.36632 Y18.73226
G01 X6.34577 Y18.66432
G01 X6.34128 Y18.62101
G01 X6.37267 Y18.51087
G01 X6.38436 Y18.49238
G01 X6.40391 Y18.47237
G01 X6.29975 Y18.51707
G01 X6.22629 Y18.59271
G01 X5.63363 Y18.59271
G01 X5.56000 Y18.51702
G01 X5.45756 Y18.47305
G01 X5.48550 Y18.50783
G01 X5.51849 Y18.61717
G01 X5.51471 Y18.66053
G01 X5.49525 Y18.72881
G01 X5.47559 Y18.76767
G01 X5.45604 Y18.78766
G01 X5.40079 Y18.82309
G01 X5.31982 Y18.86459
G01 X5.15799 Y18.98001
G01 X5.11883 Y19.01494
G01 X5.01080 Y19.12875
G01 X4.95299 Y19.20320
G01 X4.89117 Y19.30026
G01 X4.82932 Y19.42149
G01 X4.80247 Y19.48964
G01 X4.75789 Y19.64008
G01 X4.74819 Y19.68628
G01 X4.72744 Y19.90023
G01 X4.75294 Y20.13937
G01 X4.80247 Y20.31041
G01 X4.83803 Y20.39769
G01 X4.89117 Y20.49980
G01 X4.95299 Y20.59685
G01 X5.01080 Y20.67130
G01 X5.11883 Y20.78511
G01 X5.15799 Y20.82004
G01 X5.32871 Y20.94145
G01 X5.40011 Y20.97653
G01 X5.45756 Y21.01305
G01 X5.55454 Y21.05555
G01 X5.79109 Y21.10647
G01 X6.04496 Y21.10899
G01 X6.30544 Y21.05555
G01 X6.40391 Y21.01237
G01 X6.38436 Y21.03238
G01 X6.37267 Y21.05087
G01 X6.35418 Y21.10810
G01 X6.29350 Y21.17000
G01 X6.35400 Y21.23160
G01 X6.37445 Y21.29222
G01 X6.40219 Y21.32687
G01 X6.29993 Y21.28300
G01 X6.22632 Y21.20734
G01 X5.63366 Y21.20734
G01 X5.56023 Y21.28295
G01 X5.45609 Y21.32761
G01 X5.47559 Y21.30767
G01 X5.48728 Y21.28918
G01 X5.50574 Y21.23195
G01 X5.56645 Y21.17005
G01 X5.50595 Y21.10846
G01 X5.48550 Y21.04783
G01 X5.45756 Y21.01305
G01 X5.47377 Y21.02974
G01 X5.49363 Y21.06779
G01 X5.51418 Y21.13574
G01 X5.51867 Y21.17904
G01 X5.48728 Y21.28918
G01 X5.47559 Y21.30767
G01 X5.45609 Y21.32761
G01 X5.55454 Y21.28448
G01 X5.81501 Y21.23104
G01 X6.06889 Y21.23355
G01 X6.30544 Y21.28448
G01 X6.40219 Y21.32687
G01 X6.38618 Y21.31031
G01 X6.36632 Y21.27226
G01 X6.34577 Y21.20432
G01 X6.34128 Y21.16101
G01 X6.37267 Y21.05087
G01 X6.38436 Y21.03238
G01 X6.40391 Y21.01237
G01 X6.29975 Y21.05707
G01 X6.22629 Y21.13271
G01 X5.63363 Y21.13271
G01 X5.56000 Y21.05702
G01 X5.45756 Y21.01305
G01 X5.48550 Y21.04783
G01 X5.51849 Y21.15717
G01 X5.51471 Y21.20053
G01 X5.48728 Y21.28918
G01 X5.47559 Y21.30767
G01 X5.45609 Y21.32761
G01 X5.40079 Y21.36309
G01 X5.32871 Y21.39860
G01 X5.15799 Y21.52001
G01 X5.11883 Y21.55494
G01 X5.01080 Y21.66875
G01 X4.95299 Y21.74320
G01 X4.89117 Y21.84026
G01 X4.83803 Y21.94236
G01 X4.80247 Y22.02964
G01 X4.75789 Y22.18008
G01 X4.74819 Y22.22628
G01 X4.72744 Y22.44023
G01 X4.74725 Y22.64856
G01 X4.75789 Y22.69997
G01 X4.80247 Y22.85041
G01 X4.83803 Y22.93769
G01 X4.89117 Y23.03980
G01 X4.96521 Y23.15397
G01 X5.01080 Y23.21130
G01 X5.11883 Y23.32511
G01 X5.15799 Y23.36004
G01 X5.31982 Y23.47546
G01 X5.40011 Y23.51653
G01 X5.45756 Y23.55305
G01 X5.47377 Y23.56974
G01 X5.49363 Y23.60779
G01 X5.51418 Y23.67574
G01 X5.51867 Y23.71904
G01 X5.49525 Y23.80881
G01 X5.47559 Y23.84767
G01 X5.45609 Y23.86761
G01 X5.40079 Y23.90309
G01 X5.31982 Y23.94459
G01 X5.15799 Y24.06001
G01 X5.11883 Y24.09494
G01 X5.01100 Y24.20855
G01 X4.96538 Y24.26623
G01 X4.88789 Y24.38653
G01 X4.83803 Y24.48236
G01 X4.80247 Y24.56964
G01 X4.75789 Y24.72008
G01 X4.74722 Y24.77149
G01 X4.72744 Y24.98003
G01 X4.75294 Y25.21937
G01 X4.80247 Y25.39041
G01 X4.82932 Y25.45856
G01 X4.89117 Y25.57980
G01 X4.96521 Y25.69397
G01 X5.01080 Y25.75130
G01 X5.11883 Y25.86511
G01 X5.15799 Y25.90004
G01 X5.32871 Y26.02145
G01 X5.40011 Y26.05653
G01 X5.45888 Y26.09417
G01 X5.48550 Y26.12783
G01 X5.49363 Y26.14779
G01 X5.51418 Y26.21574
G01 X5.51867 Y26.25904
G01 X5.48728 Y26.36918
G01 X5.46063 Y26.40362
G01 X5.40079 Y26.44309
G01 X5.32871 Y26.47860
G01 X5.13419 Y26.62036
G01 X5.01080 Y26.74875
G01 X4.95299 Y26.82320
G01 X4.89117 Y26.92026
G01 X4.83803 Y27.02236
G01 X4.80247 Y27.10964
G01 X4.75789 Y27.26008
G01 X4.74722 Y27.31149
G01 X4.72744 Y27.52003
G01 X4.74725 Y27.72856
G01 X4.75789 Y27.77997
G01 X4.80247 Y27.93041
G01 X4.83803 Y28.01769
G01 X4.89117 Y28.11980
G01 X4.95299 Y28.21685
G01 X5.01080 Y28.29130
G01 X5.11883 Y28.40511
G01 X5.19566 Y28.46943
G01 X5.23622 Y28.51035
G01 X5.33559 Y28.57875
G01 X5.39906 Y28.68870
G01 X5.41870 Y28.69744
G01 X5.51316 Y28.71751
G01 X5.41862 Y28.69742
G01 X5.39906 Y28.68870
G01 X5.40191 Y28.69386
G01 X5.55355 Y28.72393
G01 X5.81598 Y28.74969
G01 X6.07839 Y28.74789
G01 X6.30640 Y28.72393
G01 X6.45682 Y28.69412
G01 X6.49883 Y28.62023
G01 X6.52835 Y28.57689
G01 X6.62253 Y28.51121
G01 X6.60005 Y28.55251
G01 X6.59131 Y28.61695
G01 X6.53053 Y28.71550
G01 X6.60447 Y28.76132
G01 X6.63401 Y28.77443
G01 X6.60023 Y28.70826
G01 X6.58829 Y28.66643
G01 X6.60005 Y28.55251
G01 X6.62253 Y28.51121
G01 X6.52835 Y28.57689
G01 X6.49883 Y28.62023
G01 X6.45959 Y28.68929
G01 X6.44130 Y28.69742
G01 X6.34679 Y28.71751
G01 X6.44130 Y28.69739
G01 X6.45954 Y28.68929
G01 X6.49883 Y28.62023
G01 X6.52835 Y28.57689
G01 X6.29380 Y28.67867
G01 X6.05700 Y28.72835
G01 X5.81501 Y28.72899
G01 X5.55454 Y28.67555
G01 X5.32248 Y28.57225
G01 X5.23622 Y28.51035
G01 X5.26965 Y28.58848
G01 X5.27237 Y28.61840
G01 X5.32799 Y28.71433
G01 X5.25500 Y28.76155
G01 X5.22088 Y28.77712
G01 X5.18822 Y28.81482
G01 X5.24738 Y28.74337
G01 X5.26162 Y28.70224
G01 X5.27278 Y28.61012
G01 X5.26251 Y28.56783
G01 X5.23622 Y28.51035
G01 X5.26251 Y28.56783
G01 X5.27278 Y28.61012
G01 X5.25647 Y28.72348
G01 X5.23470 Y28.76117
G01 X5.18822 Y28.81482
G01 X5.15563 Y28.84067
G01 X5.13302 Y28.84748
G01 X5.25187 Y28.84502
G01 X5.29327 Y28.82569
G01 X5.37869 Y28.77039
G01 X5.40298 Y28.77039
G01 X5.37869 Y28.77039
G01 X5.38471 Y28.76651
G01 X5.54283 Y28.79777
G01 X5.81499 Y28.82447
G01 X6.08522 Y28.82221
G01 X6.31712 Y28.79777
G01 X6.45687 Y28.77039
G01 X6.47844 Y28.77039
G01 X6.45690 Y28.77039
G01 X6.47328 Y28.76691
G01 X6.56757 Y28.82622
G01 X6.60912 Y28.84502
G01 X6.72103 Y28.84499
G01 X5.14125 Y28.84502
G01 X5.03320 Y28.85977
G01 X4.82012 Y28.86003
G01 X4.79122 Y28.86650
G01 X4.75840 Y28.88845
G01 X4.73645 Y28.92127
G01 X4.72972 Y28.96000
G01 X4.72998 Y31.16988
G01 X4.73645 Y31.19878
G01 X4.75840 Y31.23160
G01 X4.79122 Y31.25355
G01 X4.82012 Y31.26002
G01 X7.03983 Y31.26002
G01 X7.06873 Y31.25355
G01 X7.10155 Y31.23160
G01 X7.12350 Y31.19878
G01 X7.12997 Y31.16988
G01 X7.12997 Y28.95017
G01 X7.12350 Y28.92127
G01 X7.10155 Y28.88845
G01 X7.06873 Y28.86650
G01 X7.03983 Y28.86003
G01 X6.78344 Y28.85749
G01 X6.72103 Y28.84499
G01 X6.67661 Y28.81891
G01 X6.64392 Y28.79013
G01 X6.60023 Y28.70826
G01 X6.58829 Y28.66643
G01 X6.59576 Y28.57397
G01 X6.60836 Y28.53227
G01 X6.62253 Y28.51121
G01 X6.74112 Y28.40511
G01 X6.84915 Y28.29130
G01 X6.89474 Y28.23397
G01 X6.96878 Y28.11980
G01 X7.02192 Y28.01769
G01 X7.05748 Y27.93041
G01 X7.10206 Y27.77997
G01 X7.11270 Y27.72856
G01 X7.13251 Y27.52003
G01 X7.11273 Y27.31149
G01 X7.10206 Y27.26008
G01 X7.05748 Y27.10964
G01 X7.02192 Y27.02236
G01 X6.96878 Y26.92026
G01 X6.90696 Y26.82320
G01 X6.84915 Y26.74875
G01 X6.74112 Y26.63494
G01 X6.70196 Y26.60001
G01 X6.53124 Y26.47860
G01 X6.45984 Y26.44352
G01 X6.40219 Y26.40687
G01 X6.37445 Y26.37222
G01 X6.34577 Y26.28432
G01 X6.34128 Y26.24101
G01 X6.37267 Y26.13087
G01 X6.38436 Y26.11238
G01 X6.40391 Y26.09239
G01 X6.38436 Y26.11238
G01 X6.37267 Y26.13087
G01 X6.35421 Y26.18810
G01 X6.29350 Y26.25000
G01 X6.35400 Y26.31160
G01 X6.34145 Y26.26288
G01 X6.34524 Y26.21952
G01 X6.37267 Y26.13087
G01 X6.38436 Y26.11238
G01 X6.40391 Y26.09239
G01 X6.29972 Y26.13707
G01 X6.22629 Y26.21271
G01 X5.63363 Y26.21271
G01 X5.56000 Y26.13702
G01 X5.45756 Y26.09305
G01 X5.47377 Y26.10974
G01 X5.49363 Y26.14779
G01 X5.51418 Y26.21574
G01 X5.51867 Y26.25904
G01 X5.48728 Y26.36918
G01 X5.47559 Y26.38767
G01 X5.45609 Y26.40761
G01 X5.56023 Y26.36295
G01 X5.63366 Y26.28734
G01 X6.22632 Y26.28734
G01 X6.29993 Y26.36300
G01 X6.40219 Y26.40687
G01 X6.30544 Y26.36448
G01 X6.06889 Y26.31355
G01 X5.81501 Y26.31104
G01 X5.55454 Y26.36448
G01 X5.45609 Y26.40761
G01 X5.47559 Y26.38767
G01 X5.48728 Y26.36918
G01 X5.50574 Y26.31193
G01 X5.56645 Y26.25005
G01 X5.50595 Y26.18846
G01 X5.48550 Y26.12783
G01 X5.45756 Y26.09305
G01 X5.55454 Y26.13555
G01 X5.79109 Y26.18647
G01 X6.05700 Y26.18835
G01 X6.30544 Y26.13555
G01 X6.40391 Y26.09239
G01 X6.45916 Y26.05696
G01 X6.53124 Y26.02145
G01 X6.70196 Y25.90004
G01 X6.74112 Y25.86511
G01 X6.84915 Y25.75130
G01 X6.90696 Y25.67685
G01 X6.96878 Y25.57980
G01 X7.02192 Y25.47769
G01 X7.05748 Y25.39041
G01 X7.10986 Y25.20408
G01 X7.13178 Y24.99072
G01 X7.10701 Y24.74068
G01 X7.05748 Y24.56964
G01 X7.02192 Y24.48236
G01 X6.96878 Y24.38026
G01 X6.90696 Y24.28320
G01 X6.84915 Y24.20875
G01 X6.74112 Y24.09494
G01 X6.70196 Y24.06001
G01 X6.53124 Y23.93860
G01 X6.45984 Y23.90352
G01 X6.40219 Y23.86687
G01 X6.29993 Y23.82300
G01 X6.22632 Y23.74734
G01 X5.63366 Y23.74734
G01 X5.56023 Y23.82295
G01 X5.45609 Y23.86761
G01 X5.56023 Y23.82293
G01 X5.81501 Y23.77104
G01 X6.06889 Y23.77355
