( pcb2gcode 2.4.0 )
( Software-independent Gcode )

G94 ( Millimeters per minute feed rate. )
G21 ( Units == Millimeters. )

G90 ( Absolute coordinates. )
G00 S1000 ( RPM spindle speed. )
G64 P0.01016 ( set maximum deviation from commanded toolpath )
G01 F200.00000 ( Feedrate. )


G00 Z0.50000 (Retract to tool change height)
T0
M5      (Spindle stop.)
G04 P1.00000 (Wait for spindle to stop)
(MSG, Change tool bit to mill diameter 0.15000mm)
M6      (Tool change.)
M0      (Temporary machine stop.)
M3 ( Spindle on clockwise. )
G04 P1.00000 (Wait for spindle to get up to speed)
G04 P0 ( dwell for no time -- G64 should not smooth over this point )
G00 Z2.00000 ( retract )

G00 X60.65453 Y5.93262 ( rapid move to begin. )
G01 F100.00000
( Mill infeed pass 1/1 )
G01 Z-0.17000
G04 P0 ( dwell for no time -- G64 should not smooth over this point )
G01 F200.00000
G01 X60.65453 Y5.93262
G01 X60.65443 Y65.62239
G01 X60.55948 Y66.58820
G01 X60.53304 Y66.70857
G01 X60.28531 Y67.52508
G01 X60.23086 Y67.66150
G01 X59.80853 Y68.45309
G01 X59.76342 Y68.52446
G01 X59.16538 Y69.25454
G01 X59.08661 Y69.33262
G01 X58.36944 Y69.92004
G01 X58.29309 Y69.96853
G01 X57.50211 Y70.39055
G01 X57.36289 Y70.44597
G01 X56.53505 Y70.69713
G01 X56.43058 Y70.71933
G01 X55.45741 Y70.81453
G01 X5.92243 Y70.81433
G01 X4.96188 Y70.71948
G01 X4.84146 Y70.69302
G01 X4.02330 Y70.44481
G01 X3.89074 Y70.39203
G01 X3.09696 Y69.96853
G01 X3.02559 Y69.92342
G01 X2.29551 Y69.32538
G01 X2.21746 Y69.24661
G01 X1.63001 Y68.52944
G01 X1.58157 Y68.45317
G01 X1.15950 Y67.66211
G01 X1.10408 Y67.52289
G01 X0.85290 Y66.69500
G01 X0.83072 Y66.59058
G01 X0.73552 Y65.61741
G01 X0.73562 Y5.92766
G01 X0.83057 Y4.96188
G01 X0.85704 Y4.84146
G01 X1.10524 Y4.02330
G01 X1.15803 Y3.89074
G01 X1.58160 Y3.09683
G01 X1.62663 Y3.02559
G01 X2.22467 Y2.29551
G01 X2.30344 Y2.21743
G01 X3.02061 Y1.63001
G01 X3.09688 Y1.58157
G01 X3.88802 Y1.15947
G01 X4.02706 Y1.10410
G01 X4.85505 Y0.85292
G01 X4.95947 Y0.83072
G01 X5.92766 Y0.73562
G01 X55.47621 Y0.73623
G01 X56.42876 Y0.83062
G01 X56.54648 Y0.85638
G01 X57.36464 Y1.10461
G01 X57.49987 Y1.15833
G01 X58.29439 Y1.58223
G01 X58.36391 Y1.62627
G01 X59.08600 Y2.21695
G01 X59.16553 Y2.29569
G01 X59.76718 Y3.03117
G01 X59.80782 Y3.09564
G01 X60.23202 Y3.89074
G01 X60.28481 Y4.02330
G01 X60.53365 Y4.84357
G01 X60.55943 Y4.96129
G01 X60.65453 Y5.93262
G04 P0 ( dwell for no time -- G64 should not smooth over this point )
G00 Z2.00000 ( retract )

G00 X57.14572 Y5.97420 ( rapid move to begin. )
G01 F100.00000
( Mill infeed pass 1/1 )
G01 Z-0.17000
G04 P0 ( dwell for no time -- G64 should not smooth over this point )
G01 F200.00000
G01 X57.14572 Y5.97420
G01 X57.13371 Y5.72454
G01 X57.08499 Y5.47940
G01 X57.00051 Y5.24417
G01 X56.88220 Y5.02401
G01 X56.73277 Y4.82386
G01 X56.55151 Y4.64509
G01 X56.35362 Y4.50001
G01 X56.13640 Y4.38571
G01 X55.89632 Y4.30120
G01 X55.65093 Y4.25459
G01 X55.40117 Y4.24479
G01 X55.15271 Y4.27202
G01 X54.91103 Y4.33562
G01 X54.68141 Y4.43427
G01 X54.46887 Y4.56582
G01 X54.27811 Y4.72731
G01 X54.11329 Y4.91522
G01 X53.97809 Y5.12540
G01 X53.87545 Y5.35332
G01 X53.80760 Y5.59383
G01 X53.77573 Y5.84448
G01 X53.77354 Y5.92723
G01 X53.79229 Y6.17928
G01 X53.84743 Y6.42306
G01 X53.93803 Y6.65601
G01 X54.06203 Y6.87295
G01 X54.21677 Y7.06927
G01 X54.39881 Y7.24051
G01 X54.60415 Y7.38298
G01 X54.82835 Y7.49355
G01 X55.06638 Y7.56972
G01 X55.31306 Y7.60991
G01 X55.56300 Y7.61316
G01 X55.81065 Y7.57943
G01 X56.05060 Y7.50952
G01 X56.27752 Y7.40488
G01 X56.48654 Y7.26784
G01 X56.67303 Y7.10142
G01 X56.83284 Y6.90925
G01 X56.96251 Y6.69556
G01 X57.05916 Y6.46510
G01 X57.12068 Y6.22286
G01 X57.14572 Y5.97420
G04 P0 ( dwell for no time -- G64 should not smooth over this point )
G00 Z2.00000 ( retract )

G00 X43.26904 Y25.82341 ( rapid move to begin. )
G01 F100.00000
( Mill infeed pass 1/1 )
G01 Z-0.17000
G04 P0 ( dwell for no time -- G64 should not smooth over this point )
G01 F200.00000
G01 X43.26904 Y25.82341
G01 X43.32932 Y25.96903
G01 X43.40110 Y26.02127
G01 X43.52695 Y26.13118
G01 X43.64207 Y26.25599
G01 X43.72256 Y26.36092
G01 X43.82926 Y26.38365
G01 X43.89124 Y26.44030
G01 X43.86432 Y26.44202
G01 X43.80920 Y26.45554
G01 X43.72853 Y26.43776
G01 X43.70879 Y26.52371
G01 X43.67704 Y26.56021
G01 X43.66165 Y26.59828
G01 X43.65626 Y26.56974
G01 X43.63600 Y26.50728
G01 X43.66063 Y26.40268
G01 X43.58469 Y26.30370
G01 X43.47471 Y26.18485
G01 X43.35337 Y26.07865
G01 X43.26617 Y26.01543
G01 X43.20003 Y25.85188
G01 X43.19708 Y25.77939
G01 X43.18654 Y25.74093
G01 X43.19419 Y25.76270
G01 X43.20003 Y25.81503
G01 X43.20003 Y26.05782
G01 X43.31750 Y26.11081
G01 X43.42909 Y26.19110
G01 X43.53089 Y26.30039
G01 X43.61319 Y26.43920
G01 X43.65939 Y26.58137
G01 X43.66223 Y26.73984
G01 X43.64412 Y26.88635
G01 X43.60425 Y27.00529
G01 X43.56500 Y27.10557
G01 X43.53089 Y27.15962
G01 X43.43843 Y27.26135
G01 X43.31875 Y27.34776
G01 X43.37532 Y27.34746
G01 X43.41735 Y27.36249
G01 X43.51263 Y27.35155
G01 X43.59317 Y27.43852
G01 X43.58921 Y27.46356
G01 X43.56528 Y27.54398
G01 X43.56627 Y27.57182
G01 X43.55916 Y27.64245
G01 X43.55421 Y27.65642
G01 X43.85637 Y27.35434
G01 X43.82329 Y27.36328
G01 X43.80143 Y27.36415
G01 X43.76175 Y27.35632
G01 X43.64623 Y27.38591
G01 X43.56411 Y27.29750
G01 X43.57869 Y27.20590
G01 X43.56442 Y27.13133
G01 X43.56500 Y27.10557
G01 X43.53846 Y27.15028
G01 X43.50661 Y27.18660
G01 X43.49142 Y27.27875
G01 X43.40049 Y27.28972
G01 X43.43843 Y27.26135
G01 X43.53089 Y27.15962
G01 X43.56500 Y27.10557
G01 X43.56442 Y27.13133
G01 X43.57732 Y27.20115
G01 X43.59317 Y27.24167
G01 X43.60656 Y27.25894
G01 X43.65512 Y27.31070
G01 X43.69035 Y27.33626
G01 X43.77981 Y27.36087
G01 X43.82329 Y27.36328
G01 X43.84458 Y27.35830
G01 X43.95502 Y27.29597
G01 X44.02352 Y27.27946
G01 X44.25329 Y27.27977
G01 X44.36284 Y27.26503
G01 X44.41052 Y27.26503
G01 X44.42748 Y27.21284
G01 X44.39421 Y27.24870
G01 X44.37574 Y27.26077
G01 X44.35474 Y27.26709
G01 X44.37574 Y27.26077
G01 X44.39421 Y27.24870
G01 X44.42748 Y27.21284
G01 X44.55311 Y26.98472
G01 X44.70920 Y26.80143
G01 X44.73190 Y26.74649
G01 X44.73335 Y26.69874
G01 X44.72385 Y26.63280
G01 X44.70960 Y26.59168
G01 X44.65045 Y26.52023
G01 X44.61783 Y26.49435
G01 X44.60343 Y26.49000
G01 X44.71405 Y26.49000
G01 X44.75494 Y26.50903
G01 X44.83312 Y26.55770
G01 X44.99817 Y26.52480
G01 X45.20643 Y26.50491
G01 X45.41270 Y26.50677
G01 X45.58189 Y26.52480
G01 X45.74513 Y26.55731
G01 X45.86325 Y26.49000
G01 X45.97953 Y26.49000
G01 X45.93320 Y26.51396
G01 X45.91679 Y26.52843
G01 X45.89614 Y26.55729
G01 X45.80035 Y26.61063
G01 X45.84818 Y26.70260
G01 X45.85080 Y26.76087
G01 X45.85712 Y26.78180
G01 X45.86812 Y26.80062
G01 X45.85712 Y26.78180
G01 X45.84851 Y26.73913
G01 X45.84788 Y26.66813
G01 X45.85573 Y26.62534
G01 X45.91679 Y26.52843
G01 X45.93320 Y26.51396
G01 X45.97953 Y26.49000
G01 X45.93320 Y26.51396
G01 X45.91679 Y26.52843
G01 X45.85573 Y26.62534
G01 X45.84788 Y26.66813
G01 X45.84851 Y26.73913
G01 X45.85712 Y26.78180
G01 X45.86812 Y26.80062
G01 X45.78186 Y26.73677
G01 X45.72667 Y26.62968
G01 X45.57112 Y26.59864
G01 X45.40589 Y26.58127
G01 X45.20739 Y26.57951
G01 X45.00892 Y26.59864
G01 X44.85113 Y26.63016
G01 X44.79708 Y26.73758
G01 X44.70920 Y26.80143
G01 X44.73190 Y26.74649
G01 X44.73333 Y26.69877
G01 X44.77691 Y26.61060
G01 X44.71755 Y26.57362
G01 X44.68311 Y26.55790
G01 X44.65045 Y26.52023
G01 X44.61783 Y26.49435
G01 X44.59525 Y26.48757
G01 X44.52426 Y26.47736
G01 X44.01357 Y26.47603
G01 X43.88171 Y26.43915
G01 X43.79538 Y26.45894
G01 X43.75586 Y26.47713
G01 X43.67704 Y26.56021
G01 X43.66165 Y26.59828
G01 X43.67704 Y26.56021
G01 X43.75586 Y26.47713
G01 X43.79538 Y26.45894
G01 X43.86432 Y26.44202
G01 X43.89124 Y26.44030
G01 X43.86531 Y26.41972
G01 X43.18654 Y25.74093
G01 X43.13645 Y25.67314
G01 X39.71568 Y22.25176
G01 X39.69099 Y22.23070
G01 X39.63979 Y22.19570
G01 X39.57004 Y22.18503
G01 X39.22803 Y22.18503
G01 X39.12910 Y22.19961
G01 X38.67578 Y22.19771
G01 X38.58457 Y22.18216
G01 X38.56679 Y22.17101
G01 X38.53428 Y22.13804
G01 X38.56679 Y22.17101
G01 X38.58457 Y22.18216
G01 X38.60479 Y22.18750
G01 X38.54952 Y22.18503
G01 X38.53428 Y22.13804
G01 X38.48830 Y22.04914
G01 X38.42719 Y21.93708
G01 X38.39209 Y21.88740
G01 X38.31779 Y21.79949
G01 X38.28030 Y21.76301
G01 X38.18386 Y21.68572
G01 X38.11094 Y21.64038
G01 X38.03044 Y21.60007
G01 X37.93814 Y21.56583
G01 X37.86334 Y21.54579
G01 X37.75363 Y21.52872
G01 X37.68889 Y21.52489
G01 X37.56545 Y21.53073
G01 X37.51366 Y21.53820
G01 X37.38165 Y21.57175
G01 X37.34429 Y21.58521
G01 X37.21035 Y21.65006
G01 X37.18719 Y21.66418
G01 X37.04828 Y21.77216
G01 X36.93398 Y21.90350
G01 X36.85069 Y22.04854
G01 X36.78993 Y22.22700
G01 X36.76832 Y22.40421
G01 X36.76839 Y22.43571
G01 X36.78511 Y22.60025
G01 X36.83649 Y22.76857
G01 X36.91945 Y22.92369
G01 X36.93487 Y22.94602
G01 X37.03088 Y23.05973
G01 X37.07553 Y23.10104
G01 X37.16649 Y23.17157
G01 X37.21073 Y23.19946
G01 X37.32115 Y23.25501
G01 X37.40192 Y23.28419
G01 X37.48902 Y23.30688
G01 X37.58643 Y23.32118
G01 X37.65790 Y23.32494
G01 X37.75363 Y23.32087
G01 X37.83903 Y23.30932
G01 X37.95828 Y23.27802
G01 X38.00736 Y23.25994
G01 X38.11099 Y23.20985
G01 X38.15831 Y23.18183
G01 X38.28071 Y23.08742
G01 X38.30073 Y23.06862
G01 X38.41391 Y22.93439
G01 X38.53311 Y22.71559
G01 X38.56450 Y22.68219
G01 X38.59719 Y22.66502
G01 X38.56450 Y22.68219
G01 X38.53311 Y22.71559
G01 X38.54952 Y22.66502
G01 X38.59719 Y22.66502
G01 X38.70672 Y22.65029
G01 X39.38299 Y22.65029
G01 X39.47227 Y22.66106
G01 X39.51512 Y22.69113
G01 X39.54299 Y22.71656
G01 X41.07479 Y24.24835
G01 X41.14075 Y24.33517
G01 X42.00552 Y25.19994
G01 X42.02076 Y25.20855
G01 X41.98408 Y25.19046
G01 X41.89848 Y25.19003
G01 X41.81446 Y25.16570
G01 X41.78284 Y25.24124
G01 X41.75449 Y25.26265
G01 X41.74044 Y25.27944
G01 X41.72383 Y25.31231
G01 X41.70938 Y25.18135
G01 X41.66320 Y25.03921
G01 X41.58845 Y24.90974
G01 X41.49696 Y24.80718
G01 X41.35678 Y24.70535
G01 X41.23097 Y24.65000
G01 X41.08474 Y24.61894
G01 X41.02701 Y24.61830
G01 X40.86912 Y24.64353
G01 X40.78370 Y24.66755
G01 X40.72048 Y24.69181
G01 X40.63140 Y24.73438
G01 X40.57019 Y24.74078
G01 X38.70459 Y24.73989
G01 X38.59521 Y24.72516
G01 X38.54954 Y24.72511
G01 X38.53428 Y24.67807
G01 X38.56679 Y24.71101
G01 X38.58457 Y24.72216
G01 X38.60476 Y24.72757
G01 X38.58457 Y24.72216
G01 X38.56679 Y24.71101
G01 X38.53428 Y24.67807
G01 X38.42719 Y24.47708
G01 X38.39209 Y24.42740
G01 X38.31779 Y24.33949
G01 X38.28030 Y24.30301
G01 X38.18386 Y24.22572
G01 X38.11094 Y24.18038
G01 X38.03044 Y24.14007
G01 X37.93814 Y24.10583
G01 X37.86334 Y24.08579
G01 X37.75363 Y24.06872
G01 X37.68889 Y24.06489
G01 X37.58643 Y24.06883
G01 X37.51366 Y24.07820
G01 X37.38165 Y24.11175
G01 X37.34429 Y24.12521
G01 X37.22895 Y24.18000
G01 X37.18719 Y24.20418
G01 X37.05892 Y24.30225
G01 X36.94726 Y24.42676
G01 X36.93288 Y24.44505
G01 X36.84561 Y24.59798
G01 X36.78993 Y24.76700
G01 X36.76832 Y24.94421
G01 X36.76847 Y24.97571
G01 X36.78630 Y25.14594
G01 X36.83649 Y25.30857
G01 X36.91945 Y25.46369
G01 X36.93487 Y25.48602
G01 X37.03088 Y25.59973
G01 X37.07553 Y25.64104
G01 X37.16649 Y25.71157
G01 X37.21073 Y25.73946
G01 X37.32115 Y25.79501
G01 X37.40192 Y25.82419
G01 X37.48899 Y25.84688
G01 X37.56550 Y25.85899
G01 X37.66372 Y25.86524
G01 X37.75363 Y25.86115
G01 X37.83872 Y25.84939
G01 X37.93817 Y25.82425
G01 X38.00736 Y25.79996
G01 X38.12948 Y25.73969
G01 X38.16326 Y25.71873
G01 X38.26468 Y25.64121
G01 X38.30052 Y25.60885
G01 X38.41391 Y25.47439
G01 X38.53311 Y25.25559
G01 X38.56450 Y25.22219
G01 X38.59719 Y25.20502
G01 X38.56450 Y25.22219
G01 X38.53311 Y25.25559
G01 X38.54952 Y25.20502
G01 X38.59719 Y25.20502
G01 X38.70672 Y25.19029
G01 X40.08739 Y25.19029
G01 X40.18718 Y25.20255
G01 X40.20984 Y25.20936
G01 X40.24243 Y25.23522
G01 X40.28891 Y25.28889
G01 X40.29673 Y25.29941
G01 X40.30133 Y25.31861
G01 X40.29673 Y25.29941
G01 X40.24243 Y25.23522
G01 X40.20984 Y25.20936
G01 X40.19541 Y25.20502
G01 X40.30750 Y25.20502
G01 X40.30692 Y25.21071
G01 X40.30171 Y25.20502
G01 X40.30692 Y25.21071
G01 X40.29732 Y25.30195
G01 X40.31154 Y25.37507
G01 X40.32521 Y25.48561
G01 X40.36552 Y25.60537
G01 X40.37707 Y25.63329
G01 X40.44898 Y25.75081
G01 X40.54896 Y25.85795
G01 X40.65089 Y25.93105
G01 X40.70273 Y25.96011
G01 X40.78370 Y25.99249
G01 X40.84997 Y26.01241
G01 X40.92642 Y26.02506
G01 X41.00511 Y26.03082
G01 X41.07273 Y26.02729
G01 X41.16051 Y26.01449
G01 X41.23630 Y25.99247
G01 X41.30847 Y25.96420
G01 X41.36912 Y25.93098
G01 X41.44161 Y25.88244
G01 X41.47090 Y25.85770
G01 X41.55342 Y25.77324
G01 X41.58271 Y25.73311
G01 X41.63836 Y25.64195
G01 X41.65424 Y25.60530
G01 X41.69221 Y25.49506
G01 X41.70562 Y25.39681
G01 X41.72383 Y25.31231
G01 X41.74044 Y25.27944
G01 X41.75449 Y25.26265
G01 X41.83054 Y25.20946
G01 X41.87064 Y25.19260
G01 X41.96333 Y25.18894
G01 X41.99279 Y25.19273
G01 X42.00549 Y25.19989
G01 X41.99279 Y25.19273
G01 X41.96333 Y25.18894
G01 X41.89236 Y25.19016
G01 X41.84979 Y25.19910
G01 X41.75449 Y25.26265
G01 X41.74044 Y25.27944
G01 X41.72383 Y25.31231
G01 X41.71339 Y25.21338
G01 X41.75002 Y25.12526
G01 X41.68246 Y25.01868
G01 X41.60661 Y24.91985
G01 X41.50102 Y24.80616
G01 X41.35779 Y24.68406
G01 X41.21779 Y24.59069
G01 X41.12452 Y24.62674
G01 X41.08474 Y24.61894
G01 X41.02701 Y24.61830
G01 X41.06795 Y24.59405
G01 X41.13630 Y24.50258
G01 X41.14758 Y24.46054
G01 X41.15264 Y24.38973
G01 X41.14786 Y24.34840
G01 X41.14075 Y24.33517
G01 X41.15210 Y24.36789
G01 X41.14908 Y24.43949
G01 X41.17570 Y24.52747
G01 X41.09828 Y24.55689
G01 X41.06795 Y24.59405
G01 X41.02701 Y24.61830
G01 X41.06795 Y24.59405
G01 X41.13630 Y24.50258
G01 X41.14758 Y24.46054
G01 X41.15264 Y24.38973
G01 X41.14786 Y24.34840
G01 X41.14075 Y24.33517
G01 X41.21898 Y24.41340
G01 X41.23425 Y24.45496
G01 X41.25190 Y24.52430
G01 X41.40242 Y24.62427
G01 X41.55449 Y24.75409
G01 X41.66539 Y24.87352
G01 X41.74342 Y24.97563
G01 X41.81520 Y25.08884
G01 X41.92645 Y25.12087
G01 X42.00549 Y25.19989
G01 X42.09185 Y25.26542
G01 X42.61740 Y25.79097
G01 X42.68410 Y25.87850
G01 X42.72005 Y25.91444
G01 X42.72005 Y26.05780
G01 X42.64819 Y26.08978
G01 X42.67892 Y26.04523
G01 X42.69018 Y26.00319
G01 X42.69475 Y25.91050
G01 X42.69010 Y25.88914
G01 X42.67930 Y25.87022
G01 X42.69010 Y25.88914
G01 X42.69526 Y25.93237
G01 X42.69018 Y26.00319
G01 X42.67892 Y26.04523
G01 X42.64819 Y26.08978
G01 X42.49927 Y26.20258
G01 X42.42299 Y26.27941
G01 X42.38746 Y26.32704
G01 X42.33635 Y26.40949
G01 X42.31603 Y26.45483
G01 X42.28080 Y26.55488
G01 X42.25759 Y26.73075
G01 X42.27524 Y26.88561
G01 X42.32708 Y27.03329
G01 X42.41027 Y27.16577
G01 X42.49896 Y27.25795
G01 X42.60087 Y27.33105
G01 X42.65274 Y27.36011
G01 X42.73371 Y27.39249
G01 X42.79998 Y27.41241
G01 X42.89729 Y27.42739
G01 X42.95512 Y27.43085
G01 X43.02276 Y27.42729
G01 X43.11052 Y27.41449
G01 X43.31875 Y27.34776
G01 X43.37532 Y27.34746
G01 X43.39652 Y27.35274
G01 X43.49541 Y27.41050
G01 X43.52213 Y27.44487
G01 X43.55433 Y27.50814
G01 X43.56640 Y27.54995
G01 X43.55916 Y27.64245
G01 X43.55421 Y27.65642
G01 X43.78227 Y27.42838
G01 X43.66561 Y27.45810
G01 X43.63315 Y27.57748
G01 X43.55421 Y27.65642
G01 X43.53333 Y27.68967
G01 X43.50150 Y27.72858
G01 X42.71113 Y28.51743
G01 X42.66226 Y28.55401
G01 X42.61075 Y28.56303
G01 X42.57301 Y28.56478
G01 X38.43120 Y28.56478
G01 X38.32313 Y28.55002
G01 X37.39836 Y28.55002
G01 X36.47193 Y27.62516
G01 X36.45859 Y27.61761
G01 X36.47193 Y27.62516
G01 X36.55173 Y27.70484
G01 X36.65757 Y27.73623
G01 X36.78008 Y27.93278
G01 X37.23774 Y28.38965
G01 X37.33324 Y28.45518
G01 X37.42036 Y28.50605
G01 X37.58445 Y28.52007
G01 X37.75562 Y28.52007
G01 X37.96506 Y28.50008
G01 X38.08620 Y28.47669
G01 X38.17141 Y28.53084
G01 X38.21251 Y28.55002
G01 X38.33138 Y28.55248
G01 X38.30883 Y28.54573
G01 X38.29201 Y28.53491
G01 X38.24352 Y28.48213
G01 X38.20939 Y28.46656
G01 X38.09996 Y28.40031
G01 X38.10075 Y28.39630
G01 X38.09996 Y28.40031
G01 X37.95470 Y28.42617
G01 X37.78899 Y28.44362
G01 X37.58754 Y28.44553
G01 X37.44332 Y28.43227
G01 X37.37314 Y28.39211
G01 X37.27995 Y28.32815
G01 X37.22323 Y28.30288
G01 X37.27995 Y28.32815
G01 X37.37314 Y28.39211
G01 X37.44332 Y28.43227
G01 X37.58754 Y28.44553
G01 X37.78899 Y28.44362
G01 X37.99547 Y28.41969
G01 X38.07667 Y28.40242
G01 X38.12369 Y28.38149
G01 X38.14502 Y28.34814
G01 X38.12369 Y28.38149
G01 X38.12854 Y28.41520
G01 X38.20939 Y28.46656
G01 X38.24352 Y28.48213
G01 X38.21703 Y28.44837
G01 X38.20794 Y28.42848
G01 X38.19267 Y28.33697
G01 X38.19473 Y28.29351
G01 X38.22148 Y28.22993
G01 X38.12752 Y28.29742
G01 X37.96400 Y28.37093
G01 X37.77754 Y28.41311
G01 X37.57436 Y28.41499
G01 X37.37601 Y28.37093
G01 X37.21251 Y28.29742
G01 X37.06712 Y28.19257
G01 X36.92976 Y28.04283
G01 X36.82981 Y27.86595
G01 X36.77500 Y27.69526
G01 X36.75549 Y27.51403
G01 X36.73918 Y27.54624
G01 X36.70820 Y27.57679
G01 X36.62989 Y27.62653
G01 X36.60901 Y27.63306
G01 X36.57967 Y27.63565
G01 X36.69191 Y27.66813
G01 X36.70751 Y27.67664
G01 X36.83959 Y27.88789
G01 X36.70751 Y27.67664
G01 X36.71063 Y27.67268
G01 X36.70751 Y27.67664
G01 X36.69191 Y27.66813
G01 X36.57967 Y27.63565
G01 X36.49557 Y27.63519
G01 X36.45859 Y27.61761
G01 X36.38734 Y27.56069
G01 X36.14355 Y27.31505
G01 X36.09087 Y27.28241
G01 X36.05356 Y27.27067
G01 X36.01500 Y27.26417
G01 X35.50078 Y27.26270
G01 X35.40957 Y27.24715
G01 X35.39179 Y27.23600
G01 X35.35925 Y27.20301
G01 X35.39179 Y27.23600
G01 X35.40957 Y27.24715
G01 X35.42979 Y27.25249
G01 X35.37452 Y27.25002
G01 X35.35925 Y27.20301
G01 X35.25219 Y27.00207
G01 X35.22987 Y26.96920
G01 X35.14282 Y26.86450
G01 X35.08945 Y26.81413
G01 X35.00886 Y26.75071
G01 X34.93591 Y26.70537
G01 X34.85544 Y26.66506
G01 X34.76317 Y26.63082
G01 X34.68834 Y26.61078
G01 X34.59954 Y26.59610
G01 X34.51389 Y26.58990
G01 X34.39045 Y26.59574
G01 X34.33866 Y26.60321
G01 X34.22687 Y26.63067
G01 X34.16929 Y26.65023
G01 X34.05397 Y26.70499
G01 X34.01219 Y26.72920
G01 X33.87328 Y26.83715
G01 X33.75898 Y26.96852
G01 X33.63246 Y27.19785
G01 X33.61552 Y27.25002
G01 X33.55974 Y27.25208
G01 X33.58074 Y27.24576
G01 X33.59921 Y27.23369
G01 X33.63246 Y27.19785
G01 X33.59921 Y27.23369
G01 X33.57434 Y27.24835
G01 X33.48763 Y27.26262
G01 X33.35367 Y27.26374
G01 X33.31519 Y27.27067
G01 X33.27788 Y27.28241
G01 X33.22520 Y27.31507
G01 X32.05293 Y28.48835
G01 X31.98222 Y28.54380
G01 X31.97163 Y28.54652
G01 X31.89289 Y28.55457
G01 X29.34580 Y28.55457
G01 X29.23501 Y28.53984
G01 X29.20638 Y28.53984
G01 X29.19635 Y28.51357
G01 X29.21017 Y28.52741
G01 X29.23501 Y28.53984
G01 X29.19942 Y28.51809
G01 X29.09208 Y28.35160
G01 X28.98317 Y28.23930
G01 X28.87727 Y28.16760
G01 X28.76236 Y28.11726
G01 X28.70562 Y28.09963
G01 X28.61967 Y28.08477
G01 X28.55071 Y28.07908
G01 X28.47329 Y28.08261
G01 X28.39508 Y28.09333
G01 X28.30971 Y28.11733
G01 X28.24652 Y28.14159
G01 X28.19508 Y28.16826
G01 X28.11228 Y28.22155
G01 X28.05983 Y28.26666
G01 X27.99899 Y28.32922
G01 X27.97550 Y28.35952
G01 X27.91479 Y28.45533
G01 X27.87585 Y28.50849
G01 X27.86564 Y28.53984
G01 X27.83161 Y28.53984
G01 X27.79605 Y28.54814
G01 X27.83935 Y28.53801
G01 X27.87585 Y28.50849
G01 X27.83935 Y28.53801
G01 X27.79605 Y28.54814
G01 X27.72361 Y28.55457
G01 X27.60141 Y28.55251
G01 X27.53039 Y28.54230
G01 X27.50788 Y28.53552
G01 X27.47522 Y28.50961
G01 X27.41606 Y28.43816
G01 X27.40181 Y28.39704
G01 X27.39066 Y28.30491
G01 X27.40092 Y28.26262
G01 X27.42084 Y28.21903
G01 X27.33252 Y28.28243
G01 X27.15777 Y28.36023
G01 X26.97065 Y28.40001
G01 X26.77936 Y28.40001
G01 X26.59227 Y28.36023
G01 X26.41751 Y28.28243
G01 X26.26275 Y28.16999
G01 X26.14723 Y28.04263
G01 X26.15546 Y28.09280
G01 X26.14776 Y28.13565
G01 X26.11243 Y28.22145
G01 X26.08279 Y28.25332
G01 X26.02549 Y28.29523
G01 X25.98614 Y28.31380
G01 X25.89369 Y28.32150
G01 X25.87205 Y28.32076
G01 X25.84103 Y28.30956
G01 X25.91967 Y28.38810
G01 X25.95991 Y28.40285
G01 X26.06130 Y28.42404
G01 X26.10253 Y28.46521
G01 X26.10019 Y28.47087
G01 X26.10253 Y28.46521
G01 X26.46359 Y28.46521
G01 X26.53420 Y28.48022
G01 X26.36504 Y28.44420
G01 X26.22658 Y28.40227
G01 X26.13560 Y28.43310
G01 X26.09450 Y28.43067
G01 X26.06135 Y28.42406
G01 X26.12844 Y28.43549
G01 X26.22658 Y28.40227
G01 X26.36504 Y28.44420
G01 X26.53420 Y28.48022
G01 X26.78945 Y28.50750
G01 X27.00136 Y28.50529
G01 X27.17055 Y28.48746
G01 X27.28421 Y28.46569
G01 X27.37039 Y28.52061
G01 X27.41157 Y28.53984
G01 X27.53039 Y28.54230
G01 X27.50788 Y28.53552
G01 X27.49104 Y28.52470
G01 X27.44258 Y28.47197
G01 X27.40839 Y28.45635
G01 X27.29803 Y28.38932
G01 X27.15983 Y28.41362
G01 X26.95792 Y28.43293
G01 X26.75561 Y28.43100
G01 X26.59023 Y28.41362
G01 X26.47916 Y28.39224
G01 X26.38020 Y28.34705
G01 X26.22826 Y28.23793
G01 X26.19859 Y28.21118
G01 X26.19087 Y28.17392
G01 X26.19859 Y28.21118
G01 X26.17571 Y28.26099
G01 X26.15378 Y28.28959
G01 X26.07583 Y28.35086
G01 X25.97804 Y28.33041
G01 X25.94611 Y28.31832
G01 X25.97804 Y28.33041
G01 X26.10260 Y28.35647
G01 X26.12663 Y28.35830
G01 X26.22056 Y28.32457
G01 X26.23108 Y28.32582
G01 X26.23100 Y28.32289
G01 X26.23108 Y28.32582
G01 X26.38330 Y28.37187
G01 X26.54858 Y28.40699
G01 X26.79214 Y28.43293
G01 X26.99445 Y28.43100
G01 X27.20141 Y28.40702
G01 X27.27083 Y28.39226
G01 X27.32244 Y28.36927
G01 X27.34400 Y28.33509
G01 X27.32244 Y28.36927
G01 X27.32754 Y28.40483
G01 X27.40839 Y28.45635
G01 X27.30499 Y28.39130
G01 X27.29082 Y28.38873
G01 X27.27083 Y28.39226
G01 X27.29803 Y28.38932
G01 X27.29882 Y28.38520
G01 X27.29803 Y28.38932
G01 X27.40839 Y28.45635
G01 X27.44258 Y28.47197
G01 X27.49104 Y28.52470
G01 X27.50788 Y28.53552
G01 X27.53039 Y28.54230
G01 X26.07167 Y28.53984
G01 X25.84103 Y28.30956
G01 X25.75478 Y28.24400
G01 X24.84205 Y27.33006
G01 X24.78038 Y27.29364
G01 X24.63370 Y27.26603
G01 X24.61475 Y27.25861
G01 X24.58173 Y27.23877
G01 X24.56550 Y27.22178
G01 X24.59740 Y27.25010
G01 X24.63370 Y27.26603
G01 X24.57972 Y27.26564
G01 X24.56550 Y27.22178
G01 X24.51830 Y27.12914
G01 X24.45719 Y27.01708
G01 X24.43487 Y26.98421
G01 X24.34779 Y26.87949
G01 X24.29445 Y26.82915
G01 X24.21386 Y26.76572
G01 X24.14094 Y26.72038
G01 X24.06044 Y26.68007
G01 X23.98816 Y26.65234
G01 X23.89334 Y26.62579
G01 X23.80454 Y26.61109
G01 X23.71889 Y26.60489
G01 X23.59545 Y26.61073
G01 X23.54366 Y26.61820
G01 X23.43187 Y26.64566
G01 X23.37429 Y26.66521
G01 X23.24035 Y26.73006
G01 X23.21719 Y26.74418
G01 X23.07828 Y26.85216
G01 X22.96398 Y26.98350
G01 X22.88069 Y27.12854
G01 X22.82036 Y27.30517
G01 X22.81638 Y27.32808
G01 X22.79743 Y27.50075
G01 X22.81511 Y27.68025
G01 X22.86649 Y27.84857
G01 X22.88148 Y27.88106
G01 X22.94945 Y28.00369
G01 X23.02217 Y28.09785
G01 X23.05496 Y28.14951
G01 X23.08775 Y28.18500
G01 X23.24251 Y28.29742
G01 X23.37393 Y28.35663
G01 X23.24251 Y28.29742
G01 X23.13169 Y28.21769
G01 X23.16741 Y28.30722
G01 X23.23505 Y28.32714
G01 X23.37393 Y28.35663
G01 X23.42890 Y28.37834
G01 X23.59247 Y28.41311
G01 X23.79565 Y28.41499
G01 X23.99400 Y28.37093
G01 X24.15752 Y28.29742
G01 X24.26926 Y28.21703
G01 X24.15752 Y28.29742
G01 X24.02600 Y28.35668
G01 X24.16502 Y28.32714
G01 X24.23243 Y28.30730
G01 X24.26926 Y28.21703
G01 X24.31226 Y28.18500
G01 X24.34350 Y28.15124
G01 X24.33268 Y28.19501
G01 X24.34896 Y28.30806
G01 X24.37073 Y28.34575
G01 X24.41724 Y28.39942
G01 X24.43306 Y28.41454
G01 X24.46418 Y28.42962
G01 X24.43306 Y28.41454
G01 X24.38460 Y28.36178
G01 X24.30698 Y28.32079
G01 X24.33796 Y28.24611
G01 X24.33268 Y28.19501
G01 X24.33565 Y28.17367
G01 X24.34350 Y28.15124
G01 X24.38041 Y28.09450
G01 X24.43560 Y28.02627
G01 X24.47256 Y27.96788
G01 X24.51625 Y27.91111
G01 X24.53263 Y27.89673
G01 X24.55186 Y27.88629
G01 X24.60609 Y27.87255
G01 X24.61548 Y27.86407
G01 X24.62674 Y27.86811
G01 X24.64213 Y27.86483
G01 X24.60609 Y27.87255
G01 X24.66385 Y27.86229
G01 X24.68564 Y27.86392
G01 X24.73232 Y27.87926
G01 X24.64980 Y27.79668
G01 X24.61658 Y27.78657
G01 X24.61607 Y27.78081
G01 X24.61658 Y27.78657
G01 X24.60403 Y27.78510
G01 X24.58607 Y27.79084
G01 X24.55607 Y27.81718
G01 X24.53591 Y27.87717
G01 X24.51863 Y27.90837
G01 X24.54022 Y27.86595
G01 X24.57952 Y27.74502
G01 X24.59811 Y27.74502
G01 X24.73232 Y27.87926
G01 X24.79897 Y27.92607
G01 X24.93182 Y28.05787
G01 X24.99372 Y28.13714
G01 X25.00489 Y28.15792
G01 X25.00967 Y28.19925
G01 X25.00461 Y28.27006
G01 X24.99334 Y28.31210
G01 X24.92470 Y28.40379
G01 X24.90720 Y28.41690
G01 X24.85125 Y28.44001
G01 X24.89605 Y28.45360
G01 X24.93738 Y28.47319
G01 X25.04589 Y28.45632
G01 X25.07782 Y28.48370
G01 X25.67962 Y29.08522
G01 X25.69956 Y29.18299
G01 X25.71525 Y29.22632
G01 X25.69956 Y29.18299
G01 X25.67352 Y29.05530
G01 X25.07340 Y28.45612
G01 X25.07020 Y28.45322
G01 X25.04906 Y28.45579
G01 X24.93743 Y28.47316
G01 X24.89605 Y28.45360
G01 X24.85125 Y28.44001
G01 X24.90720 Y28.41690
G01 X24.93941 Y28.38761
G01 X24.99334 Y28.31210
G01 X25.00098 Y28.29163
G01 X25.00611 Y28.24901
G01 X25.00098 Y28.29163
G01 X24.99334 Y28.31210
G01 X24.92907 Y28.39899
G01 X25.03908 Y28.38185
G01 X25.01914 Y28.28398
G01 X25.00611 Y28.24901
G01 X25.00913 Y28.17740
G01 X24.99781 Y28.14471
G01 X25.07601 Y28.22295
G01 X25.09168 Y28.26623
G01 X25.11162 Y28.36404
G01 X25.74418 Y28.99663
G01 X25.84797 Y28.98423
G01 X25.72272 Y28.99897
G01 X25.11810 Y28.39597
G01 X25.09168 Y28.26623
G01 X25.07601 Y28.22295
G01 X24.99781 Y28.14471
G01 X25.80260 Y28.94954
G01 X25.86336 Y28.99366
G01 X25.91723 Y29.01266
G01 X26.00992 Y29.00527
G01 X26.07578 Y29.00509
G01 X26.18432 Y29.01982
G01 X27.57019 Y29.01982
G01 X27.65360 Y29.00582
G01 X27.72353 Y29.00509
G01 X27.84182 Y29.02106
G01 X27.87298 Y29.04235
G01 X27.83633 Y29.01982
G01 X27.86567 Y29.01982
G01 X27.87298 Y29.04235
G01 X27.97499 Y29.20059
G01 X28.11246 Y29.35182
G01 X28.13214 Y29.39254
G01 X28.13671 Y29.41393
G01 X28.13625 Y29.44771
G01 X28.13184 Y29.50656
G01 X28.12043 Y29.54857
G01 X28.05147 Y29.64001
G01 X28.03394 Y29.65307
G01 X28.00755 Y29.66503
G01 X29.07252 Y29.66749
G01 X29.04989 Y29.66071
G01 X29.01728 Y29.63483
G01 X28.97080 Y29.58116
G01 X28.94905 Y29.54347
G01 X28.93275 Y29.43016
G01 X28.93585 Y29.40852
G01 X28.95944 Y29.35190
G01 X28.93585 Y29.40852
G01 X28.93366 Y29.44916
G01 X28.88279 Y29.53841
G01 X28.95035 Y29.58149
G01 X28.98467 Y29.59714
G01 X28.95812 Y29.56335
G01 X28.94905 Y29.54347
G01 X28.93379 Y29.45197
G01 X28.93585 Y29.40852
G01 X28.95944 Y29.35190
G01 X28.90361 Y29.39246
G01 X28.87001 Y29.41017
G01 X28.80867 Y29.51827
G01 X28.63823 Y29.53884
G01 X28.47428 Y29.54098
G01 X28.26412 Y29.51842
G01 X28.20029 Y29.40940
G01 X28.16841 Y29.39246
G01 X28.11246 Y29.35182
G01 X28.13214 Y29.39254
G01 X28.13671 Y29.41393
G01 X28.13625 Y29.44771
G01 X28.19023 Y29.53869
G01 X28.13928 Y29.57148
G01 X28.08558 Y29.59825
G01 X28.12043 Y29.54857
G01 X28.13184 Y29.50656
G01 X28.13671 Y29.41393
G01 X28.13214 Y29.39254
G01 X28.11246 Y29.35182
G01 X28.17852 Y29.39902
G01 X28.30382 Y29.45551
G01 X28.44939 Y29.48901
G01 X28.61075 Y29.49089
G01 X28.75695 Y29.45982
G01 X28.89350 Y29.39902
G01 X28.95944 Y29.35190
G01 X29.07933 Y29.22317
G01 X29.19665 Y29.04977
G01 X29.23039 Y29.02205
G01 X29.23966 Y29.01982
G01 X29.23039 Y29.02205
G01 X29.19665 Y29.04977
G01 X29.20636 Y29.01982
G01 X29.23966 Y29.01982
G01 X29.27242 Y29.01197
G01 X29.34733 Y29.00509
G01 X32.09591 Y29.00570
G01 X32.16068 Y28.99239
G01 X32.23995 Y28.95828
G01 X32.30693 Y28.89224
G01 X32.34953 Y28.87872
G01 X32.43426 Y28.86305
G01 X32.57422 Y28.85393
G01 X32.87285 Y28.55525
G01 X32.88636 Y28.41832
G01 X32.87414 Y28.53608
G01 X32.55507 Y28.85515
G01 X32.43868 Y28.86252
G01 X32.88636 Y28.41832
G01 X32.91318 Y28.30262
G01 X32.92362 Y28.27555
G01 X33.00264 Y28.19653
G01 X32.23995 Y28.95828
G01 X32.29304 Y28.95231
G01 X32.31468 Y28.95525
G01 X32.40020 Y28.99119
G01 X32.43589 Y29.01616
G01 X32.48842 Y29.09269
G01 X32.50490 Y29.13298
G01 X32.50772 Y29.22571
G01 X32.50602 Y29.24629
G01 X32.49705 Y29.26564
G01 X33.26116 Y28.50379
G01 X33.19235 Y28.57011
G01 X33.15423 Y28.58243
G01 X33.05738 Y28.59960
G01 X32.61410 Y29.04303
G01 X32.58537 Y29.16302
G01 X32.57630 Y29.18637
G01 X32.58537 Y29.16302
G01 X32.61412 Y29.04301
G01 X32.62560 Y28.92597
G01 X32.94465 Y28.60684
G01 X33.06530 Y28.59907
G01 X32.92558 Y28.60806
G01 X32.62692 Y28.90676
G01 X32.61412 Y29.04301
G01 X32.58359 Y29.16854
G01 X32.57628 Y29.18642
G01 X32.49705 Y29.26564
G01 X32.50602 Y29.24629
G01 X32.50719 Y29.15820
G01 X32.53929 Y29.03417
G01 X32.48948 Y28.96424
G01 X32.45405 Y28.93630
G01 X32.36551 Y28.95165
G01 X32.33421 Y28.96183
G01 X32.36551 Y28.95165
G01 X32.44564 Y28.93684
G01 X32.55052 Y28.93018
G01 X32.54074 Y29.02810
G01 X32.50719 Y29.15820
G01 X32.50772 Y29.22571
G01 X32.50419 Y29.25312
G01 X32.48750 Y29.28238
G01 X32.43155 Y29.35203
G01 X32.17018 Y29.61349
G01 X32.09949 Y29.66902
G01 X32.02088 Y29.67948
G01 X29.17232 Y29.67979
G01 X29.06424 Y29.66503
G01 X28.95363 Y29.66500
G01 X28.91243 Y29.64580
G01 X28.82620 Y29.59081
G01 X28.77049 Y29.59998
G01 X28.59876 Y29.61588
G01 X28.42891 Y29.61332
G01 X28.24680 Y29.59101
G01 X28.17794 Y29.63534
G01 X28.11888 Y29.66500
G01 X28.00755 Y29.66503
G01 X27.90824 Y29.67964
G01 X27.81654 Y29.67770
G01 X27.73128 Y29.66450
G01 X27.70722 Y29.65055
G01 X27.73372 Y29.66500
G01 X27.71365 Y29.66500
G01 X27.70722 Y29.65055
G01 X27.65574 Y29.58151
G01 X27.60966 Y29.50933
G01 X27.45622 Y29.32670
G01 X27.33252 Y29.23760
G01 X27.14614 Y29.15667
G01 X26.97065 Y29.12002
G01 X26.76747 Y29.12190
G01 X26.58101 Y29.16412
G01 X26.41751 Y29.23760
G01 X26.29125 Y29.32856
G01 X26.31276 Y29.27628
G01 X26.31403 Y29.22734
G01 X26.35663 Y29.13955
G01 X26.29846 Y29.10349
G01 X26.26397 Y29.08771
G01 X26.21551 Y29.03493
G01 X26.18432 Y29.01982
G01 X26.19874 Y29.02416
G01 X26.23133 Y29.05002
G01 X26.27781 Y29.10369
G01 X26.29956 Y29.14138
G01 X26.31586 Y29.25467
G01 X26.31276 Y29.27628
G01 X26.29125 Y29.32856
G01 X26.37819 Y29.26539
G01 X26.43059 Y29.15883
G01 X26.59437 Y29.12604
G01 X26.75968 Y29.10864
G01 X26.95775 Y29.10694
G01 X27.15569 Y29.12604
G01 X27.31822 Y29.15858
G01 X27.37250 Y29.26587
G01 X27.45780 Y29.32896
G01 X27.44733 Y29.31050
G01 X27.43915 Y29.26892
G01 X27.43852 Y29.19792
G01 X27.44639 Y29.15510
G01 X27.50743 Y29.05822
G01 X27.52384 Y29.04377
G01 X27.57019 Y29.01982
G01 X27.52384 Y29.04377
G01 X27.50743 Y29.05822
G01 X27.48678 Y29.08710
G01 X27.39193 Y29.13978
G01 X27.43882 Y29.23168
G01 X27.44131 Y29.29008
G01 X27.45780 Y29.32896
G01 X27.44733 Y29.31050
G01 X27.43915 Y29.26892
G01 X27.43852 Y29.19792
G01 X27.44639 Y29.15510
G01 X27.50743 Y29.05822
G01 X27.52384 Y29.04377
G01 X27.57019 Y29.01982
G01 X27.45388 Y29.01982
G01 X27.33699 Y29.08629
G01 X27.16638 Y29.05218
G01 X26.99719 Y29.03417
G01 X26.79140 Y29.03232
G01 X26.58368 Y29.05218
G01 X26.41253 Y29.08639
G01 X26.33578 Y29.03882
G01 X26.29493 Y29.01982
G01 X26.18432 Y29.01982
G01 X26.19874 Y29.02416
G01 X26.23133 Y29.05002
G01 X26.29049 Y29.12150
G01 X26.30471 Y29.16262
G01 X26.31403 Y29.22734
G01 X26.31276 Y29.27628
G01 X26.29125 Y29.32856
G01 X26.22313 Y29.41136
G01 X26.14233 Y29.48284
G01 X26.07812 Y29.58903
G01 X26.05572 Y29.56663
G01 X26.07657 Y29.56927
G01 X26.09356 Y29.56231
G01 X26.06974 Y29.56973
G01 X26.06796 Y29.57887
G01 X26.06974 Y29.56973
G01 X26.05572 Y29.56663
G01 X25.97634 Y29.48728
G01 X25.95881 Y29.47722
G01 X25.98891 Y29.49449
G01 X26.01492 Y29.49780
G01 X26.10766 Y29.49551
G01 X26.14413 Y29.48129
G01 X26.10766 Y29.49551
G01 X26.08592 Y29.49764
G01 X25.98891 Y29.49449
G01 X25.95881 Y29.47722
G01 X25.90900 Y29.43859
G01 X25.85947 Y29.39132
G01 X25.79755 Y29.31207
G01 X25.78637 Y29.29132
G01 X25.78160 Y29.24994
G01 X25.78515 Y29.20024
G01 X25.77207 Y29.16521
G01 X25.75282 Y29.07075
G01 X25.85584 Y29.05716
G01 X25.88401 Y29.03229
G01 X25.92600 Y29.01441
G01 X25.88401 Y29.03229
G01 X25.86651 Y29.04540
G01 X25.79791 Y29.13709
G01 X25.78665 Y29.17913
G01 X25.78160 Y29.24994
G01 X25.78637 Y29.29132
G01 X25.79755 Y29.31207
G01 X25.02506 Y28.53648
G01 X24.97883 Y28.49782
G01 X24.91688 Y28.46221
G01 X24.85125 Y28.44001
G01 X24.78112 Y28.44453
G01 X24.57256 Y28.44438
G01 X24.46423 Y28.42962
G01 X24.04162 Y28.42962
G01 X24.35359 Y28.42962
G01 X24.31355 Y28.41113
G01 X24.25679 Y28.37783
G01 X24.18343 Y28.39945
G01 X24.04162 Y28.42962
G01 X23.04670 Y28.42962
G01 X23.35844 Y28.42962
G01 X23.21663 Y28.39945
G01 X23.14297 Y28.37773
G01 X23.07858 Y28.41538
G01 X23.04670 Y28.42962
G01 X22.93560 Y28.42962
G01 X22.96167 Y28.41825
G01 X23.01676 Y28.36127
G01 X23.09286 Y28.32061
G01 X23.06255 Y28.24568
G01 X23.06807 Y28.20189
G01 X23.06560 Y28.18020
G01 X23.05496 Y28.14951
G01 X23.06560 Y28.18020
G01 X23.06639 Y28.22368
G01 X23.05420 Y28.29361
G01 X23.03875 Y28.33430
G01 X22.97749 Y28.40397
G01 X22.94965 Y28.42559
G01 X22.92257 Y28.43336
G01 X22.85519 Y28.44253
G01 X18.57100 Y28.44266
G01 X18.46637 Y28.46204
G01 X18.37910 Y28.50565
G01 X18.34057 Y28.54011
G01 X17.25126 Y29.62856
G01 X17.18055 Y29.68403
G01 X17.16998 Y29.68672
G01 X17.12238 Y29.69330
G01 X17.05462 Y29.69475
G01 X16.91867 Y29.68002
G01 X16.90968 Y29.66257
G01 X16.93872 Y29.68002
G01 X16.90968 Y29.66257
G01 X16.86076 Y29.59655
G01 X16.80209 Y29.50740
G01 X16.72779 Y29.41949
G01 X16.69030 Y29.38301
G01 X16.59386 Y29.30572
G01 X16.53920 Y29.27077
G01 X16.44044 Y29.22007
G01 X16.36816 Y29.19234
G01 X16.27334 Y29.16579
G01 X16.18454 Y29.15109
G01 X16.09889 Y29.14489
G01 X15.99640 Y29.14883
G01 X15.92366 Y29.15820
G01 X15.79165 Y29.19175
G01 X15.75429 Y29.20521
G01 X15.63895 Y29.26000
G01 X15.59719 Y29.28418
G01 X15.45828 Y29.39216
G01 X15.34398 Y29.52350
G01 X15.25561 Y29.67798
G01 X15.20036 Y29.84517
G01 X15.17745 Y30.04044
G01 X15.19584 Y30.22203
G01 X15.20080 Y30.24278
G01 X15.25216 Y30.40196
G01 X15.32945 Y30.54369
G01 X15.35779 Y30.58281
G01 X15.44088 Y30.67973
G01 X15.46955 Y30.70724
G01 X15.57646 Y30.79157
G01 X15.69269 Y30.86937
G01 X15.71367 Y30.89698
G01 X15.72023 Y30.92576
G01 X15.71367 Y30.89698
G01 X15.69269 Y30.86937
G01 X15.71502 Y30.87930
G01 X15.71502 Y30.90290
G01 X15.72978 Y31.01397
G01 X15.72978 Y33.01095
G01 X15.71903 Y33.10020
G01 X15.68896 Y33.14303
G01 X15.66351 Y33.17094
G01 X12.02399 Y36.80802
G01 X11.96339 Y36.89552
G01 X11.93436 Y36.98297
G01 X11.92963 Y37.04972
G01 X11.92770 Y37.20235
G01 X11.91500 Y37.28160
G01 X11.91500 Y37.38500
G01 X11.81137 Y37.38500
G01 X11.83116 Y37.37505
G01 X11.88483 Y37.32854
G01 X11.89994 Y37.31272
G01 X11.91500 Y37.28163
G01 X11.89994 Y37.31272
G01 X11.82056 Y37.38279
G01 X11.77863 Y37.39285
G01 X11.70352 Y37.39976
G01 X11.47017 Y37.40002
G01 X11.44129 Y37.40652
G01 X11.40845 Y37.42844
G01 X11.38650 Y37.46128
G01 X11.38003 Y37.49016
G01 X11.37977 Y37.72354
G01 X11.36502 Y37.83161
G01 X11.36502 Y37.93502
G01 X11.26136 Y37.93502
G01 X11.28117 Y37.92503
G01 X11.33482 Y37.87855
G01 X11.34990 Y37.86273
G01 X11.36502 Y37.83161
G01 X11.34990 Y37.86273
G01 X11.27055 Y37.93281
G01 X11.22869 Y37.94286
G01 X11.15351 Y37.94977
G01 X4.50280 Y37.94977
G01 X4.41357 Y37.93903
G01 X4.37069 Y37.90890
G01 X4.34286 Y37.88350
G01 X4.04164 Y37.57939
G01 X4.00504 Y37.53047
G01 X3.99599 Y37.47888
G01 X3.99427 Y37.44121
G01 X3.99427 Y11.22184
G01 X4.00504 Y11.13258
G01 X4.03513 Y11.08971
G01 X4.06056 Y11.06187
G01 X4.98085 Y10.14157
G01 X5.05157 Y10.08608
G01 X5.10308 Y10.07703
G01 X11.15351 Y10.07528
G01 X11.25336 Y10.08757
G01 X11.27596 Y10.09436
G01 X11.30855 Y10.12026
G01 X11.35503 Y10.17388
G01 X11.36502 Y10.19377
G01 X11.35503 Y10.17388
G01 X11.29273 Y10.10515
G01 X11.27596 Y10.09436
G01 X11.25336 Y10.08757
G01 X11.36502 Y10.09004
G01 X11.36502 Y10.19377
G01 X11.37284 Y10.22636
G01 X11.37977 Y10.30154
G01 X11.38003 Y10.53489
G01 X11.38650 Y10.56380
G01 X11.40845 Y10.59662
G01 X11.44129 Y10.61854
G01 X11.48000 Y10.62529
G01 X13.08005 Y10.62529
G01 X13.11876 Y10.61854
G01 X13.15160 Y10.59662
G01 X13.17355 Y10.56380
G01 X13.18002 Y10.53489
G01 X13.18002 Y8.91519
G01 X13.17355 Y8.88628
G01 X13.15160 Y8.85346
G01 X13.11876 Y8.83152
G01 X13.08988 Y8.82502
G01 X11.48000 Y8.82479
G01 X11.44129 Y8.83152
G01 X11.40845 Y8.85346
G01 X11.38650 Y8.88628
G01 X11.38003 Y8.91519
G01 X11.37977 Y9.14854
G01 X11.36502 Y9.25664
G01 X11.36502 Y9.36002
G01 X11.26128 Y9.36002
G01 X11.28117 Y9.35003
G01 X11.33482 Y9.30355
G01 X11.34990 Y9.28773
G01 X11.36502 Y9.25664
G01 X11.34990 Y9.28773
G01 X11.27058 Y9.35778
G01 X11.22874 Y9.36784
G01 X11.17515 Y9.37366
G01 X4.89106 Y9.37307
G01 X4.79940 Y9.38867
G01 X4.75898 Y9.40546
G01 X4.69673 Y9.43868
G01 X3.38804 Y10.74127
G01 X3.34743 Y10.79672
G01 X3.32345 Y10.83949
G01 X3.29721 Y10.92428
G01 X3.29320 Y10.98303
G01 X3.29206 Y37.69097
G01 X3.30765 Y37.78267
G01 X3.35271 Y37.87799
G01 X3.43199 Y37.96496
G01 X3.62310 Y38.15445
G01 X3.68561 Y38.23430
G01 X3.69681 Y38.25508
G01 X3.70105 Y38.27459
G01 X3.69648 Y38.36727
G01 X3.68949 Y38.38836
G01 X3.69648 Y38.36727
G01 X3.70156 Y38.29646
G01 X3.70105 Y38.27459
G01 X3.68969 Y38.24187
G01 X3.76285 Y38.31503
G01 X3.68949 Y38.38836
G01 X3.67194 Y38.41701
G01 X3.62371 Y38.47499
G01 X3.38738 Y38.70888
G01 X3.35574 Y38.75036
G01 X3.33315 Y38.78449
G01 X3.29823 Y38.88406
G01 X3.29262 Y39.00202
G01 X3.29206 Y59.28097
G01 X3.30765 Y59.37267
G01 X3.35271 Y59.46799
G01 X3.43229 Y59.55527
G01 X13.24586 Y69.36995
G01 X13.27451 Y69.39233
G01 X13.32150 Y69.42423
G01 X13.38627 Y69.44887
G01 X13.42104 Y69.45913
G01 X13.48701 Y69.46373
G01 X16.26160 Y69.46358
G01 X16.36970 Y69.47834
G01 X16.44946 Y69.47834
G01 X16.45759 Y69.55563
G01 X16.40090 Y69.49342
G01 X16.38411 Y69.48265
G01 X16.36153 Y69.47587
G01 X16.38411 Y69.48265
G01 X16.40090 Y69.49342
G01 X16.45759 Y69.55563
G01 X16.52637 Y69.77328
G01 X16.54148 Y69.80605
G01 X16.62487 Y69.95103
G01 X16.72086 Y70.06472
G01 X16.74954 Y70.09223
G01 X16.85644 Y70.17658
G01 X16.91911 Y70.21473
G01 X17.01113 Y70.26000
G01 X17.09193 Y70.28918
G01 X17.17902 Y70.31186
G01 X17.25548 Y70.32400
G01 X17.34793 Y70.32995
G01 X17.46455 Y70.32390
G01 X17.52904 Y70.31433
G01 X17.62815 Y70.28926
G01 X17.69736 Y70.26495
G01 X17.80099 Y70.21486
G01 X17.85324 Y70.18377
G01 X17.97079 Y70.09248
G01 X18.08250 Y69.96802
G01 X18.10392 Y69.93937
G01 X18.17892 Y69.80628
G01 X18.18916 Y69.78540
G01 X18.24273 Y69.61766
G01 X18.26203 Y69.44262
G01 X18.26117 Y69.41938
G01 X18.24400 Y69.25301
G01 X18.19787 Y69.09830
G01 X18.15116 Y68.99995
G01 X18.12924 Y68.94113
G01 X18.09894 Y68.89055
G01 X18.14179 Y68.84771
G01 X18.12759 Y68.88868
G01 X18.12548 Y68.91042
G01 X18.12924 Y68.94113
G01 X18.12548 Y68.91042
G01 X18.13376 Y68.86769
G01 X18.14179 Y68.84771
G01 X18.19576 Y68.77349
G01 X23.45140 Y63.51706
G01 X23.52217 Y63.46153
G01 X23.53273 Y63.45882
G01 X23.61137 Y63.45076
G01 X31.69276 Y63.45076
G01 X31.79261 Y63.46306
G01 X31.81517 Y63.46981
G01 X31.84780 Y63.49572
G01 X31.89429 Y63.54937
G01 X31.91605 Y63.58706
G01 X31.92121 Y63.60829
G01 X31.93236 Y63.70037
G01 X31.92251 Y63.74157
G01 X31.98776 Y63.67004
G01 X32.15324 Y63.55214
G01 X32.31727 Y63.47980
G01 X32.38131 Y63.46555
G01 X32.49497 Y63.45358
G01 X32.38131 Y63.46555
G01 X32.31727 Y63.47980
G01 X32.18387 Y63.53850
G01 X32.11090 Y63.55584
G01 X31.99670 Y63.59079
G01 X31.99627 Y63.59674
G01 X31.99670 Y63.59079
G01 X31.97887 Y63.58584
G01 X31.88047 Y63.53339
G01 X31.83198 Y63.48063
G01 X31.81517 Y63.46981
G01 X31.79261 Y63.46306
G01 X32.16843 Y63.46552
G01 X31.91143 Y63.46552
G01 X32.00170 Y63.51289
G01 X32.09068 Y63.48401
G01 X32.16843 Y63.46552
G01 X32.38159 Y63.46552
G01 X32.51638 Y63.45247
G01 X32.68364 Y63.45247
G01 X32.81869 Y63.46552
G01 X32.88275 Y63.47980
G01 X33.04679 Y63.55214
G01 X33.21227 Y63.67004
G01 X33.27427 Y63.73794
G01 X33.26586 Y63.71167
G01 X33.26370 Y63.68990
G01 X33.28494 Y63.57738
G01 X33.30833 Y63.54065
G01 X33.35715 Y63.48907
G01 X33.38245 Y63.46951
G01 X33.39665 Y63.46550
G01 X33.37295 Y63.47520
G01 X33.31455 Y63.53408
G01 X33.20767 Y63.58957
G01 X33.18928 Y63.58838
G01 X33.08928 Y63.55589
G01 X33.01613 Y63.53847
G01 X33.08928 Y63.55589
G01 X33.20150 Y63.59021
G01 X33.20201 Y63.59549
G01 X33.20150 Y63.59021
G01 X33.21928 Y63.58533
G01 X33.31455 Y63.53408
G01 X33.37295 Y63.47520
G01 X33.39665 Y63.46550
G01 X32.81869 Y63.46552
G01 X33.03162 Y63.46552
G01 X33.10937 Y63.48401
G01 X33.19665 Y63.51233
G01 X33.28511 Y63.46550
G01 X33.39665 Y63.46550
G01 X33.50406 Y63.45076
G01 X36.98998 Y63.45249
G01 X37.09456 Y63.43309
G01 X37.17718 Y63.39234
G01 X37.26484 Y63.31249
G01 X37.50949 Y63.06618
G01 X37.58925 Y63.00383
G01 X37.61002 Y62.99265
G01 X37.62950 Y62.98841
G01 X37.72216 Y62.99293
G01 X37.73517 Y62.99496
G01 X37.77192 Y63.01752
G01 X37.73517 Y62.99496
G01 X37.72216 Y62.99293
G01 X37.62950 Y62.98841
G01 X37.59676 Y62.99976
G01 X37.66997 Y62.92656
G01 X37.74340 Y63.00002
G01 X37.77192 Y63.01752
G01 X37.81388 Y63.05132
G01 X37.91988 Y63.15816
G01 X37.96130 Y63.18978
G01 X37.99542 Y63.21238
G01 X38.06026 Y63.23707
G01 X38.10372 Y63.24942
G01 X38.15318 Y63.25163
G01 X46.62011 Y63.25351
G01 X46.72471 Y63.23410
G01 X46.81529 Y63.18795
G01 X47.93169 Y62.07551
G01 X48.01097 Y62.01363
G01 X48.03177 Y62.00248
G01 X48.05123 Y61.99821
G01 X48.13797 Y62.00233
G01 X48.12291 Y62.00124
G01 X48.13373 Y61.99720
G01 X48.13797 Y62.00233
G01 X48.16271 Y62.00568
G01 X48.19766 Y62.02057
G01 X48.27028 Y62.08323
G01 X48.19982 Y62.02138
G01 X48.19502 Y61.99001
G01 X48.19502 Y61.95420
G01 X48.16083 Y61.91912
G01 X48.16319 Y61.91384
G01 X48.16083 Y61.91912
G01 X48.13207 Y61.91665
G01 X48.09674 Y61.93139
G01 X48.01849 Y62.00959
G01 X48.19502 Y61.83311
G01 X48.19502 Y61.99001
G01 X48.19982 Y62.02138
G01 X48.27028 Y62.08323
G01 X48.30017 Y62.09004
G01 X49.91002 Y62.09029
G01 X49.94878 Y62.08353
G01 X49.98160 Y62.06164
G01 X50.00355 Y62.02880
G01 X50.01028 Y61.99001
G01 X50.01236 Y60.48308
G01 X50.02831 Y60.39108
G01 X50.05524 Y60.35689
G01 X50.10888 Y60.31041
G01 X50.12882 Y60.30043
G01 X49.94957 Y60.30043
G01 X49.91002 Y60.28775
G01 X48.31000 Y60.28775
G01 X48.24625 Y60.30043
G01 X48.22501 Y60.30043
G01 X48.22501 Y60.32034
G01 X48.21003 Y60.39001
G01 X48.20858 Y60.74790
G01 X48.19512 Y60.82697
G01 X48.18460 Y60.84681
G01 X48.07371 Y60.94162
G01 X46.57317 Y62.44353
G01 X46.53175 Y62.47975
G01 X46.48237 Y62.51307
G01 X46.43368 Y62.52300
G01 X44.31511 Y62.52453
G01 X44.27938 Y62.52158
G01 X44.24664 Y62.51338
G01 X44.18171 Y62.48409
G01 X44.02139 Y62.32702
G01 X44.16007 Y62.46562
G01 X44.05169 Y62.42189
G01 X44.02139 Y62.32702
G01 X43.93991 Y62.24373
G01 X43.94963 Y62.26321
G01 X43.95428 Y62.28457
G01 X43.95146 Y62.35308
G01 X43.97694 Y62.43151
G01 X43.90325 Y62.46982
G01 X43.87310 Y62.50792
G01 X43.85977 Y62.51919
G01 X43.82431 Y62.53652
G01 X44.13683 Y62.53652
G01 X43.93671 Y62.53652
G01 X44.02329 Y62.49090
G01 X44.13683 Y62.53652
G01 X46.45885 Y62.53652
G01 X46.48237 Y62.51307
G01 X46.53175 Y62.47975
G01 X46.57317 Y62.44353
G01 X48.07371 Y60.94162
G01 X48.13324 Y60.88869
G01 X48.17787 Y60.85526
G01 X48.19502 Y60.84838
G01 X48.19504 Y60.82727
G01 X48.17734 Y60.85567
G01 X48.19504 Y60.82727
G01 X48.20858 Y60.74790
G01 X48.21003 Y60.39001
G01 X48.22705 Y60.31097
G01 X48.23543 Y60.30259
G01 X48.24625 Y60.30043
G01 X48.23543 Y60.30259
G01 X48.22705 Y60.31097
G01 X48.21003 Y60.39001
G01 X48.22705 Y60.31097
G01 X48.23543 Y60.30259
G01 X48.31000 Y60.28775
G01 X49.91002 Y60.28775
G01 X49.99707 Y60.31569
G01 X50.01625 Y60.34599
G01 X50.02280 Y60.36758
G01 X50.02506 Y60.39926
G01 X50.02280 Y60.36758
G01 X50.00563 Y60.32613
G01 X49.99707 Y60.31569
G01 X49.94957 Y60.30043
G01 X50.12882 Y60.30043
G01 X50.16141 Y60.29260
G01 X50.23652 Y60.28570
G01 X56.74102 Y60.28633
G01 X56.76211 Y60.28605
G01 X56.80877 Y60.27627
G01 X56.84554 Y60.26106
G01 X56.88624 Y60.23436
G01 X57.09004 Y60.03144
G01 X57.12721 Y59.96883
G01 X57.14084 Y59.90294
G01 X57.14095 Y52.46338
G01 X57.12301 Y52.39292
G01 X57.08977 Y52.34058
G01 X56.55286 Y51.80133
G01 X56.49911 Y51.72501
G01 X56.49393 Y51.68175
G01 X56.49718 Y51.63654
G01 X56.49444 Y51.70362
G01 X56.49911 Y51.72501
G01 X56.50988 Y51.74390
G01 X56.46381 Y51.69435
G01 X56.49718 Y51.63654
G01 X56.51951 Y51.57550
G01 X56.56079 Y51.49359
G01 X56.58751 Y51.42551
G01 X56.63706 Y51.25437
G01 X56.66256 Y51.01503
G01 X56.64278 Y50.80649
G01 X56.63211 Y50.75508
G01 X56.58753 Y50.60464
G01 X56.55197 Y50.51736
G01 X56.49883 Y50.41526
G01 X56.43701 Y50.31820
G01 X56.37920 Y50.24375
G01 X56.27117 Y50.12994
G01 X56.23201 Y50.09501
G01 X56.06129 Y49.97360
G01 X55.98921 Y49.93809
G01 X55.93394 Y49.90266
G01 X55.83546 Y49.85948
G01 X55.59891 Y49.80855
G01 X55.33300 Y49.80667
G01 X55.08456 Y49.85948
G01 X54.98781 Y49.90187
G01 X54.93016 Y49.93852
G01 X54.85876 Y49.97360
G01 X54.68804 Y50.09501
G01 X54.64888 Y50.12994
G01 X54.54085 Y50.24375
G01 X54.48304 Y50.31820
G01 X54.42122 Y50.41526
G01 X54.35937 Y50.53649
G01 X54.31207 Y50.66611
G01 X54.27918 Y50.73692
G01 X54.26803 Y50.79003
G01 X54.20466 Y50.79003
G01 X54.25383 Y50.76382
G01 X54.27928 Y50.73672
G01 X54.25383 Y50.76382
G01 X54.20466 Y50.79003
G01 X54.16757 Y50.79854
G01 X54.10019 Y50.80479
G01 X50.14459 Y50.80479
G01 X50.02623 Y50.78780
G01 X50.00680 Y50.77601
G01 X49.97426 Y50.74302
G01 X50.00680 Y50.77601
G01 X50.02458 Y50.78716
G01 X50.04480 Y50.79250
G01 X49.98953 Y50.79003
G01 X49.97426 Y50.74302
G01 X49.92829 Y50.65414
G01 X49.86717 Y50.54208
G01 X49.83207 Y50.49240
G01 X49.75778 Y50.40449
G01 X49.72029 Y50.36801
G01 X49.62387 Y50.29074
G01 X49.56921 Y50.25577
G01 X49.47043 Y50.20507
G01 X49.37815 Y50.17083
G01 X49.30334 Y50.15079
G01 X49.21455 Y50.13608
G01 X49.12887 Y50.12989
G01 X49.02641 Y50.13385
G01 X48.95364 Y50.14322
G01 X48.84188 Y50.17065
G01 X48.78427 Y50.19021
G01 X48.65031 Y50.25506
G01 X48.49893 Y50.36725
G01 X48.41346 Y50.45884
G01 X48.36159 Y50.50515
G01 X48.34023 Y50.51645
G01 X48.29748 Y50.52478
G01 X48.20472 Y50.52288
G01 X48.16431 Y50.50680
G01 X48.11704 Y50.47655
G01 X48.18376 Y50.51675
G01 X48.22649 Y50.52491
G01 X48.27556 Y50.52483
G01 X48.17630 Y50.58084
G01 X48.11704 Y50.47655
G01 X48.08727 Y50.45506
G01 X48.07292 Y50.43855
G01 X48.05003 Y50.39369
G01 X48.05001 Y50.51020
G01 X48.09159 Y50.58729
G01 X48.12435 Y50.63786
G01 X48.09471 Y50.83921
G01 X48.08574 Y51.04970
G01 X48.09471 Y51.22084
G01 X48.12478 Y51.42508
G01 X48.06923 Y51.51223
G01 X48.05001 Y51.55345
G01 X48.04757 Y51.67225
G01 X48.05435 Y51.64967
G01 X48.06515 Y51.63288
G01 X48.15168 Y51.55790
G01 X48.19281 Y51.54365
G01 X48.26868 Y51.53329
G01 X48.17157 Y51.54881
G01 X48.15168 Y51.55790
G01 X48.11790 Y51.58439
G01 X48.13355 Y51.55015
G01 X48.17668 Y51.48251
G01 X48.23680 Y51.51218
G01 X48.26868 Y51.53329
G01 X48.30657 Y51.53562
G01 X48.32722 Y51.54276
G01 X48.36481 Y51.55993
G01 X48.38143 Y51.57355
G01 X48.36443 Y51.55960
G01 X48.31521 Y51.47456
G01 X48.27165 Y51.44614
G01 X48.19786 Y51.40936
G01 X48.16901 Y51.21398
G01 X48.16034 Y51.04871
G01 X48.16901 Y50.84606
G01 X48.19735 Y50.65396
G01 X48.31290 Y50.58942
G01 X48.36159 Y50.50515
G01 X48.27411 Y50.65785
G01 X48.21813 Y50.82816
G01 X48.19565 Y51.01800
G01 X48.21501 Y51.22026
G01 X48.27411 Y51.40217
G01 X48.36443 Y51.55960
G01 X48.42250 Y51.60977
G01 X48.47000 Y51.66389
G01 X48.51551 Y51.70603
G01 X48.60647 Y51.77657
G01 X48.66911 Y51.81472
G01 X48.76113 Y51.86001
G01 X48.82186 Y51.88284
G01 X48.92900 Y51.91187
G01 X49.00548 Y51.92399
G01 X49.09791 Y51.92993
G01 X49.19364 Y51.92587
G01 X49.27904 Y51.91434
G01 X49.37815 Y51.88924
G01 X49.44736 Y51.86496
G01 X49.56951 Y51.80466
G01 X49.60324 Y51.78376
G01 X49.72077 Y51.69249
G01 X49.83250 Y51.56803
G01 X49.85392 Y51.53938
G01 X49.97309 Y51.32061
G01 X50.00451 Y51.28721
G01 X50.03723 Y51.27002
G01 X50.00451 Y51.28721
G01 X49.97309 Y51.32061
G01 X49.98950 Y51.27002
G01 X50.03723 Y51.27002
G01 X50.14673 Y51.25528
G01 X54.10819 Y51.25528
G01 X54.20801 Y51.26755
G01 X54.22901 Y51.27329
G01 X54.26325 Y51.30022
G01 X54.29246 Y51.33397
G01 X54.24743 Y51.28513
G01 X54.21720 Y51.27002
G01 X54.27219 Y51.27002
G01 X54.29246 Y51.33397
G01 X54.32299 Y51.39669
G01 X54.36808 Y51.51269
G01 X54.42122 Y51.61480
G01 X54.48304 Y51.71185
G01 X54.54085 Y51.78630
G01 X54.64888 Y51.90011
G01 X54.68804 Y51.93504
G01 X54.85876 Y52.05645
G01 X54.93084 Y52.09196
G01 X54.98614 Y52.12742
G01 X55.07331 Y52.16623
G01 X55.33300 Y52.22335
G01 X55.58703 Y52.22335
G01 X55.83546 Y52.17055
G01 X56.05680 Y52.07271
G01 X56.12030 Y52.02965
G01 X56.67503 Y52.58436
G01 X56.67503 Y54.46089
G01 X56.68961 Y54.55985
G01 X56.68977 Y55.08108
G01 X56.67503 Y55.18921
G01 X56.67503 Y55.68360
G01 X56.67503 Y55.29983
G01 X56.65621 Y55.34039
G01 X56.61402 Y55.40973
G01 X56.65230 Y55.55274
G01 X56.67503 Y55.68360
G01 X56.67503 Y56.88918
G01 X56.67503 Y56.50645
G01 X56.65230 Y56.63732
G01 X56.61425 Y56.77953
G01 X56.64519 Y56.82990
G01 X56.67503 Y56.88918
G01 X56.67503 Y57.00089
G01 X56.66261 Y56.97356
G01 X56.64951 Y56.95603
G01 X56.60831 Y56.92261
G01 X56.55946 Y56.83292
G01 X56.47605 Y56.87331
G01 X56.42309 Y56.87161
G01 X56.40173 Y56.87625
G01 X56.36998 Y56.89121
G01 X56.44953 Y56.79909
G01 X56.56998 Y56.58921
G01 X56.60135 Y56.49467
G01 X56.56998 Y56.58921
G01 X56.44555 Y56.80518
G01 X56.54260 Y56.75865
G01 X56.57950 Y56.62083
G01 X56.60135 Y56.49467
G01 X56.64847 Y56.34763
G01 X56.67473 Y56.08939
G01 X56.64534 Y55.83076
G01 X56.56998 Y55.60082
G01 X56.44666 Y55.38654
G01 X56.56998 Y55.60082
G01 X56.60135 Y55.69533
G01 X56.57950 Y55.56922
G01 X56.54245 Y55.43082
G01 X56.44666 Y55.38654
G01 X56.36833 Y55.29701
G01 X56.41847 Y55.31761
G01 X56.44011 Y55.32073
G01 X56.47557 Y55.31773
G01 X56.55908 Y55.35652
G01 X56.59132 Y55.30349
G01 X56.60717 Y55.26881
G01 X56.65992 Y55.22038
G01 X56.67503 Y55.18921
G01 X56.67072 Y55.20359
G01 X56.64483 Y55.23620
G01 X56.59116 Y55.28268
G01 X56.55347 Y55.30443
G01 X56.44011 Y55.32073
G01 X56.39782 Y55.31047
G01 X56.36833 Y55.29701
G01 X56.33658 Y55.27369
G01 X56.23213 Y55.17511
G01 X56.07018 Y55.05959
G01 X55.98921 Y55.01809
G01 X55.92937 Y54.97862
G01 X55.90272 Y54.94418
G01 X55.87133 Y54.83404
G01 X55.87582 Y54.79074
G01 X55.89637 Y54.72279
G01 X55.90450 Y54.70283
G01 X55.93112 Y54.66917
G01 X55.98989 Y54.63153
G01 X56.06129 Y54.59645
G01 X56.23201 Y54.47504
G01 X56.32406 Y54.38751
G01 X56.36998 Y54.35121
G01 X56.43539 Y54.27852
G01 X56.56449 Y54.05993
G01 X56.60135 Y53.95467
G01 X56.56998 Y54.04921
G01 X56.44953 Y54.25909
G01 X56.36998 Y54.35121
G01 X56.40173 Y54.33625
G01 X56.42309 Y54.33161
G01 X56.53732 Y54.33976
G01 X56.57646 Y54.35878
G01 X56.63330 Y54.40133
G01 X56.66261 Y54.43356
G01 X56.67503 Y54.46089
G01 X56.67503 Y54.34918
G01 X56.64519 Y54.28990
G01 X56.61425 Y54.23953
G01 X56.65230 Y54.09732
G01 X56.67503 Y53.96645
G01 X56.67503 Y54.46089
G01 X56.66261 Y54.43356
G01 X56.64951 Y54.41603
G01 X56.57646 Y54.35878
G01 X56.53732 Y54.33976
G01 X56.47605 Y54.33331
G01 X56.53732 Y54.33976
G01 X56.57646 Y54.35878
G01 X56.64951 Y54.41603
G01 X56.66261 Y54.43356
G01 X56.67503 Y54.46089
G01 X56.66261 Y54.43356
G01 X56.64951 Y54.41603
G01 X56.60831 Y54.38261
G01 X56.55946 Y54.29292
G01 X56.47605 Y54.33331
G01 X56.42309 Y54.33161
G01 X56.40173 Y54.33625
G01 X56.36998 Y54.35121
G01 X56.44555 Y54.26518
G01 X56.54260 Y54.21865
G01 X56.57950 Y54.08083
G01 X56.60135 Y53.95467
G01 X56.64847 Y53.80763
G01 X56.67437 Y53.54299
G01 X56.64847 Y53.30240
G01 X56.57427 Y53.07207
G01 X56.44298 Y52.84085
G01 X56.27300 Y52.65208
G01 X56.06752 Y52.50278
G01 X55.84671 Y52.40380
G01 X55.58703 Y52.34667
G01 X55.34504 Y52.34604
G01 X55.09620 Y52.39635
G01 X54.98781 Y52.44187
G01 X55.01555 Y52.40722
G01 X55.03597 Y52.34660
G01 X55.09650 Y52.28500
G01 X55.03579 Y52.22310
G01 X55.01733 Y52.16587
G01 X55.00564 Y52.14738
G01 X54.98614 Y52.12742
G01 X55.00564 Y52.14738
G01 X55.01733 Y52.16587
G01 X55.04872 Y52.27601
G01 X55.04423 Y52.31932
G01 X55.02368 Y52.38726
G01 X55.00382 Y52.42531
G01 X54.98781 Y52.44187
G01 X55.09007 Y52.39800
G01 X55.16368 Y52.32234
G01 X55.83442 Y52.32234
G01 X55.87704 Y52.33562
G01 X56.08713 Y52.42917
G01 X56.12147 Y52.44898
G01 X56.32294 Y52.59663
G01 X56.49083 Y52.78157
G01 X56.52835 Y52.83826
G01 X56.57953 Y53.02925
G01 X56.60135 Y53.15533
G01 X56.57953 Y53.02925
G01 X56.51842 Y52.80118
G01 X56.47288 Y52.67507
G01 X56.33729 Y52.53656
G01 X56.16338 Y52.38802
G01 X56.07351 Y52.32234
G01 X56.03064 Y52.32234
G01 X56.11748 Y52.36100
G01 X56.16338 Y52.38802
G01 X56.11748 Y52.36100
G01 X56.03064 Y52.32234
G01 X55.16368 Y52.32234
G01 X55.09007 Y52.39800
G01 X54.98781 Y52.44187
G01 X55.00382 Y52.42531
G01 X55.02368 Y52.38726
G01 X55.04423 Y52.31932
G01 X55.04872 Y52.27601
G01 X55.01733 Y52.16587
G01 X55.00564 Y52.14738
G01 X54.98614 Y52.12742
G01 X55.09028 Y52.17207
G01 X55.16371 Y52.24771
G01 X55.83432 Y52.24771
G01 X55.87704 Y52.23440
G01 X56.08713 Y52.14086
G01 X56.11220 Y52.12706
G01 X56.11512 Y52.11170
G01 X56.11220 Y52.12706
G01 X56.60041 Y52.61525
G01 X56.60610 Y52.61291
G01 X56.60041 Y52.61525
G01 X56.60041 Y52.81888
G01 X56.65230 Y53.01274
G01 X56.67503 Y53.14360
G01 X56.65230 Y53.01274
G01 X56.59038 Y52.78086
G01 X56.53925 Y52.63610
G01 X56.38801 Y52.48170
G01 X56.20955 Y52.32940
G01 X56.10138 Y52.25145
G01 X56.08509 Y52.24771
G01 X55.83432 Y52.24771
G01 X56.09068 Y52.24814
G01 X56.09172 Y52.24482
G01 X56.09068 Y52.24814
G01 X56.10623 Y52.25427
G01 X56.20724 Y52.32762
G01 X56.09751 Y52.21792
G01 X56.10041 Y52.20227
G01 X56.09751 Y52.21792
G01 X56.03059 Y52.24771
G01 X55.16371 Y52.24771
G01 X55.09028 Y52.17207
G01 X54.98614 Y52.12742
G01 X55.00564 Y52.14738
G01 X55.01733 Y52.16587
G01 X55.04872 Y52.27601
G01 X55.06058 Y52.24868
G01 X55.04872 Y52.27601
G01 X55.04423 Y52.31932
G01 X55.01555 Y52.40722
G01 X54.98781 Y52.44187
G01 X54.93016 Y52.47852
G01 X54.85876 Y52.51360
G01 X54.68804 Y52.63501
G01 X54.64888 Y52.66994
G01 X54.54085 Y52.78375
G01 X54.48304 Y52.85820
G01 X54.42122 Y52.95526
G01 X54.36808 Y53.05736
G01 X54.31207 Y53.20611
G01 X54.27918 Y53.27692
G01 X54.26803 Y53.33003
G01 X54.20466 Y53.33003
G01 X54.25383 Y53.30382
G01 X54.27928 Y53.27672
G01 X54.25383 Y53.30382
G01 X54.20466 Y53.33003
G01 X54.16757 Y53.33854
G01 X54.10019 Y53.34476
G01 X50.14459 Y53.34476
G01 X50.02623 Y53.32780
G01 X50.00680 Y53.31601
G01 X49.97426 Y53.28302
G01 X50.00680 Y53.31601
G01 X50.02458 Y53.32716
G01 X50.04480 Y53.33250
G01 X49.98953 Y53.33003
G01 X49.97426 Y53.28302
G01 X49.86717 Y53.08208
G01 X49.83207 Y53.03240
G01 X49.75778 Y52.94449
G01 X49.70444 Y52.89414
G01 X49.62387 Y52.83074
G01 X49.56921 Y52.79577
G01 X49.47043 Y52.74507
G01 X49.37815 Y52.71083
G01 X49.30334 Y52.69079
G01 X49.19364 Y52.67375
G01 X49.12887 Y52.66989
G01 X49.00543 Y52.67575
G01 X48.95364 Y52.68322
G01 X48.84188 Y52.71065
G01 X48.78427 Y52.73021
G01 X48.66895 Y52.78497
G01 X48.62717 Y52.80918
G01 X48.49893 Y52.90725
G01 X48.43444 Y52.97822
G01 X48.36159 Y53.04515
G01 X48.31925 Y53.06267
G01 X48.22649 Y53.06491
G01 X48.18376 Y53.05675
G01 X48.08727 Y52.99506
G01 X48.07292 Y52.97855
G01 X48.05003 Y52.93369
G01 X48.05001 Y53.05020
G01 X48.09159 Y53.12729
G01 X48.12435 Y53.17786
G01 X48.09933 Y53.33572
G01 X48.09367 Y53.39790
G01 X48.05001 Y53.50351
G01 X48.04706 Y53.57997
G01 X48.03870 Y53.61268
G01 X47.98557 Y53.68528
G01 X46.93424 Y54.73889
G01 X46.90863 Y54.77019
G01 X46.88118 Y54.81164
G01 X46.87297 Y54.84438
G01 X46.87002 Y54.91989
G01 X46.79540 Y55.10026
G01 X46.79540 Y55.35934
G01 X46.80721 Y55.36691
G01 X46.79540 Y55.35934
G01 X46.73289 Y55.38718
G01 X46.69855 Y55.40699
G01 X46.58166 Y55.49322
G01 X46.48369 Y55.60046
G01 X46.46040 Y55.63254
G01 X46.38867 Y55.75886
G01 X46.34280 Y55.89668
G01 X46.33734 Y55.93272
G01 X46.34765 Y55.66858
G01 X46.43642 Y55.55789
G01 X46.56373 Y55.42807
G01 X46.67963 Y55.33069
G01 X46.72077 Y55.31088
G01 X46.73071 Y55.31659
G01 X46.72077 Y55.31088
G01 X46.72077 Y55.28060
G01 X46.79540 Y55.10029
G01 X46.71221 Y55.30506
G01 X46.56373 Y55.42807
G01 X46.52141 Y55.46826
G01 X46.39784 Y55.60313
G01 X46.37097 Y55.63816
G01 X46.34638 Y55.68078
G01 X46.34518 Y55.69231
G01 X46.34640 Y55.68075
G01 X46.37097 Y55.63816
G01 X46.34640 Y55.68075
G01 X46.34518 Y55.69231
G01 X46.33734 Y55.93272
G01 X46.33734 Y56.19122
G01 X46.42425 Y56.27265
G01 X46.45219 Y56.35807
G01 X46.36418 Y56.32190
G01 X46.32131 Y56.31456
G01 X46.23017 Y56.33198
G01 X46.19009 Y56.34900
G01 X46.14722 Y56.38873
G01 X46.03391 Y56.58939
G01 X46.01250 Y56.61804
G01 X45.91912 Y56.72545
G01 X45.84150 Y56.80490
G01 X45.74628 Y56.87305
G01 X45.68857 Y56.97915
G01 X45.57432 Y57.00125
G01 X45.37264 Y57.02053
G01 X45.17104 Y57.01859
G01 X44.96480 Y56.99472
G01 X44.89388 Y56.97966
G01 X44.83155 Y56.87181
G01 X44.74445 Y56.80922
G01 X44.65088 Y56.71476
G01 X44.56779 Y56.61781
G01 X44.53945 Y56.57869
G01 X44.46216 Y56.43696
G01 X44.41080 Y56.27778
G01 X44.40511 Y56.25525
G01 X44.38743 Y56.07575
G01 X44.40993 Y55.88200
G01 X44.46561 Y55.71298
G01 X44.55268 Y55.56038
G01 X44.67394 Y55.42187
G01 X44.80719 Y55.31918
G01 X44.84895 Y55.29500
G01 X44.96429 Y55.24021
G01 X45.02187 Y55.22066
G01 X45.13366 Y55.19320
G01 X45.20643 Y55.18383
G01 X45.30889 Y55.17989
G01 X45.39454 Y55.18609
G01 X45.48334 Y55.20079
G01 X45.69296 Y55.26262
G01 X45.73233 Y55.26267
G01 X45.76205 Y55.25289
G01 X45.73233 Y55.26267
G01 X45.69296 Y55.26262
G01 X45.73404 Y55.28090
G01 X45.76205 Y55.25289
G01 X45.85027 Y55.18555
G01 X47.51851 Y53.51731
G01 X47.54391 Y53.48944
G01 X47.57404 Y53.44654
G01 X47.58272 Y53.38612
G01 X47.58506 Y52.10103
G01 X47.58178 Y52.06463
G01 X47.57099 Y52.00463
G01 X47.55758 Y51.97469
G01 X47.52832 Y51.94251
G01 X47.47147 Y51.89994
G01 X47.43230 Y51.88089
G01 X47.31806 Y51.87273
G01 X47.29669 Y51.87738
G01 X47.27731 Y51.88729
G01 X47.19789 Y51.94942
G01 X46.18227 Y52.96615
G01 X46.11544 Y53.05383
G01 X46.08082 Y53.08850
G01 X46.10599 Y53.13212
G01 X46.10432 Y53.09018
G01 X46.11542 Y53.05386
G01 X46.10432 Y53.09018
G01 X46.10599 Y53.13212
G01 X46.17678 Y53.37728
G01 X46.19205 Y53.55073
G01 X46.17274 Y53.72764
G01 X46.11918 Y53.89539
G01 X46.03391 Y54.04939
G01 X45.92052 Y54.18385
G01 X45.88468 Y54.21621
G01 X45.78326 Y54.29373
G01 X45.73099 Y54.32485
G01 X45.62736 Y54.37494
G01 X45.57828 Y54.39302
G01 X45.45872 Y54.42439
G01 X45.38539 Y54.43529
G01 X45.28374 Y54.44024
G01 X45.18550 Y54.43399
G01 X45.10899 Y54.42188
G01 X45.02192 Y54.39919
G01 X44.94115 Y54.37001
G01 X44.83073 Y54.31446
G01 X44.78649 Y54.28657
G01 X44.69553 Y54.21604
G01 X44.65088 Y54.17473
G01 X44.56779 Y54.07781
G01 X44.53945 Y54.03869
G01 X44.46216 Y53.89696
G01 X44.40549 Y53.71708
G01 X44.38743 Y53.53575
G01 X44.41036 Y53.34017
G01 X44.46561 Y53.17298
G01 X44.55288 Y53.02005
G01 X44.67892 Y52.87725
G01 X44.80719 Y52.77918
G01 X44.84895 Y52.75500
G01 X44.96429 Y52.70021
G01 X45.02187 Y52.68066
G01 X45.13366 Y52.65320
G01 X45.18545 Y52.64573
G01 X45.30889 Y52.63989
G01 X45.39454 Y52.64609
G01 X45.48334 Y52.66079
G01 X45.55814 Y52.68083
G01 X45.65786 Y52.71594
G01 X45.70122 Y52.72627
G01 X45.74455 Y52.74609
G01 X45.77394 Y52.71670
G01 X45.74420 Y52.72650
G01 X45.70122 Y52.72627
G01 X45.74420 Y52.72650
G01 X45.76744 Y52.72064
G01 X45.86213 Y52.64941
G01 X47.06853 Y51.44302
G01 X47.09395 Y51.41510
G01 X47.12402 Y51.37225
G01 X47.13482 Y51.28297
G01 X47.13507 Y50.01101
G01 X47.13180 Y49.97464
G01 X47.12103 Y49.91475
G01 X47.10759 Y49.88467
G01 X47.09448 Y49.86717
G01 X47.00282 Y49.79854
G01 X46.96075 Y49.78727
G01 X46.88994 Y49.78221
G01 X46.84861 Y49.78699
G01 X46.82784 Y49.79816
G01 X46.77041 Y49.84111
G01 X46.18237 Y50.42625
G01 X46.11537 Y50.51411
G01 X46.08087 Y50.54861
G01 X46.10599 Y50.59212
G01 X46.10432 Y50.55018
G01 X46.11534 Y50.51414
G01 X46.10432 Y50.55018
G01 X46.10599 Y50.59212
G01 X46.17678 Y50.83728
G01 X46.19205 Y51.01073
G01 X46.17274 Y51.18764
G01 X46.11918 Y51.35539
G01 X46.02560 Y51.52127
G01 X45.90079 Y51.66250
G01 X45.78326 Y51.75373
G01 X45.73099 Y51.78485
G01 X45.62736 Y51.83494
G01 X45.57828 Y51.85302
G01 X45.45872 Y51.88439
G01 X45.37363 Y51.89615
G01 X45.28372 Y51.90024
G01 X45.18550 Y51.89399
G01 X45.10899 Y51.88188
G01 X45.02192 Y51.85919
G01 X44.94115 Y51.83001
G01 X44.83073 Y51.77446
G01 X44.78649 Y51.74657
G01 X44.69553 Y51.67604
G01 X44.65088 Y51.63473
G01 X44.56779 Y51.53781
G01 X44.53945 Y51.49869
G01 X44.46216 Y51.35696
G01 X44.40511 Y51.17525
G01 X44.38839 Y51.01071
G01 X44.38832 Y50.97921
G01 X44.40993 Y50.80200
G01 X44.46200 Y50.64304
G01 X44.55398 Y50.47850
G01 X44.66828 Y50.34716
G01 X44.69520 Y50.32356
G01 X44.83035 Y50.22506
G01 X44.96429 Y50.16021
G01 X45.02187 Y50.14066
G01 X45.13366 Y50.11320
G01 X45.18545 Y50.10573
G01 X45.30889 Y50.09989
G01 X45.39454 Y50.10609
G01 X45.48334 Y50.12079
G01 X45.55814 Y50.14083
G01 X45.65786 Y50.17594
G01 X45.70119 Y50.18630
G01 X45.74420 Y50.18650
G01 X45.77401 Y50.17662
G01 X45.74420 Y50.18650
G01 X45.70119 Y50.18630
G01 X45.74455 Y50.20609
G01 X45.77401 Y50.17662
G01 X45.86210 Y50.10939
G01 X46.61851 Y49.35298
G01 X46.64386 Y49.32519
G01 X46.67404 Y49.28224
G01 X46.68481 Y49.19301
G01 X46.68506 Y47.92136
G01 X46.68181 Y47.88496
G01 X46.67099 Y47.82491
G01 X46.65760 Y47.79499
G01 X46.64450 Y47.77749
G01 X46.57150 Y47.72024
G01 X46.53236 Y47.70121
G01 X46.41813 Y47.69304
G01 X46.39870 Y47.69725
G01 X46.37785 Y47.70845
G01 X46.29858 Y47.77033
G01 X46.16291 Y47.90911
G01 X46.11872 Y47.96875
G01 X46.10879 Y47.98856
G01 X46.10439 Y48.01036
G01 X46.10607 Y48.05219
G01 X46.10439 Y48.01036
G01 X46.11544 Y47.97424
G01 X46.08095 Y48.00873
G01 X46.10607 Y48.05219
G01 X46.16888 Y48.26240
G01 X46.17678 Y48.29728
G01 X46.19116 Y48.44940
G01 X46.19202 Y48.47264
G01 X46.17274 Y48.64764
G01 X46.11918 Y48.81539
G01 X46.03391 Y48.96939
G01 X45.92052 Y49.10385
G01 X45.88468 Y49.13621
G01 X45.78326 Y49.21373
G01 X45.73099 Y49.24485
G01 X45.62736 Y49.29494
G01 X45.55817 Y49.31925
G01 X45.45872 Y49.34439
G01 X45.39456 Y49.35409
G01 X45.28372 Y49.36024
G01 X45.20643 Y49.35618
G01 X45.10899 Y49.34188
G01 X45.02192 Y49.31919
G01 X44.94115 Y49.29001
G01 X44.84912 Y49.24472
G01 X44.78649 Y49.20657
G01 X44.67955 Y49.12224
G01 X44.65088 Y49.09473
G01 X44.55487 Y48.98102
G01 X44.46216 Y48.81696
G01 X44.40511 Y48.63525
G01 X44.38839 Y48.47071
G01 X44.38832 Y48.43921
G01 X44.40993 Y48.26200
G01 X44.46200 Y48.10304
G01 X44.55398 Y47.93850
G01 X44.66828 Y47.80716
G01 X44.69520 Y47.78356
G01 X44.83035 Y47.68506
G01 X44.96429 Y47.62021
G01 X45.02187 Y47.60066
G01 X45.13366 Y47.57320
G01 X45.18545 Y47.56573
G01 X45.30889 Y47.55989
G01 X45.39454 Y47.56609
G01 X45.48334 Y47.58079
G01 X45.55814 Y47.60083
G01 X45.65801 Y47.63601
G01 X45.70135 Y47.64635
G01 X45.74435 Y47.64658
G01 X45.77412 Y47.63675
G01 X45.74435 Y47.64658
G01 X45.70135 Y47.64635
G01 X45.74470 Y47.66616
G01 X45.77412 Y47.63675
G01 X45.86228 Y47.56949
G01 X46.13391 Y47.29753
G01 X46.18202 Y47.23467
G01 X46.19276 Y47.14536
G01 X46.19276 Y46.82161
G01 X46.18204 Y46.72817
G01 X46.16751 Y46.68915
G01 X46.10150 Y46.62491
G01 X46.06462 Y46.60178
G01 X45.97373 Y46.58318
G01 X45.93022 Y46.58364
G01 X45.91006 Y46.59083
G01 X45.84778 Y46.62707
G01 X45.78326 Y46.67373
G01 X45.73099 Y46.70485
G01 X45.62736 Y46.75494
G01 X45.57828 Y46.77302
G01 X45.45872 Y46.80439
G01 X45.37363 Y46.81615
G01 X45.28372 Y46.82024
G01 X45.18550 Y46.81399
G01 X45.10902 Y46.80188
G01 X45.02192 Y46.77919
G01 X44.94516 Y46.75151
G01 X44.88070 Y46.73457
G01 X44.83449 Y46.73447
G01 X44.80511 Y46.74435
G01 X44.83449 Y46.73447
G01 X44.88070 Y46.73457
G01 X44.83551 Y46.71394
G01 X44.80511 Y46.74435
G01 X44.71712 Y46.81150
G01 X44.14953 Y47.37998
G01 X44.09662 Y47.41214
G01 X44.02949 Y47.43020
G01 X40.24781 Y47.43136
G01 X40.19442 Y47.43711
G01 X40.16181 Y47.44493
G01 X40.12838 Y47.44495
G01 X40.11865 Y47.47495
G01 X40.15244 Y47.44719
G01 X40.16181 Y47.44493
G01 X40.15244 Y47.44719
G01 X40.11865 Y47.47495
G01 X40.00143 Y47.64820
G01 X39.91893 Y47.73269
G01 X39.88962 Y47.75745
G01 X39.81713 Y47.80596
G01 X39.75645 Y47.83921
G01 X39.66437 Y47.87411
G01 X39.60852 Y47.88950
G01 X39.52076 Y47.90228
G01 X39.45312 Y47.90584
G01 X39.39531 Y47.90238
G01 X39.29798 Y47.88740
G01 X39.25165 Y47.87429
G01 X39.15074 Y47.83510
G01 X39.11693 Y47.81699
G01 X39.01863 Y47.75153
G01 X38.99694 Y47.73294
G01 X38.90827 Y47.64076
G01 X38.82508 Y47.50828
G01 X38.77322 Y47.36060
G01 X38.75559 Y47.20574
G01 X38.77456 Y47.04889
G01 X38.81403 Y46.92984
G01 X38.83435 Y46.88450
G01 X38.88546 Y46.80205
G01 X38.92074 Y46.75476
G01 X38.98213 Y46.69215
G01 X39.03976 Y46.64313
G01 X39.11708 Y46.59344
G01 X39.16852 Y46.56680
G01 X39.25170 Y46.53604
G01 X39.31711 Y46.51851
G01 X39.39531 Y46.50780
G01 X39.47271 Y46.50429
G01 X39.52074 Y46.50747
G01 X39.62762 Y46.52481
G01 X39.68436 Y46.54247
G01 X39.79925 Y46.59278
G01 X39.90517 Y46.66451
G01 X40.01408 Y46.77681
G01 X40.12122 Y46.94302
G01 X40.12838 Y46.96502
G01 X40.16798 Y46.96748
G01 X40.14898 Y46.96273
G01 X40.11835 Y46.93878
G01 X40.13217 Y46.95263
G01 X40.15200 Y46.96390
G01 X40.23897 Y46.97770
G01 X43.81799 Y46.97978
G01 X43.85576 Y46.97803
G01 X43.90727 Y46.96901
G01 X43.97798 Y46.91351
G01 X44.39807 Y46.49344
G01 X44.46383 Y46.40681
G01 X44.49919 Y46.37145
G01 X44.47394 Y46.32773
G01 X44.47254 Y46.38773
G01 X44.46386 Y46.40678
G01 X44.47254 Y46.38773
G01 X44.47394 Y46.32773
G01 X44.40511 Y46.09525
G01 X44.38771 Y45.90927
G01 X44.41036 Y45.72017
G01 X44.46561 Y45.55298
G01 X44.55288 Y45.40005
G01 X44.67892 Y45.25725
G01 X44.83035 Y45.14506
G01 X44.96429 Y45.08021
G01 X45.00165 Y45.06675
G01 X45.13366 Y45.03320
G01 X45.20643 Y45.02383
G01 X45.30889 Y45.01989
G01 X45.37363 Y45.02372
G01 X45.48334 Y45.04079
G01 X45.55814 Y45.06083
G01 X45.65044 Y45.09507
G01 X45.73094 Y45.13538
G01 X45.84178 Y45.20795
G01 X45.92184 Y45.25304
G01 X45.96497 Y45.25502
G01 X46.05646 Y45.23975
G01 X46.07635 Y45.23068
G01 X46.11018 Y45.20412
G01 X46.07635 Y45.23068
G01 X46.05646 Y45.23975
G01 X46.00061 Y45.24989
G01 X46.07348 Y45.27531
G01 X46.11018 Y45.20412
G01 X46.16291 Y45.15570
G01 X46.17803 Y45.12454
G01 X46.17803 Y45.23515
G01 X46.13175 Y45.32375
G01 X46.17803 Y45.49266
G01 X46.17805 Y45.70625
G01 X46.19126 Y45.90940
G01 X46.17805 Y46.13373
G01 X46.17803 Y46.71407
G01 X46.18204 Y46.72817
G01 X46.16751 Y46.68915
G01 X46.10960 Y46.63248
G01 X46.07379 Y46.56375
G01 X46.00150 Y46.58821
G01 X45.95194 Y46.58133
G01 X45.91247 Y46.58961
G01 X46.03028 Y46.45783
G01 X46.10597 Y46.32796
G01 X46.03028 Y46.45783
G01 X45.97732 Y46.51757
G01 X46.06205 Y46.48933
G01 X46.10597 Y46.32796
G01 X46.13022 Y46.28095
G01 X46.17805 Y46.13373
G01 X46.17805 Y46.71404
G01 X46.17803 Y46.60272
G01 X46.13210 Y46.51534
G01 X46.17803 Y46.34739
G01 X46.17805 Y46.13373
G01 X46.19126 Y45.93066
G01 X46.17805 Y45.70625
G01 X46.13022 Y45.55908
G01 X46.10597 Y45.51204
G01 X46.06172 Y45.34976
G01 X45.97516 Y45.32004
G01 X45.91125 Y45.24943
G01 X46.03683 Y45.39228
G01 X46.12591 Y45.54785
G01 X46.17805 Y45.70625
G01 X46.17803 Y45.12454
G01 X46.19276 Y45.01646
G01 X46.19276 Y44.28161
G01 X46.18204 Y44.18817
G01 X46.16751 Y44.14915
G01 X46.08417 Y44.07158
G01 X46.04358 Y44.05586
G01 X45.97373 Y44.04318
G01 X45.95194 Y44.04133
G01 X45.91313 Y44.04885
G01 X46.03028 Y43.91783
G01 X46.10597 Y43.78796
G01 X46.05433 Y43.98050
G01 X46.05918 Y43.99805
G01 X46.10960 Y44.09248
G01 X46.05918 Y43.99805
G01 X46.05433 Y43.98050
G01 X46.04872 Y43.98095
G01 X46.05433 Y43.98050
G01 X46.10597 Y43.78796
G01 X46.13022 Y43.74095
G01 X46.17805 Y43.59376
G01 X46.17803 Y43.80739
G01 X46.13210 Y43.97534
G01 X46.17803 Y44.06272
G01 X46.17803 Y44.17407
G01 X46.18204 Y44.18817
G01 X46.17805 Y44.17404
G01 X46.17805 Y43.59376
G01 X46.19126 Y43.36940
G01 X46.17803 Y43.16612
G01 X46.17803 Y43.11563
G01 X46.18974 Y43.04534
G01 X46.20594 Y43.00569
G01 X46.20152 Y43.01395
G01 X46.20155 Y43.00785
G01 X46.26223 Y42.93198
G01 X46.23190 Y42.94098
G01 X46.17279 Y42.93884
G01 X46.14298 Y42.95428
G01 X46.13094 Y42.96963
G01 X46.12481 Y42.96615
G01 X46.13094 Y42.96963
G01 X46.12690 Y43.01042
G01 X46.17803 Y43.16612
G01 X46.12591 Y43.00785
G01 X46.06789 Y42.90610
G01 X46.09812 Y42.92563
G01 X46.11816 Y42.93295
G01 X46.23190 Y42.94098
G01 X46.25997 Y42.93346
G01 X46.35143 Y42.86363
G01 X48.15285 Y41.06087
G01 X48.17838 Y41.03105
G01 X48.20741 Y40.98731
G01 X48.20866 Y40.84621
G01 X48.22638 Y40.69308
G01 X48.23037 Y40.67016
G01 X48.28562 Y40.50298
G01 X48.37289 Y40.35005
G01 X48.38727 Y40.33176
G01 X48.49893 Y40.20725
G01 X48.62717 Y40.10918
G01 X48.66895 Y40.08497
G01 X48.78427 Y40.03021
G01 X48.82168 Y40.01675
G01 X48.95364 Y39.98322
G01 X49.00543 Y39.97575
G01 X49.12887 Y39.96989
G01 X49.19364 Y39.97375
G01 X49.30334 Y39.99079
G01 X49.39811 Y40.01733
G01 X49.47043 Y40.04507
G01 X49.56921 Y40.09577
G01 X49.62387 Y40.13074
G01 X49.70444 Y40.19414
G01 X49.75778 Y40.24449
G01 X49.83207 Y40.33240
G01 X49.86717 Y40.38208
G01 X49.97426 Y40.58302
G01 X49.98953 Y40.63003
G01 X50.04480 Y40.63250
G01 X50.02458 Y40.62716
G01 X50.00680 Y40.61601
G01 X49.97426 Y40.58302
G01 X50.00680 Y40.61601
G01 X50.02458 Y40.62716
G01 X50.11579 Y40.64271
G01 X54.12109 Y40.64390
G01 X54.20466 Y40.63003
G01 X54.26803 Y40.63003
G01 X54.27933 Y40.57664
G01 X54.25383 Y40.60382
G01 X54.20466 Y40.63003
G01 X54.25383 Y40.60382
G01 X54.27933 Y40.57664
G01 X54.31207 Y40.50611
G01 X54.35937 Y40.37649
G01 X54.42122 Y40.25526
G01 X54.48304 Y40.15820
G01 X54.54085 Y40.08375
G01 X54.64888 Y39.96994
G01 X54.68804 Y39.93501
G01 X54.85876 Y39.81360
G01 X54.93016 Y39.77852
G01 X54.98781 Y39.74187
G01 X55.08456 Y39.69948
G01 X55.32111 Y39.64855
G01 X55.57499 Y39.64604
G01 X55.82977 Y39.69793
G01 X55.93396 Y39.74268
G01 X55.82977 Y39.69795
G01 X55.75634 Y39.62234
G01 X55.16368 Y39.62234
G01 X55.09007 Y39.69800
G01 X54.98781 Y39.74187
G01 X55.00382 Y39.72531
G01 X55.02368 Y39.68726
G01 X55.04423 Y39.61932
G01 X55.04872 Y39.57601
G01 X55.01733 Y39.46587
G01 X55.00564 Y39.44738
G01 X54.98611 Y39.42739
G01 X55.08456 Y39.47055
G01 X55.34504 Y39.52399
G01 X55.59891 Y39.52147
G01 X55.83546 Y39.47055
G01 X55.93239 Y39.42808
G01 X55.90450 Y39.46283
G01 X55.87582 Y39.55074
G01 X55.87133 Y39.59404
G01 X55.88426 Y39.64693
G01 X55.79589 Y39.55587
G01 X55.77262 Y39.54771
G01 X55.14133 Y39.54822
G01 X55.12010 Y39.55963
G01 X55.03600 Y39.64660
G01 X55.12462 Y39.55549
G01 X55.12038 Y39.55508
G01 X55.12106 Y39.55874
G01 X55.11763 Y39.54881
G01 X55.12419 Y39.55587
G01 X55.14743 Y39.54771
G01 X55.77262 Y39.54771
G01 X55.78469 Y39.54972
G01 X55.79998 Y39.55965
G01 X55.80188 Y39.54896
G01 X55.79546 Y39.55551
G01 X55.79917 Y39.55518
G01 X55.79853 Y39.55833
G01 X55.88426 Y39.64693
G01 X55.90272 Y39.70418
G01 X55.92937 Y39.73862
G01 X55.98921 Y39.77809
G01 X56.06129 Y39.81360
G01 X56.23201 Y39.93501
G01 X56.27117 Y39.96994
G01 X56.37920 Y40.08375
G01 X56.43701 Y40.15820
G01 X56.49883 Y40.25526
G01 X56.55197 Y40.35736
G01 X56.58753 Y40.44464
G01 X56.63211 Y40.59508
G01 X56.64275 Y40.64649
G01 X56.66256 Y40.85480
G01 X56.63706 Y41.09437
G01 X56.58753 Y41.26541
G01 X56.55197 Y41.35269
G01 X56.49883 Y41.45480
G01 X56.42479 Y41.56897
G01 X56.37920 Y41.62630
G01 X56.25581 Y41.75469
G01 X56.06129 Y41.89645
G01 X55.98989 Y41.93153
G01 X55.93244 Y41.96805
G01 X55.84671 Y42.00623
G01 X55.58703 Y42.06335
G01 X55.33300 Y42.06335
G01 X55.08456 Y42.01055
G01 X54.98614 Y41.96742
G01 X54.93084 Y41.93196
G01 X54.85876 Y41.89645
G01 X54.66424 Y41.75469
G01 X54.54085 Y41.62630
G01 X54.49526 Y41.56897
G01 X54.42122 Y41.45480
G01 X54.36808 Y41.35269
G01 X54.32299 Y41.23669
G01 X54.29246 Y41.17397
G01 X54.24743 Y41.12513
G01 X54.21720 Y41.11002
G01 X54.24743 Y41.12513
G01 X54.29246 Y41.17397
G01 X54.27219 Y41.11002
G01 X54.21720 Y41.11002
G01 X54.10819 Y41.09528
G01 X50.14673 Y41.09528
G01 X50.03723 Y41.11002
G01 X49.98950 Y41.11002
G01 X49.97309 Y41.16061
G01 X50.00451 Y41.12721
G01 X50.03723 Y41.11002
G01 X50.00451 Y41.12721
G01 X49.97309 Y41.16061
G01 X49.85392 Y41.37938
G01 X49.74050 Y41.51385
G01 X49.72077 Y41.53249
G01 X49.60324 Y41.62376
G01 X49.55102 Y41.65485
G01 X49.44736 Y41.70496
G01 X49.39826 Y41.72302
G01 X49.27873 Y41.75441
G01 X49.19364 Y41.76615
G01 X49.10373 Y41.77024
G01 X49.02638 Y41.76620
G01 X48.92900 Y41.75187
G01 X48.82186 Y41.72284
G01 X48.76113 Y41.70001
G01 X48.65072 Y41.64443
G01 X48.60647 Y41.61657
G01 X48.54650 Y41.57095
G01 X48.47406 Y41.52523
G01 X48.37431 Y41.51964
G01 X48.34155 Y41.53102
G01 X48.37431 Y41.51964
G01 X48.47518 Y41.52584
G01 X48.41432 Y41.45825
G01 X48.34155 Y41.53102
G01 X48.25478 Y41.59698
G01 X46.70952 Y43.14265
G01 X46.68415 Y43.17049
G01 X46.65402 Y43.21339
G01 X46.64325 Y43.30262
G01 X46.64310 Y45.02101
G01 X46.64638 Y45.05735
G01 X46.65733 Y45.11806
G01 X46.67046 Y45.14737
G01 X46.68356 Y45.16487
G01 X46.72403 Y45.19774
G01 X46.76180 Y45.27082
G01 X46.83840 Y45.24628
G01 X46.88808 Y45.24984
G01 X46.79570 Y45.24115
G01 X46.77523 Y45.23350
G01 X46.72403 Y45.19774
G01 X46.77523 Y45.23350
G01 X46.79570 Y45.24115
G01 X46.88808 Y45.24984
G01 X46.90993 Y45.24933
G01 X46.94262 Y45.23802
G01 X46.86441 Y45.31623
G01 X46.77129 Y45.34557
G01 X46.72751 Y45.45504
G01 X46.69984 Y45.49657
G01 X46.67465 Y45.56317
G01 X46.67099 Y47.82491
G01 X46.65760 Y47.79499
G01 X46.64450 Y47.77749
G01 X46.60434 Y47.74483
G01 X46.56644 Y47.67155
G01 X46.48971 Y47.69608
G01 X46.41813 Y47.69304
G01 X46.38537 Y47.70441
G01 X46.46365 Y47.62616
G01 X46.55700 Y47.59680
G01 X46.60025 Y47.48727
G01 X46.63185 Y47.44140
G01 X46.65506 Y47.37000
G01 X46.65720 Y45.43002
G01 X46.70233 Y45.31707
G01 X46.65725 Y45.23109
G01 X46.65733 Y45.11806
G01 X46.65506 Y47.37000
G01 X46.63185 Y47.44140
G01 X46.59941 Y47.48844
G01 X46.38537 Y47.70441
G01 X46.39870 Y47.69725
G01 X46.43998 Y47.69253
G01 X46.51079 Y47.69761
G01 X46.55283 Y47.70886
G01 X46.64450 Y47.77749
G01 X46.65760 Y47.79499
G01 X46.67099 Y47.82491
G01 X46.67119 Y47.51046
G01 X46.67107 Y47.71140
G01 X46.62593 Y47.62532
G01 X46.67119 Y47.51046
G01 X46.67241 Y45.58557
G01 X46.68118 Y45.54163
G01 X46.70744 Y45.48146
G01 X46.74031 Y45.44031
G01 X46.94262 Y45.23802
G01 X47.02954 Y45.17198
G01 X48.21808 Y43.98344
G01 X48.27401 Y43.91377
G01 X48.29052 Y43.88525
G01 X48.29392 Y43.81773
G01 X48.29253 Y43.87773
G01 X48.28386 Y43.89675
G01 X48.31917 Y43.86145
G01 X48.29392 Y43.81773
G01 X48.22550 Y43.58707
G01 X48.20744 Y43.40574
G01 X48.22994 Y43.21202
G01 X48.28562 Y43.04298
G01 X48.37398 Y42.88850
G01 X48.48831 Y42.75713
G01 X48.62717 Y42.64918
G01 X48.66895 Y42.62497
G01 X48.78427 Y42.57021
G01 X48.84188 Y42.55065
G01 X48.95364 Y42.52322
G01 X49.02641 Y42.51385
G01 X49.12887 Y42.50989
G01 X49.21455 Y42.51608
G01 X49.30334 Y42.53079
G01 X49.37815 Y42.55083
G01 X49.47043 Y42.58507
G01 X49.55092 Y42.62538
G01 X49.62387 Y42.67074
G01 X49.70444 Y42.73414
G01 X49.75778 Y42.78449
G01 X49.83207 Y42.87240
G01 X49.86717 Y42.92208
G01 X49.97426 Y43.12302
G01 X49.98953 Y43.17003
G01 X50.04480 Y43.17250
G01 X50.02458 Y43.16716
G01 X50.00680 Y43.15601
G01 X49.97426 Y43.12302
G01 X50.00680 Y43.15601
G01 X50.02623 Y43.16780
G01 X50.14459 Y43.18476
G01 X54.12952 Y43.18372
G01 X54.20463 Y43.17003
G01 X54.26803 Y43.17003
G01 X54.27931 Y43.11669
G01 X54.25383 Y43.14382
G01 X54.20463 Y43.17003
G01 X54.25383 Y43.14382
G01 X54.27931 Y43.11669
G01 X54.31207 Y43.04611
G01 X54.35937 Y42.91649
G01 X54.42122 Y42.79526
G01 X54.48304 Y42.69820
G01 X54.54085 Y42.62375
G01 X54.64888 Y42.50994
G01 X54.68804 Y42.47501
G01 X54.85876 Y42.35360
G01 X54.93016 Y42.31852
G01 X54.98781 Y42.28187
G01 X55.08456 Y42.23948
G01 X55.32111 Y42.18855
G01 X55.57499 Y42.18604
G01 X55.82977 Y42.23793
G01 X55.93396 Y42.28268
G01 X55.82977 Y42.23795
G01 X55.75634 Y42.16234
G01 X55.16368 Y42.16234
G01 X55.09007 Y42.23800
G01 X54.98781 Y42.28187
G01 X55.00382 Y42.26531
G01 X55.02368 Y42.22726
G01 X55.04423 Y42.15932
G01 X55.04872 Y42.11601
G01 X55.01733 Y42.00587
G01 X55.00564 Y41.98738
G01 X54.98614 Y41.96742
G01 X55.00564 Y41.98738
G01 X55.01733 Y42.00587
G01 X55.03579 Y42.06310
G01 X55.09650 Y42.12500
G01 X55.03597 Y42.18660
G01 X55.01555 Y42.24722
G01 X54.98781 Y42.28187
G01 X55.00382 Y42.26531
G01 X55.02368 Y42.22726
G01 X55.04423 Y42.15932
G01 X55.04872 Y42.11601
G01 X55.06058 Y42.08868
G01 X55.04872 Y42.11601
G01 X55.01733 Y42.00587
G01 X55.00564 Y41.98738
G01 X54.98614 Y41.96742
G01 X55.09028 Y42.01207
G01 X55.16371 Y42.08771
G01 X55.75637 Y42.08771
G01 X55.83000 Y42.01202
G01 X55.93244 Y41.96805
G01 X55.90450 Y42.00283
G01 X55.87582 Y42.09074
G01 X55.87133 Y42.13404
G01 X55.88423 Y42.18693
G01 X55.87133 Y42.13404
G01 X55.87582 Y42.09074
G01 X55.90450 Y42.00283
G01 X55.93244 Y41.96805
G01 X55.90450 Y42.00283
G01 X55.88408 Y42.06346
G01 X55.82355 Y42.12505
G01 X55.88423 Y42.18693
G01 X55.90272 Y42.24418
G01 X55.92937 Y42.27862
G01 X55.98921 Y42.31809
G01 X56.06129 Y42.35360
G01 X56.23201 Y42.47501
G01 X56.27117 Y42.50994
G01 X56.37920 Y42.62375
G01 X56.43701 Y42.69820
G01 X56.49883 Y42.79526
G01 X56.55197 Y42.89736
G01 X56.58753 Y42.98464
G01 X56.63706 Y43.15568
G01 X56.66183 Y43.38431
G01 X56.64275 Y43.60356
G01 X56.63211 Y43.65497
G01 X56.58753 Y43.80541
G01 X56.55197 Y43.89269
G01 X56.49883 Y43.99480
G01 X56.43701 Y44.09185
G01 X56.37920 Y44.16630
G01 X56.27117 Y44.28011
G01 X56.23201 Y44.31504
G01 X56.06129 Y44.43645
G01 X55.98989 Y44.47153
G01 X55.93244 Y44.50805
G01 X55.90450 Y44.54283
G01 X55.87582 Y44.63074
G01 X55.87133 Y44.67404
G01 X55.90272 Y44.78418
G01 X55.91441 Y44.80267
G01 X55.93391 Y44.82261
G01 X55.82977 Y44.77795
G01 X55.75634 Y44.70234
G01 X55.16368 Y44.70234
G01 X55.09007 Y44.77800
G01 X54.98781 Y44.82187
G01 X55.00382 Y44.80531
G01 X55.02368 Y44.76726
G01 X55.04423 Y44.69932
G01 X55.04872 Y44.65601
G01 X55.01733 Y44.54587
G01 X55.00564 Y44.52738
G01 X54.98614 Y44.50742
G01 X55.09025 Y44.55207
G01 X55.16371 Y44.62771
G01 X55.75637 Y44.62771
G01 X55.83000 Y44.55202
G01 X55.93244 Y44.50805
G01 X55.90450 Y44.54283
G01 X55.88405 Y44.60346
G01 X55.82355 Y44.66505
G01 X55.88426 Y44.72693
G01 X55.87133 Y44.67404
G01 X55.87582 Y44.63074
G01 X55.90450 Y44.54283
G01 X55.93244 Y44.50805
G01 X55.83546 Y44.55055
G01 X55.59891 Y44.60147
G01 X55.34504 Y44.60399
G01 X55.08456 Y44.55055
G01 X54.98614 Y44.50742
G01 X54.93084 Y44.47196
G01 X54.85876 Y44.43645
G01 X54.68804 Y44.31504
G01 X54.64888 Y44.28011
G01 X54.54085 Y44.16630
G01 X54.48304 Y44.09185
G01 X54.42122 Y43.99480
G01 X54.36808 Y43.89269
G01 X54.32299 Y43.77669
G01 X54.29246 Y43.71397
G01 X54.24743 Y43.66513
G01 X54.21720 Y43.65002
G01 X54.24743 Y43.66513
G01 X54.29246 Y43.71397
G01 X54.27219 Y43.65002
G01 X54.21720 Y43.65002
G01 X54.10819 Y43.63528
G01 X50.14673 Y43.63528
G01 X50.03723 Y43.65002
G01 X49.98950 Y43.65002
G01 X49.97309 Y43.70061
G01 X50.00451 Y43.66721
G01 X50.03723 Y43.65002
G01 X50.00451 Y43.66721
G01 X49.97309 Y43.70061
G01 X49.85392 Y43.91938
G01 X49.74050 Y44.05385
G01 X49.70466 Y44.08621
G01 X49.60324 Y44.16376
G01 X49.55102 Y44.19485
G01 X49.44736 Y44.24496
G01 X49.37815 Y44.26924
G01 X49.27873 Y44.29441
G01 X49.19364 Y44.30615
G01 X49.10373 Y44.31024
G01 X49.02638 Y44.30620
G01 X48.92900 Y44.29187
G01 X48.84193 Y44.26919
G01 X48.76517 Y44.24153
G01 X48.70070 Y44.22456
G01 X48.65450 Y44.22446
G01 X48.63428 Y44.22916
G01 X48.61640 Y44.23958
G01 X48.63428 Y44.22916
G01 X48.65450 Y44.22446
G01 X48.70070 Y44.22456
G01 X48.65549 Y44.20394
G01 X48.62509 Y44.23437
G01 X48.53710 Y44.30150
G01 X47.20155 Y45.63706
G01 X47.17609 Y45.66497
G01 X47.14602 Y45.70782
G01 X47.13523 Y45.79708
G01 X47.13500 Y47.06903
G01 X47.14907 Y47.16538
G01 X47.16246 Y47.19537
G01 X47.17556 Y47.21287
G01 X47.26723 Y47.28150
G01 X47.30929 Y47.29278
G01 X47.38011 Y47.29784
G01 X47.40195 Y47.29730
G01 X47.43467 Y47.28600
G01 X47.40195 Y47.29730
G01 X47.33043 Y47.29428
G01 X47.25364 Y47.31884
G01 X47.21572 Y47.24554
G01 X47.17556 Y47.21287
G01 X47.16246 Y47.19537
G01 X47.14907 Y47.16538
G01 X47.14887 Y47.47437
G01 X47.14897 Y47.27889
G01 X47.19415 Y47.36510
G01 X47.14887 Y47.47437
G01 X47.14882 Y47.58907
G01 X47.13558 Y47.67559
G01 X47.13449 Y49.40449
G01 X47.12126 Y49.49148
G01 X47.12121 Y49.60581
G01 X47.07592 Y49.71498
G01 X47.12108 Y49.80113
G01 X47.12103 Y49.91475
G01 X47.12126 Y49.49148
G01 X47.09403 Y49.53230
G01 X47.05230 Y49.57716
G01 X47.00698 Y49.68645
G01 X46.91359 Y49.71587
G01 X46.83535 Y49.79410
G01 X46.86809 Y49.78274
G01 X46.93967 Y49.78577
G01 X47.01646 Y49.76123
G01 X47.05435 Y49.83454
G01 X47.00282 Y49.79854
G01 X46.98232 Y49.79090
G01 X46.88994 Y49.78221
G01 X46.84861 Y49.78699
G01 X46.83535 Y49.79410
G01 X47.07973 Y49.54972
G01 X47.12126 Y49.49148
G01 X47.13223 Y49.43464
G01 X47.13558 Y47.67559
G01 X47.14882 Y47.58907
G01 X47.16720 Y47.55763
G01 X47.21783 Y47.50282
G01 X47.26312 Y47.39360
G01 X47.35643 Y47.36421
G01 X47.19032 Y47.53032
G01 X47.16720 Y47.55763
G01 X47.14882 Y47.58907
G01 X47.16720 Y47.55763
G01 X47.19032 Y47.53032
G01 X47.43467 Y47.28600
G01 X47.52153 Y47.22001
G01 X48.21808 Y46.52344
G01 X48.27401 Y46.45377
G01 X48.29052 Y46.42525
G01 X48.29392 Y46.35773
G01 X48.29253 Y46.41773
G01 X48.28384 Y46.43680
G01 X48.31917 Y46.40145
G01 X48.29392 Y46.35773
G01 X48.22550 Y46.12707
G01 X48.20744 Y45.94574
G01 X48.22994 Y45.75202
G01 X48.28562 Y45.58298
G01 X48.37398 Y45.42850
G01 X48.48831 Y45.29713
G01 X48.62717 Y45.18918
G01 X48.66895 Y45.16497
G01 X48.78427 Y45.11021
G01 X48.84188 Y45.09065
G01 X48.95364 Y45.06322
G01 X49.02641 Y45.05385
G01 X49.12887 Y45.04989
G01 X49.21455 Y45.05608
G01 X49.30334 Y45.07079
G01 X49.37815 Y45.09083
G01 X49.47043 Y45.12507
G01 X49.55092 Y45.16538
G01 X49.62387 Y45.21074
G01 X49.70444 Y45.27414
G01 X49.75778 Y45.32449
G01 X49.83207 Y45.41240
G01 X49.86717 Y45.46208
G01 X49.97426 Y45.66302
G01 X49.98953 Y45.71003
G01 X50.04480 Y45.71250
G01 X50.02458 Y45.70716
G01 X50.00680 Y45.69601
G01 X49.97426 Y45.66302
G01 X50.00680 Y45.69601
G01 X50.02623 Y45.70780
G01 X50.14459 Y45.72476
G01 X54.12952 Y45.72372
G01 X54.20466 Y45.71003
G01 X54.26803 Y45.71003
G01 X54.27931 Y45.65669
G01 X54.25383 Y45.68382
G01 X54.20466 Y45.71003
G01 X54.25383 Y45.68382
G01 X54.27931 Y45.65669
G01 X54.31207 Y45.58611
G01 X54.35937 Y45.45649
G01 X54.42122 Y45.33526
G01 X54.48304 Y45.23820
G01 X54.54085 Y45.16375
G01 X54.64888 Y45.04994
G01 X54.68804 Y45.01501
G01 X54.85876 Y44.89360
G01 X54.93016 Y44.85852
G01 X54.98781 Y44.82187
G01 X55.00382 Y44.80531
G01 X55.02368 Y44.76726
G01 X55.04423 Y44.69932
G01 X55.04872 Y44.65601
G01 X55.01733 Y44.54587
G01 X55.00564 Y44.52738
G01 X54.98614 Y44.50742
G01 X55.00564 Y44.52738
G01 X55.01733 Y44.54587
G01 X55.03579 Y44.60310
G01 X55.06058 Y44.62868
G01 X55.04872 Y44.65601
G01 X55.06058 Y44.62868
G01 X55.09650 Y44.66500
G01 X55.03597 Y44.72660
G01 X55.01555 Y44.78722
G01 X54.98781 Y44.82187
G01 X55.08456 Y44.77948
G01 X55.33300 Y44.72667
G01 X55.59891 Y44.72855
G01 X55.83546 Y44.77948
G01 X55.93391 Y44.82261
G01 X55.98921 Y44.85809
G01 X56.06129 Y44.89360
G01 X56.23201 Y45.01501
G01 X56.27117 Y45.04994
G01 X56.37920 Y45.16375
G01 X56.43701 Y45.23820
G01 X56.49883 Y45.33526
G01 X56.55197 Y45.43736
G01 X56.58753 Y45.52464
G01 X56.63706 Y45.69568
G01 X56.66183 Y45.92431
G01 X56.64275 Y46.14356
G01 X56.63211 Y46.19497
G01 X56.58753 Y46.34541
G01 X56.56071 Y46.41356
G01 X56.50127 Y46.53012
G01 X56.42467 Y46.64887
G01 X56.37905 Y46.70645
G01 X56.27117 Y46.82011
G01 X56.23201 Y46.85504
G01 X56.06129 Y46.97645
G01 X55.98989 Y47.01153
G01 X55.93244 Y47.04805
G01 X55.90450 Y47.08283
G01 X55.87582 Y47.17074
G01 X55.87133 Y47.21404
G01 X55.90272 Y47.32418
G01 X55.91441 Y47.34267
G01 X55.93391 Y47.36261
G01 X55.82977 Y47.31795
G01 X55.75634 Y47.24234
G01 X55.16368 Y47.24234
G01 X55.09007 Y47.31800
G01 X54.98781 Y47.36187
G01 X55.00382 Y47.34531
G01 X55.02368 Y47.30726
G01 X55.04423 Y47.23932
G01 X55.04872 Y47.19601
G01 X55.01733 Y47.08587
G01 X55.00564 Y47.06738
G01 X54.98614 Y47.04742
G01 X55.09025 Y47.09207
G01 X55.16371 Y47.16771
G01 X55.75637 Y47.16771
G01 X55.83000 Y47.09202
G01 X55.93244 Y47.04805
G01 X55.90450 Y47.08283
G01 X55.88405 Y47.14346
G01 X55.82355 Y47.20505
G01 X55.88423 Y47.26693
G01 X55.87133 Y47.21404
G01 X55.87582 Y47.17074
G01 X55.90450 Y47.08283
G01 X55.93244 Y47.04805
G01 X55.83546 Y47.09055
G01 X55.59891 Y47.14147
G01 X55.34504 Y47.14399
G01 X55.08456 Y47.09055
G01 X54.98614 Y47.04742
G01 X54.93084 Y47.01196
G01 X54.85876 Y46.97645
G01 X54.68804 Y46.85504
G01 X54.64888 Y46.82011
G01 X54.54085 Y46.70630
G01 X54.48304 Y46.63185
G01 X54.42122 Y46.53480
G01 X54.36808 Y46.43269
G01 X54.32299 Y46.31669
G01 X54.29246 Y46.25397
G01 X54.24743 Y46.20513
G01 X54.21720 Y46.19002
G01 X54.24743 Y46.20513
G01 X54.29246 Y46.25397
G01 X54.27219 Y46.19002
G01 X54.21720 Y46.19002
G01 X54.13702 Y46.17734
G01 X50.14673 Y46.17528
G01 X50.03723 Y46.19002
G01 X49.98950 Y46.19002
G01 X49.97309 Y46.24061
G01 X50.00451 Y46.20721
G01 X50.03723 Y46.19002
G01 X50.00451 Y46.20721
G01 X49.97309 Y46.24061
G01 X49.85392 Y46.45938
G01 X49.74050 Y46.59385
G01 X49.70466 Y46.62621
G01 X49.60324 Y46.70376
G01 X49.55102 Y46.73485
G01 X49.44736 Y46.78496
G01 X49.37815 Y46.80924
G01 X49.27873 Y46.83441
G01 X49.19364 Y46.84615
G01 X49.10373 Y46.85024
G01 X49.02638 Y46.84620
G01 X48.92900 Y46.83187
G01 X48.84193 Y46.80919
G01 X48.76517 Y46.78153
G01 X48.70070 Y46.76456
G01 X48.65552 Y46.74394
G01 X48.62514 Y46.77432
G01 X48.65450 Y46.76446
G01 X48.70070 Y46.76456
G01 X48.65450 Y46.76446
G01 X48.63233 Y46.77000
G01 X48.53710 Y46.84150
G01 X47.65156 Y47.72707
G01 X47.62613 Y47.75494
G01 X47.59603 Y47.79781
G01 X47.58529 Y47.88707
G01 X47.58544 Y49.15902
G01 X47.60005 Y49.25806
G01 X47.61247 Y49.28536
G01 X47.62555 Y49.30286
G01 X47.71724 Y49.37152
G01 X47.75930 Y49.38280
G01 X47.83012 Y49.38785
G01 X47.85199 Y49.38732
G01 X47.88463 Y49.37601
G01 X47.85199 Y49.38732
G01 X47.78039 Y49.38429
G01 X47.70429 Y49.40870
G01 X47.66677 Y49.33631
G01 X47.62555 Y49.30286
G01 X47.61247 Y49.28536
G01 X47.60005 Y49.25806
G01 X47.60002 Y49.67632
G01 X47.58625 Y49.76557
G01 X47.58422 Y51.50448
G01 X47.57127 Y51.58091
G01 X47.55961 Y51.60331
G01 X47.36080 Y51.80568
G01 X47.50226 Y51.66392
G01 X47.45616 Y51.77530
G01 X47.36080 Y51.80568
G01 X47.28178 Y51.88487
G01 X47.31806 Y51.87273
G01 X47.38694 Y51.87558
G01 X47.46573 Y51.85005
G01 X47.50431 Y51.92450
G01 X47.54450 Y51.95719
G01 X47.55758 Y51.97469
G01 X47.57099 Y52.00463
G01 X47.57127 Y51.58091
G01 X47.57104 Y51.89112
G01 X47.52514 Y51.80372
G01 X47.57117 Y51.69252
G01 X47.57127 Y51.58091
G01 X47.58044 Y51.53496
G01 X47.58544 Y51.47995
G01 X47.58625 Y49.76557
G01 X47.60002 Y49.67632
G01 X47.60005 Y49.25806
G01 X47.60002 Y49.36966
G01 X47.64485 Y49.45498
G01 X47.60002 Y49.56319
G01 X47.59994 Y49.67660
G01 X47.61719 Y49.64762
G01 X47.66901 Y49.59161
G01 X47.71381 Y49.48346
G01 X47.80640 Y49.45422
G01 X47.66901 Y49.59161
G01 X47.88463 Y49.37601
G01 X47.97152 Y49.31000
G01 X48.21808 Y49.06344
G01 X48.27401 Y48.99377
G01 X48.29052 Y48.96525
G01 X48.29392 Y48.89773
G01 X48.29253 Y48.95773
G01 X48.28386 Y48.97675
G01 X48.31917 Y48.94145
G01 X48.29392 Y48.89773
G01 X48.22550 Y48.66707
G01 X48.20744 Y48.48574
G01 X48.22994 Y48.29202
G01 X48.28562 Y48.12298
G01 X48.37398 Y47.96850
G01 X48.48831 Y47.83713
G01 X48.62717 Y47.72918
G01 X48.66895 Y47.70497
G01 X48.78427 Y47.65021
G01 X48.84188 Y47.63065
G01 X48.95364 Y47.60322
G01 X49.02641 Y47.59385
G01 X49.12887 Y47.58989
G01 X49.21455 Y47.59608
G01 X49.30334 Y47.61079
G01 X49.37815 Y47.63083
G01 X49.47043 Y47.66507
G01 X49.55092 Y47.70538
G01 X49.62387 Y47.75074
G01 X49.70444 Y47.81414
G01 X49.75778 Y47.86449
G01 X49.83207 Y47.95240
G01 X49.86717 Y48.00208
G01 X49.97426 Y48.20302
G01 X49.98953 Y48.25003
G01 X50.04480 Y48.25250
G01 X50.02458 Y48.24716
G01 X50.00680 Y48.23601
G01 X49.97426 Y48.20302
G01 X50.00680 Y48.23601
G01 X50.02623 Y48.24780
G01 X50.14459 Y48.26476
G01 X54.12952 Y48.26372
G01 X54.20466 Y48.25003
G01 X54.26803 Y48.25003
G01 X54.27931 Y48.19669
G01 X54.25383 Y48.22382
G01 X54.20466 Y48.25003
G01 X54.25383 Y48.22382
G01 X54.27931 Y48.19669
G01 X54.31207 Y48.12611
G01 X54.35937 Y47.99649
G01 X54.42122 Y47.87526
G01 X54.48304 Y47.77820
G01 X54.54085 Y47.70375
G01 X54.64888 Y47.58994
G01 X54.68804 Y47.55501
G01 X54.85876 Y47.43360
G01 X54.93016 Y47.39852
G01 X54.98781 Y47.36187
G01 X55.00382 Y47.34531
G01 X55.01555 Y47.32722
G01 X55.03597 Y47.26660
G01 X55.09650 Y47.20500
G01 X55.03579 Y47.14310
G01 X55.01733 Y47.08587
G01 X55.00564 Y47.06738
G01 X54.98614 Y47.04742
G01 X55.00564 Y47.06738
G01 X55.01733 Y47.08587
G01 X55.04872 Y47.19601
G01 X55.06058 Y47.16868
G01 X55.04872 Y47.19601
G01 X55.04423 Y47.23932
G01 X55.02368 Y47.30726
G01 X55.00382 Y47.34531
G01 X54.98781 Y47.36187
G01 X55.08456 Y47.31948
G01 X55.32111 Y47.26855
G01 X55.58703 Y47.26667
G01 X55.83546 Y47.31948
G01 X55.93391 Y47.36261
G01 X55.98921 Y47.39809
G01 X56.06129 Y47.43360
G01 X56.23201 Y47.55501
G01 X56.27117 Y47.58994
G01 X56.37920 Y47.70375
G01 X56.42479 Y47.76108
G01 X56.49883 Y47.87526
G01 X56.55197 Y47.97736
G01 X56.58753 Y48.06464
G01 X56.63706 Y48.23568
G01 X56.66256 Y48.47503
G01 X56.64275 Y48.68356
G01 X56.63211 Y48.73497
G01 X56.58753 Y48.88541
G01 X56.55197 Y48.97269
G01 X56.50127 Y49.07012
G01 X56.43683 Y49.17175
G01 X56.37905 Y49.24645
G01 X56.27117 Y49.36011
G01 X56.23201 Y49.39504
G01 X56.06129 Y49.51645
G01 X55.98989 Y49.55153
G01 X55.93244 Y49.58805
G01 X55.83546 Y49.63055
G01 X55.58703 Y49.68335
G01 X55.32111 Y49.68147
G01 X55.08456 Y49.63055
G01 X54.98614 Y49.58742
G01 X55.00564 Y49.60738
G01 X55.01733 Y49.62587
G01 X55.03579 Y49.68310
G01 X55.09650 Y49.74500
G01 X55.03597 Y49.80660
G01 X55.04855 Y49.75788
G01 X55.04476 Y49.71452
G01 X55.01733 Y49.62587
G01 X55.00564 Y49.60738
G01 X54.98614 Y49.58742
G01 X55.09025 Y49.63207
G01 X55.16371 Y49.70771
G01 X55.75637 Y49.70771
G01 X55.83000 Y49.63202
G01 X55.93244 Y49.58805
G01 X55.90450 Y49.62283
G01 X55.87582 Y49.71074
G01 X55.87133 Y49.75404
G01 X55.88423 Y49.80695
G01 X55.87133 Y49.75404
G01 X55.87582 Y49.71074
G01 X55.90450 Y49.62283
G01 X55.93244 Y49.58805
G01 X55.90450 Y49.62283
G01 X55.88405 Y49.68346
G01 X55.82355 Y49.74505
G01 X55.88423 Y49.80695
G01 X55.90272 Y49.86418
G01 X55.91441 Y49.88267
G01 X55.93394 Y49.90266
G01 X55.82977 Y49.85795
G01 X55.75634 Y49.78234
G01 X55.16368 Y49.78234
G01 X55.09007 Y49.85800
G01 X54.98781 Y49.90187
G01 X55.00382 Y49.88531
G01 X55.02368 Y49.84726
G01 X55.04423 Y49.77932
G01 X55.04872 Y49.73601
G01 X55.06058 Y49.70868
G01 X55.04872 Y49.73601
G01 X55.02530 Y49.64624
G01 X55.00564 Y49.60738
G01 X54.98614 Y49.58742
G01 X54.93084 Y49.55196
G01 X54.85876 Y49.51645
G01 X54.68804 Y49.39504
G01 X54.64888 Y49.36011
G01 X54.54085 Y49.24630
G01 X54.48304 Y49.17185
G01 X54.42122 Y49.07480
G01 X54.36808 Y48.97269
G01 X54.32299 Y48.85669
G01 X54.29246 Y48.79397
G01 X54.24743 Y48.74513
G01 X54.21720 Y48.73002
G01 X54.24743 Y48.74513
G01 X54.29246 Y48.79397
G01 X54.27219 Y48.73002
G01 X54.21720 Y48.73002
G01 X54.13702 Y48.71734
G01 X50.14673 Y48.71528
G01 X50.03723 Y48.73002
G01 X49.98950 Y48.73002
G01 X49.97309 Y48.78061
G01 X50.00451 Y48.74721
G01 X50.03723 Y48.73002
G01 X50.00451 Y48.74721
G01 X49.97309 Y48.78061
G01 X49.85392 Y48.99938
G01 X49.74050 Y49.13385
G01 X49.70466 Y49.16621
G01 X49.60324 Y49.24376
G01 X49.55102 Y49.27485
G01 X49.44736 Y49.32496
G01 X49.37815 Y49.34924
G01 X49.27873 Y49.37441
G01 X49.19364 Y49.38615
G01 X49.10373 Y49.39024
G01 X49.02638 Y49.38620
G01 X48.92900 Y49.37187
G01 X48.84193 Y49.34919
G01 X48.76517 Y49.32153
G01 X48.70070 Y49.30456
G01 X48.65450 Y49.30446
G01 X48.63428 Y49.30916
G01 X48.61640 Y49.31958
G01 X48.63428 Y49.30916
G01 X48.65450 Y49.30446
G01 X48.70070 Y49.30456
G01 X48.65549 Y49.28394
G01 X48.62509 Y49.31437
G01 X48.53710 Y49.38150
G01 X48.09413 Y49.82491
G01 X48.04604 Y49.88780
G01 X48.03736 Y49.94820
G01 X48.03594 Y50.30751
G01 X48.05003 Y50.39369
G01 X48.05001 Y51.66407
G01 X48.03528 Y51.77220
G01 X48.03594 Y52.84723
G01 X48.05003 Y52.93369
G01 X48.05001 Y53.54433
G01 X48.04706 Y53.57997
G01 X48.03909 Y53.61202
G01 X48.11899 Y53.53194
G01 X48.16756 Y53.41461
G01 X48.17320 Y53.34647
G01 X48.19735 Y53.19396
G01 X48.31290 Y53.12942
G01 X48.36159 Y53.04515
G01 X48.31925 Y53.06267
G01 X48.20472 Y53.06288
G01 X48.16431 Y53.04680
G01 X48.11704 Y53.01655
G01 X48.17630 Y53.12084
G01 X48.27556 Y53.06483
G01 X48.31925 Y53.06267
G01 X48.36159 Y53.04515
G01 X48.27411 Y53.19785
G01 X48.21813 Y53.36816
G01 X48.20774 Y53.44299
G01 X48.03909 Y53.61202
G01 X47.98557 Y53.68528
G01 X46.93424 Y54.73889
G01 X46.88161 Y54.81065
G01 X46.07422 Y55.61944
G01 X46.12560 Y55.70717
G01 X46.18191 Y55.87813
G01 X46.20439 Y56.06800
G01 X46.18501 Y56.27026
G01 X46.14722 Y56.38873
G01 X46.19009 Y56.34900
G01 X46.20932 Y56.33856
G01 X46.23759 Y56.33038
G01 X46.30287 Y56.26005
G01 X46.37033 Y56.32421
G01 X46.34310 Y56.31618
G01 X46.32131 Y56.31456
G01 X46.23017 Y56.33198
G01 X46.19009 Y56.34900
G01 X46.14722 Y56.38873
G01 X46.18237 Y56.28012
G01 X46.26271 Y56.19365
G01 X46.26342 Y55.91585
G01 X46.25801 Y55.87425
G01 X46.19357 Y55.67636
G01 X46.16799 Y55.63109
G01 X46.15433 Y55.62812
G01 X46.16799 Y55.63109
G01 X46.72646 Y55.07166
G01 X46.80109 Y54.89132
G01 X46.65186 Y55.25202
G01 X46.46792 Y55.41621
G01 X46.38029 Y55.50872
G01 X46.31194 Y55.59251
G01 X46.26065 Y55.64390
G01 X46.24757 Y55.64151
G01 X46.26065 Y55.64390
G01 X46.27216 Y55.67303
G01 X46.26342 Y55.91585
G01 X46.26736 Y55.75035
G01 X46.27452 Y55.65037
G01 X46.28201 Y55.63155
G01 X46.31194 Y55.59251
G01 X46.28201 Y55.63155
G01 X46.27897 Y55.63018
G01 X46.28201 Y55.63155
G01 X46.27587 Y55.64369
G01 X46.27086 Y55.68553
G01 X46.27838 Y55.63734
G01 X46.38029 Y55.50872
G01 X46.51303 Y55.37331
G01 X46.64836 Y55.26048
G01 X46.65186 Y55.25202
G01 X46.62629 Y55.27763
G01 X46.65186 Y55.25202
G01 X46.80109 Y54.89132
G01 X46.88161 Y54.81065
G01 X46.87297 Y54.84438
G01 X46.87002 Y54.88002
G01 X46.87002 Y55.40780
G01 X46.75252 Y55.46081
G01 X46.63159 Y55.54867
G01 X46.53157 Y55.65975
G01 X46.46230 Y55.77847
G01 X46.40876 Y55.94324
G01 X46.39502 Y56.08001
G01 X46.41064 Y56.22868
G01 X46.45192 Y56.35774
G01 X46.49731 Y56.41865
G01 X46.56025 Y56.51578
G01 X46.63363 Y56.59337
G01 X46.67063 Y56.62652
G01 X46.75087 Y56.68105
G01 X46.86883 Y56.75172
G01 X46.89644 Y56.78052
G01 X46.90724 Y56.79871
G01 X46.93637 Y56.90871
G01 X46.93114 Y56.95192
G01 X46.90942 Y57.01951
G01 X46.88849 Y57.05769
G01 X46.81816 Y57.11824
G01 X46.80396 Y57.12502
G01 X46.91585 Y57.12502
G01 X47.00833 Y57.07437
G01 X47.11120 Y56.99731
G01 X47.14688 Y57.02825
G01 X47.17980 Y57.05040
G01 X47.04122 Y57.05040
G01 X47.17980 Y57.05040
G01 X47.26306 Y57.10546
G01 X47.30475 Y57.12502
G01 X47.42362 Y57.12748
G01 X47.40104 Y57.12070
G01 X47.36842 Y57.09482
G01 X47.30927 Y57.02337
G01 X47.29502 Y56.98225
G01 X47.28491 Y56.91197
G01 X47.28697 Y56.86851
G01 X47.32362 Y56.78324
G01 X47.34104 Y56.75614
G01 X47.25313 Y56.77719
G01 X47.15618 Y56.86635
G01 X47.06296 Y56.86635
G01 X46.96835 Y56.77752
G01 X46.90068 Y56.76312
G01 X46.86883 Y56.75172
G01 X46.89644 Y56.78052
G01 X46.90724 Y56.79871
G01 X46.91841 Y56.83320
G01 X47.01041 Y56.91933
G01 X47.00988 Y56.93952
G01 X46.99723 Y56.99012
G01 X46.96637 Y57.01263
G01 X46.89144 Y57.05334
G01 X46.96637 Y57.01263
G01 X47.04506 Y56.95456
G01 X46.98168 Y56.89233
G01 X46.93637 Y56.90871
G01 X46.90724 Y56.79871
G01 X46.89644 Y56.78052
G01 X46.86883 Y56.75172
G01 X46.90068 Y56.76312
G01 X46.96835 Y56.77752
G01 X47.06299 Y56.86635
G01 X47.15618 Y56.86635
G01 X47.11094 Y56.91560
G01 X46.96835 Y56.77752
G01 X47.03528 Y56.79109
G01 X47.17274 Y56.79172
G01 X47.31933 Y56.76312
G01 X47.34104 Y56.75614
G01 X47.45105 Y56.69175
G01 X47.54163 Y56.63244
G01 X47.58630 Y56.59325
G01 X47.65344 Y56.52322
G01 X47.68272 Y56.48311
G01 X47.74630 Y56.37496
G01 X47.81346 Y56.19609
G01 X47.84800 Y56.15266
G01 X47.88501 Y56.12970
G01 X47.97241 Y56.09856
G01 X48.01589 Y56.09924
G01 X48.08539 Y56.11377
G01 X48.12720 Y56.13071
G01 X48.19314 Y56.19419
G01 X48.20533 Y56.21410
G01 X48.19502 Y56.11001
G01 X48.20812 Y55.97948
G01 X48.18399 Y56.01552
G01 X48.16918 Y56.02949
G01 X48.12301 Y56.05616
G01 X48.13441 Y56.05009
G01 X48.13042 Y56.05601
G01 X48.12301 Y56.05616
G01 X48.06931 Y56.08248
G01 X48.04790 Y56.08692
G01 X47.95527 Y56.08149
G01 X47.91336 Y56.06983
G01 X47.83835 Y56.01519
G01 X47.81607 Y55.98862
G01 X47.82501 Y56.08001
G01 X47.81346 Y56.19609
G01 X47.82501 Y56.08001
G01 X47.81607 Y55.98862
G01 X47.74706 Y55.78466
G01 X47.66611 Y55.65180
G01 X47.57132 Y55.55180
G01 X47.38316 Y55.42256
G01 X47.35001 Y55.40780
G01 X47.35001 Y55.37600
G01 X47.34193 Y55.34189
G01 X47.35204 Y55.38454
G01 X47.38316 Y55.42256
G01 X47.35204 Y55.38454
G01 X47.34193 Y55.34189
G01 X47.33639 Y55.28936
G01 X47.33528 Y55.06704
G01 X47.34605 Y54.97781
G01 X47.37609 Y54.93498
G01 X47.40155 Y54.90707
G01 X48.14808 Y54.16348
G01 X48.20548 Y54.12048
G01 X48.22633 Y54.10925
G01 X48.24576 Y54.10504
G01 X48.33845 Y54.10961
G01 X48.38166 Y54.12198
G01 X48.36321 Y54.09775
G01 X48.33162 Y54.04301
G01 X48.30787 Y54.03465
G01 X48.29126 Y54.03818
G01 X48.21308 Y54.11639
G01 X48.29979 Y54.02965
G01 X48.30106 Y54.03521
G01 X48.29982 Y54.02965
G01 X48.31508 Y54.01438
G01 X48.36321 Y54.09775
G01 X48.38166 Y54.12198
G01 X48.51551 Y54.24603
G01 X48.60647 Y54.31657
G01 X48.65072 Y54.34443
G01 X48.76113 Y54.40001
G01 X48.84193 Y54.42919
G01 X48.92900 Y54.45187
G01 X49.00548 Y54.46399
G01 X49.09791 Y54.46993
G01 X49.21455 Y54.46389
G01 X49.27904 Y54.45434
G01 X49.37815 Y54.42924
G01 X49.44736 Y54.40496
G01 X49.55102 Y54.35485
G01 X49.60324 Y54.32376
G01 X49.70466 Y54.24621
G01 X49.74050 Y54.21385
G01 X49.84558 Y54.09127
G01 X49.92892 Y53.94626
G01 X49.97309 Y53.86061
G01 X50.00451 Y53.82721
G01 X50.03725 Y53.81002
G01 X50.00451 Y53.82721
G01 X49.97309 Y53.86061
G01 X49.98950 Y53.81002
G01 X50.03725 Y53.81002
G01 X50.14673 Y53.79528
G01 X54.10819 Y53.79528
G01 X54.20801 Y53.80755
G01 X54.22901 Y53.81329
G01 X54.26325 Y53.84022
G01 X54.29246 Y53.87397
G01 X54.24743 Y53.82513
G01 X54.21720 Y53.81002
G01 X54.27219 Y53.81002
G01 X54.29246 Y53.87397
G01 X54.32299 Y53.93669
G01 X54.36808 Y54.05269
G01 X54.42122 Y54.15480
G01 X54.49526 Y54.26897
G01 X54.54085 Y54.32630
G01 X54.66424 Y54.45469
G01 X54.84987 Y54.59046
G01 X54.93084 Y54.63196
G01 X54.98614 Y54.66742
G01 X55.08456 Y54.71055
G01 X55.33300 Y54.76335
G01 X55.59891 Y54.76147
G01 X55.83546 Y54.71055
G01 X55.93244 Y54.66805
G01 X55.91623 Y54.68474
G01 X55.89637 Y54.72279
G01 X55.87582 Y54.79074
G01 X55.87133 Y54.83404
G01 X55.90272 Y54.94418
G01 X55.91441 Y54.96267
G01 X55.93391 Y54.98261
G01 X55.83546 Y54.93948
G01 X55.57499 Y54.88604
G01 X55.32111 Y54.88855
G01 X55.08456 Y54.93948
G01 X54.98781 Y54.98187
G01 X55.09007 Y54.93800
G01 X55.16368 Y54.86234
G01 X55.75634 Y54.86234
G01 X55.82977 Y54.93795
G01 X55.93391 Y54.98261
G01 X55.91441 Y54.96267
G01 X55.90272 Y54.94418
G01 X55.88426 Y54.88693
G01 X55.82355 Y54.82505
G01 X55.88408 Y54.76346
G01 X55.90450 Y54.70283
G01 X55.93244 Y54.66805
G01 X55.83000 Y54.71202
G01 X55.75637 Y54.78771
G01 X55.16371 Y54.78771
G01 X55.09028 Y54.71207
G01 X54.98614 Y54.66742
G01 X55.00564 Y54.68738
G01 X55.01733 Y54.70587
G01 X55.03582 Y54.76310
G01 X55.09650 Y54.82500
G01 X55.03600 Y54.88657
G01 X55.04855 Y54.83788
G01 X55.04476 Y54.79452
G01 X55.01733 Y54.70587
G01 X55.00564 Y54.68738
G01 X54.98614 Y54.66742
G01 X55.00564 Y54.68738
G01 X55.01733 Y54.70587
G01 X55.04872 Y54.81601
G01 X55.06058 Y54.78868
G01 X55.04872 Y54.81601
G01 X55.04423 Y54.85932
G01 X55.02368 Y54.92726
G01 X55.00382 Y54.96531
G01 X54.98781 Y54.98187
G01 X54.93016 Y55.01852
G01 X54.85876 Y55.05360
G01 X54.68804 Y55.17501
G01 X54.64888 Y55.20994
G01 X54.54085 Y55.32375
G01 X54.48304 Y55.39820
G01 X54.42122 Y55.49526
G01 X54.36808 Y55.59736
G01 X54.31207 Y55.74611
G01 X54.27918 Y55.81692
G01 X54.26803 Y55.87003
G01 X54.20466 Y55.87003
G01 X54.25383 Y55.84382
G01 X54.27928 Y55.81672
G01 X54.25383 Y55.84382
G01 X54.20466 Y55.87003
G01 X54.16757 Y55.87854
G01 X54.10857 Y55.88461
G01 X50.14459 Y55.88476
G01 X50.02623 Y55.86780
G01 X50.00680 Y55.85601
G01 X49.97426 Y55.82302
G01 X50.00680 Y55.85601
G01 X50.02458 Y55.86716
G01 X50.04480 Y55.87250
G01 X49.98953 Y55.87003
G01 X49.97426 Y55.82302
G01 X49.92829 Y55.73414
G01 X49.86717 Y55.62208
G01 X49.83207 Y55.57240
G01 X49.75778 Y55.48449
G01 X49.72029 Y55.44801
G01 X49.62387 Y55.37074
G01 X49.56921 Y55.33577
G01 X49.47043 Y55.28507
G01 X49.37815 Y55.25083
G01 X49.30334 Y55.23079
G01 X49.21455 Y55.21608
G01 X49.12887 Y55.20989
G01 X49.02641 Y55.21385
G01 X48.95364 Y55.22322
G01 X48.84188 Y55.25065
G01 X48.78427 Y55.27021
G01 X48.66895 Y55.32497
G01 X48.62717 Y55.34918
G01 X48.48831 Y55.45713
G01 X48.37289 Y55.59005
G01 X48.28201 Y55.75307
G01 X48.20812 Y55.97948
G01 X48.19336 Y56.09612
G01 X48.19502 Y56.11001
G01 X48.19629 Y56.09177
G01 X48.19565 Y56.12203
G01 X48.20533 Y56.21410
G01 X48.22997 Y56.30803
G01 X48.29392 Y56.51773
G01 X48.29253 Y56.57773
G01 X48.28384 Y56.59680
G01 X48.29253 Y56.57773
G01 X48.29392 Y56.51773
G01 X48.31917 Y56.56145
G01 X48.28384 Y56.59680
G01 X48.21808 Y56.68344
G01 X47.82799 Y57.07351
G01 X47.75727 Y57.12901
G01 X47.69652 Y57.13833
G01 X47.52514 Y57.13978
G01 X47.42362 Y57.12748
G01 X47.40104 Y57.12070
G01 X47.36842 Y57.09482
G01 X47.33576 Y57.05715
G01 X47.30180 Y57.04163
G01 X47.19393 Y56.97026
G01 X47.17592 Y56.95466
G01 X47.23820 Y56.88890
G01 X47.29979 Y56.83544
G01 X47.21079 Y56.91720
G01 X47.22044 Y56.98781
G01 X47.30180 Y57.04163
G01 X47.33576 Y57.05715
G01 X47.38425 Y57.10991
G01 X47.40104 Y57.12070
G01 X47.42362 Y57.12748
