( pcb2gcode 2.4.0 )
( Software-independent Gcode )

( This file uses 3 drill bit sizes. )
( Bit sizes: [0.7mm] [0.8mm] [1.1mm] )

G94       (Millimeters per minute feed rate.)
G21       (Units == Millimeters.)
G91.1     (Incremental arc distance mode.)
G90       (Absolute coordinates.)
G00 S1000     (RPM spindle speed.)

G00 Z0.50000 (Retract)
T1
M5      (Spindle stop.)
G04 P1.00000
(MSG, Change tool bit to drill size 0.7mm)
M6      (Tool change.)
M0      (Temporary machine stop.)
M3      (Spindle on clockwise.)
G0 Z0.50000
G04 P1.00000

G81 R0.50000 Z-3.00000 F200.00000 X14.26000 Y46.63000
X19.43700 Y49.11000
X23.21600 Y47.39000
X25.41000 Y48.63000
X25.31000 Y40.38000
X20.41000 Y40.28000
X17.61400 Y32.47300
X14.41000 Y28.78000
X14.36000 Y25.23000
X14.36000 Y23.73000
X18.90300 Y24.18000
X20.30200 Y24.15600
X20.41000 Y19.73000
X21.91000 Y19.73000
X25.10700 Y21.17000
X25.10700 Y23.32900
X19.26000 Y30.98000
X21.26000 Y30.68000
X25.23400 Y25.86900
X28.53600 Y28.78000
X29.91000 Y25.88000
X31.41000 Y24.33000
X32.86000 Y23.03000
X32.76000 Y19.88000
X39.45800 Y14.05800
X47.06000 Y23.96400
X47.06000 Y25.53000
X42.96000 Y26.73000
X41.01000 Y25.33000
X39.45800 Y45.17300
X39.45800 Y47.20500
X34.55600 Y47.84000
X39.31000 Y54.73000
X43.52200 Y58.63500
X47.11000 Y56.08000
G80

G00 Z0.50000 (Retract)
T2
M5      (Spindle stop.)
G04 P1.00000
(MSG, Change tool bit to drill size 0.8mm)
M6      (Tool change.)
M0      (Temporary machine stop.)
M3      (Spindle on clockwise.)
G0 Z0.50000
G04 P1.00000

G81 R0.50000 Z-3.00000 F200.00000 X12.28000 Y58.62000
X12.28000 Y56.08000
X12.28000 Y53.54000
X12.28000 Y51.00000
X12.28000 Y48.46000
X12.28000 Y45.92000
X12.28000 Y43.38000
X12.28000 Y40.84000
X12.28000 Y38.30000
X17.36000 Y41.49000
X17.36000 Y44.03000
X17.36000 Y46.57000
X17.36000 Y49.11000
X17.36000 Y51.65000
X17.36000 Y54.19000
X17.36000 Y56.73000
X17.36000 Y59.27000
X17.36000 Y61.81000
X17.36000 Y64.35000
X17.36000 Y66.89000
X17.36000 Y69.43000
X32.60000 Y69.43000
X32.60000 Y66.89000
X32.60000 Y64.35000
X32.60000 Y61.81000
X32.60000 Y59.27000
X32.60000 Y56.73000
X32.60000 Y54.19000
X32.60000 Y51.65000
X32.60000 Y49.11000
X32.60000 Y46.57000
X32.60000 Y44.03000
X32.60000 Y41.49000
X37.67000 Y43.38000
X37.67000 Y45.92000
X37.67000 Y48.46000
X37.67000 Y51.00000
X37.67000 Y53.54000
X37.67000 Y56.08000
X37.67000 Y58.62000
X37.67000 Y61.16000
X45.29000 Y61.16000
X49.11000 Y61.19000
X49.11000 Y58.65000
X45.29000 Y58.62000
X45.29000 Y56.08000
X49.11000 Y56.11000
X49.11000 Y53.57000
X45.29000 Y53.54000
X45.29000 Y51.00000
X49.11000 Y51.03000
X49.11000 Y48.49000
X45.29000 Y48.46000
X45.29000 Y45.92000
X45.29000 Y43.38000
X49.11000 Y45.95000
X49.11000 Y43.41000
X49.11000 Y40.87000
X49.11000 Y32.58500
X49.11000 Y30.04500
X49.11000 Y27.50500
X49.11000 Y24.96500
X49.11000 Y22.42500
X49.11000 Y19.88500
X49.11000 Y17.34500
X49.11000 Y14.80500
X49.11000 Y12.26500
X45.29000 Y12.26500
X45.29000 Y14.80500
X45.29000 Y17.34500
X45.29000 Y19.88500
X45.29000 Y22.42500
X45.29000 Y24.96500
X45.29000 Y27.50500
X45.29000 Y30.04500
X37.67000 Y30.04500
X37.67000 Y27.50500
X37.67000 Y24.96500
X37.67000 Y22.42500
X37.67000 Y19.88500
X37.67000 Y17.34500
X37.67000 Y14.80500
X37.67000 Y12.26500
X34.49500 Y12.25000
X34.49500 Y14.79000
X34.49500 Y17.33000
X34.49500 Y19.87000
X34.49500 Y22.41000
X34.49500 Y24.95000
X34.49500 Y27.49000
X34.49500 Y30.03000
X26.87500 Y30.03000
X26.87500 Y27.49000
X26.87500 Y24.95000
X26.87500 Y22.41000
X26.87500 Y19.87000
X26.87500 Y17.33000
X26.87500 Y14.79000
X26.87500 Y12.25000
X23.70000 Y12.26500
X23.70000 Y14.80500
X23.70000 Y17.34500
X23.70000 Y19.88500
X23.70000 Y22.42500
X23.70000 Y24.96500
X23.70000 Y27.50500
X23.70000 Y30.04500
X16.08000 Y30.04500
X16.08000 Y27.50500
X16.08000 Y24.96500
X16.08000 Y22.42500
X16.08000 Y19.88500
X16.08000 Y17.34500
X16.08000 Y14.80500
X16.08000 Y12.26500
X12.28000 Y9.72500
X12.28000 Y12.26500
X12.28000 Y14.80500
X12.28000 Y17.34500
X12.28000 Y19.88500
X12.28000 Y22.42500
X12.28000 Y24.96500
X12.28000 Y27.50500
X12.28000 Y30.04500
G80

G00 Z0.50000 (Retract)
T3
M5      (Spindle stop.)
G04 P1.00000
(MSG, Change tool bit to drill size 1.1mm)
M6      (Tool change.)
M0      (Temporary machine stop.)
M3      (Spindle on clockwise.)
G0 Z0.50000
G04 P1.00000

G81 R0.50000 Z-3.00000 F200.00000 X5.93000 Y58.63500
X5.93000 Y56.09500
X5.93000 Y53.55500
X5.93000 Y51.01500
X5.93000 Y48.47500
X5.93000 Y45.93500
X5.93000 Y43.39500
X5.93000 Y40.85500
X5.93000 Y30.06000
X5.93000 Y27.52000
X5.93000 Y24.98000
X5.93000 Y22.44000
X5.93000 Y19.90000
X5.93000 Y17.36000
X5.93000 Y14.82000
X5.93000 Y12.28000
X55.46000 Y58.63500
X55.46000 Y56.09500
X55.46000 Y53.55500
X55.46000 Y51.01500
X55.46000 Y48.47500
X55.46000 Y45.93500
X55.46000 Y43.39500
X55.46000 Y40.85500
X55.46000 Y38.31500
X55.46000 Y35.77500
X55.46000 Y30.06000
X55.46000 Y27.52000
X55.46000 Y24.98000
X55.46000 Y22.44000
X55.46000 Y19.90000
X55.46000 Y17.36000
X55.46000 Y14.82000
X55.46000 Y12.28000
G80

G00 Z0.500 ( All done -- retract )

M5      (Spindle off.)
G04 P1.000000
M9      (Coolant off.)
M2      (Program end.)

