( pcb2gcode 2.4.0 )
( Software-independent Gcode )

( This file uses 3 drill bit sizes. )
( Bit sizes: [0.4mm] [0.8mm] [1.1mm] )

G94       (Millimeters per minute feed rate.)
G21       (Units == Millimeters.)
G91.1     (Incremental arc distance mode.)
G90       (Absolute coordinates.)
G00 S1000     (RPM spindle speed.)

G00 Z0.50000 (Retract)
T1
M5      (Spindle stop.)
G04 P1.00000
(MSG, Change tool bit to drill size 0.4mm)
M6      (Tool change.)
M0      (Temporary machine stop.)
M3      (Spindle on clockwise.)
G0 Z0.50000
G04 P1.00000

G81 R0.50000 Z-3.00000 F200.00000 X13.54700 Y51.10900
X18.83500 Y48.97200
X20.51800 Y49.41300
X14.85600 Y42.92500
X13.62300 Y29.93800
X13.44000 Y25.86400
X13.34300 Y22.69900
X17.00700 Y24.55600
X17.39300 Y26.31100
X20.67700 Y29.05700
X21.19100 Y25.07600
X24.75700 Y26.68500
X27.68700 Y27.99300
X29.26200 Y25.98100
X29.95400 Y24.68200
X25.13900 Y21.16200
X32.91600 Y18.67300
X42.05400 Y18.26300
X46.70000 Y23.90800
X46.56500 Y25.17700
X43.24800 Y27.20200
X42.69200 Y26.01100
X39.64200 Y25.74000
X23.15600 Y37.13100
X39.28800 Y43.72500
X50.69000 Y49.17800
X46.99900 Y52.31200
X46.09900 Y55.04600
X41.78900 Y56.39200
X39.01200 Y57.21200
G80

G00 Z0.50000 (Retract)
T2
M5      (Spindle stop.)
G04 P1.00000
(MSG, Change tool bit to drill size 0.8mm)
M6      (Tool change.)
M0      (Temporary machine stop.)
M3      (Spindle on clockwise.)
G0 Z0.50000
G04 P1.00000

G81 R0.50000 Z-3.00000 F200.00000 X11.64500 Y58.62000
X11.64500 Y56.08000
X11.64500 Y53.54000
X11.64500 Y51.00000
X11.64500 Y48.46000
X11.64500 Y45.92000
X11.64500 Y43.38000
X11.64500 Y40.84000
X11.64500 Y38.30000
X16.72500 Y41.49000
X16.72500 Y44.03000
X16.72500 Y46.57000
X16.72500 Y49.11000
X16.72500 Y51.65000
X16.72500 Y54.19000
X16.72500 Y56.73000
X16.72500 Y59.27000
X16.72500 Y61.81000
X16.72500 Y64.35000
X16.72500 Y66.89000
X16.72500 Y69.43000
X31.96500 Y69.43000
X31.96500 Y66.89000
X31.96500 Y64.35000
X31.96500 Y61.81000
X31.96500 Y59.27000
X31.96500 Y56.73000
X31.96500 Y54.19000
X31.96500 Y51.65000
X31.96500 Y49.11000
X31.96500 Y46.57000
X31.96500 Y44.03000
X31.96500 Y41.49000
X37.03500 Y43.38000
X37.03500 Y45.92000
X37.03500 Y48.46000
X37.03500 Y51.00000
X37.03500 Y53.54000
X37.03500 Y56.08000
X37.03500 Y58.62000
X37.03500 Y61.16000
X44.65500 Y61.16000
X48.47500 Y61.19000
X48.47500 Y58.65000
X44.65500 Y58.62000
X44.65500 Y56.08000
X48.47500 Y56.11000
X48.47500 Y53.57000
X44.65500 Y53.54000
X44.65500 Y51.00000
X48.47500 Y51.03000
X48.47500 Y48.49000
X44.65500 Y48.46000
X44.65500 Y45.92000
X44.65500 Y43.38000
X48.47500 Y45.95000
X48.47500 Y43.41000
X48.47500 Y40.87000
X48.47500 Y32.58500
X48.47500 Y30.04500
X48.47500 Y27.50500
X48.47500 Y24.96500
X48.47500 Y22.42500
X48.47500 Y19.88500
X48.47500 Y17.34500
X48.47500 Y14.80500
X48.47500 Y12.26500
X44.65500 Y12.26500
X44.65500 Y14.80500
X44.65500 Y17.34500
X44.65500 Y19.88500
X44.65500 Y22.42500
X44.65500 Y24.96500
X44.65500 Y27.50500
X44.65500 Y30.04500
X37.03500 Y30.04500
X37.03500 Y27.50500
X37.03500 Y24.96500
X37.03500 Y22.42500
X37.03500 Y19.88500
X37.03500 Y17.34500
X37.03500 Y14.80500
X37.03500 Y12.26500
X33.86000 Y12.25000
X33.86000 Y14.79000
X33.86000 Y17.33000
X33.86000 Y19.87000
X33.86000 Y22.41000
X33.86000 Y24.95000
X33.86000 Y27.49000
X33.86000 Y30.03000
X26.24000 Y30.03000
X26.24000 Y27.49000
X26.24000 Y24.95000
X26.24000 Y22.41000
X26.24000 Y19.87000
X26.24000 Y17.33000
X26.24000 Y14.79000
X26.24000 Y12.25000
X23.06500 Y12.26500
X23.06500 Y14.80500
X23.06500 Y17.34500
X23.06500 Y19.88500
X23.06500 Y22.42500
X23.06500 Y24.96500
X23.06500 Y27.50500
X23.06500 Y30.04500
X15.44500 Y30.04500
X15.44500 Y27.50500
X15.44500 Y24.96500
X15.44500 Y22.42500
X15.44500 Y19.88500
X15.44500 Y17.34500
X15.44500 Y14.80500
X15.44500 Y12.26500
X11.64500 Y9.72500
X11.64500 Y12.26500
X11.64500 Y14.80500
X11.64500 Y17.34500
X11.64500 Y19.88500
X11.64500 Y22.42500
X11.64500 Y24.96500
X11.64500 Y27.50500
X11.64500 Y30.04500
G80

G00 Z0.50000 (Retract)
T3
M5      (Spindle stop.)
G04 P1.00000
(MSG, Change tool bit to drill size 1.1mm)
M6      (Tool change.)
M0      (Temporary machine stop.)
M3      (Spindle on clockwise.)
G0 Z0.50000
G04 P1.00000

G81 R0.50000 Z-3.00000 F200.00000 X5.29500 Y58.63500
X5.29500 Y56.09500
X5.29500 Y53.55500
X5.29500 Y51.01500
X5.29500 Y48.47500
X5.29500 Y45.93500
X5.29500 Y43.39500
X5.29500 Y40.85500
X5.29500 Y30.06000
X5.29500 Y27.52000
X5.29500 Y24.98000
X5.29500 Y22.44000
X5.29500 Y19.90000
X5.29500 Y17.36000
X5.29500 Y14.82000
X5.29500 Y12.28000
X54.82500 Y58.63500
X54.82500 Y56.09500
X54.82500 Y53.55500
X54.82500 Y51.01500
X54.82500 Y48.47500
X54.82500 Y45.93500
X54.82500 Y43.39500
X54.82500 Y40.85500
X54.82500 Y38.31500
X54.82500 Y35.77500
X54.82500 Y30.06000
X54.82500 Y27.52000
X54.82500 Y24.98000
X54.82500 Y22.44000
X54.82500 Y19.90000
X54.82500 Y17.36000
X54.82500 Y14.82000
X54.82500 Y12.28000
G80

G00 Z0.500 ( All done -- retract )

M5      (Spindle off.)
G04 P1.000000
M9      (Coolant off.)
M2      (Program end.)

