( pcb2gcode 2.4.0 )
( Software-independent Gcode )

G94 ( Millimeters per minute feed rate. )
G21 ( Units == Millimeters. )

G90 ( Absolute coordinates. )
G00 S1000 ( RPM spindle speed. )
G64 P0.01016 ( set maximum deviation from commanded toolpath )
G01 F200.00000 ( Feedrate. )


G00 Z0.50000 (Retract to tool change height)
T0
M5      (Spindle stop.)
G04 P1.00000 (Wait for spindle to stop)
(MSG, Change tool bit to mill diameter 0.40000mm)
M6      (Tool change.)
M0      (Temporary machine stop.)
M3 ( Spindle on clockwise. )
G04 P1.00000 (Wait for spindle to get up to speed)
G04 P0 ( dwell for no time -- G64 should not smooth over this point )
G00 Z0.50000 ( retract )

G00 X56.36002 Y29.16000 ( rapid move to begin. )
G01 F100.00000
( Mill infeed pass 1/1 )
G01 Z-0.25000
G04 P0 ( dwell for no time -- G64 should not smooth over this point )
G01 F200.00000
G01 X56.36002 Y29.16000
G01 X56.36002 Y30.96002
G01 X54.56000 Y30.96000
G01 X54.56000 Y29.16003
G01 X56.36002 Y29.16000
G01 X56.16002 Y29.36000
G01 X56.16002 Y30.76002
G01 X56.21860 Y30.81860
G01 X56.16002 Y30.76002
G01 X54.76000 Y30.76002
G01 X54.70143 Y30.81860
G01 X54.76000 Y30.76002
G01 X54.76000 Y29.36000
G01 X54.70143 Y29.30143
G01 X54.76000 Y29.36000
G01 X56.16002 Y29.36000
G01 X55.96002 Y29.56000
G01 X55.96002 Y30.56002
G01 X56.01860 Y30.61860
G01 X55.96002 Y30.56002
G01 X54.96000 Y30.56002
G01 X54.90143 Y30.61860
G01 X54.96000 Y30.56002
G01 X54.96000 Y29.56000
G01 X54.90143 Y29.50143
G01 X54.96000 Y29.56000
G01 X55.96002 Y29.56000
G01 X55.76002 Y29.76000
G01 X55.76002 Y30.36002
G01 X55.81860 Y30.41860
G01 X55.76002 Y30.36002
G01 X55.16000 Y30.36002
G01 X55.10143 Y30.41860
G01 X55.16000 Y30.36002
G01 X55.16000 Y29.76000
G01 X55.10143 Y29.70143
G01 X55.16000 Y29.76000
G01 X55.76002 Y29.76000
G01 X55.56003 Y29.96000
G01 X55.56003 Y30.16003
G01 X55.61860 Y30.21860
G01 X55.56003 Y30.16003
G01 X55.36000 Y30.16003
G01 X55.30143 Y30.21860
G01 X55.36000 Y30.16003
G01 X55.36000 Y29.96000
G01 X55.30143 Y29.90143
G01 X55.36000 Y29.96000
G01 X55.56003 Y29.96000
G04 P0 ( dwell for no time -- G64 should not smooth over this point )
G00 Z0.50000 ( retract )

G00 X55.95672 Y27.52003 ( rapid move to begin. )
G01 F100.00000
( Mill infeed pass 1/1 )
G01 Z-0.25000
G04 P0 ( dwell for no time -- G64 should not smooth over this point )
G01 F200.00000
G01 X55.95672 Y27.52003
G01 X55.94694 Y27.62353
G01 X55.91479 Y27.72249
G01 X55.86274 Y27.81261
G01 X55.79310 Y27.88995
G01 X55.70892 Y27.95111
G01 X55.61382 Y27.99346
G01 X55.51204 Y28.01510
G01 X55.40798 Y28.01510
G01 X55.30618 Y27.99346
G01 X55.21111 Y27.95111
G01 X55.12693 Y27.88995
G01 X55.05728 Y27.81261
G01 X55.00524 Y27.72249
G01 X54.97308 Y27.62351
G01 X54.96221 Y27.52000
G01 X54.97308 Y27.41652
G01 X55.00524 Y27.31754
G01 X55.05728 Y27.22742
G01 X55.12693 Y27.15007
G01 X55.21111 Y27.08891
G01 X55.30618 Y27.04657
G01 X55.40798 Y27.02493
G01 X55.51204 Y27.02493
G01 X55.61382 Y27.04657
G01 X55.70892 Y27.08891
G01 X55.79310 Y27.15007
G01 X55.86274 Y27.22742
G01 X55.91479 Y27.31754
G01 X55.94694 Y27.41650
G01 X55.95672 Y27.52003
G01 X56.35891 Y27.52003
G01 X56.33927 Y27.33313
G01 X56.28121 Y27.15439
G01 X56.18723 Y26.99165
G01 X56.06152 Y26.85201
G01 X55.90948 Y26.74154
G01 X55.73777 Y26.66511
G01 X55.62195 Y26.64047
G01 X55.55401 Y26.62605
G01 X55.36602 Y26.62605
G01 X55.18225 Y26.66511
G01 X55.01055 Y26.74154
G01 X54.85850 Y26.85201
G01 X54.73280 Y26.99165
G01 X54.63884 Y27.15439
G01 X54.58075 Y27.33311
G01 X54.56112 Y27.52000
G01 X54.58075 Y27.70689
G01 X54.63882 Y27.88563
G01 X54.73280 Y28.04837
G01 X54.85853 Y28.18802
G01 X55.01055 Y28.29848
G01 X55.18225 Y28.37491
G01 X55.36602 Y28.41398
G01 X55.55401 Y28.41398
G01 X55.73777 Y28.37491
G01 X55.90945 Y28.29848
G01 X56.06150 Y28.18802
G01 X56.07714 Y28.17065
G01 X56.18723 Y28.04837
G01 X56.28121 Y27.88563
G01 X56.33927 Y27.70689
G01 X56.35891 Y27.52003
G01 X56.15781 Y27.52000
G01 X56.14364 Y27.37469
G01 X56.09851 Y27.23575
G01 X56.02543 Y27.10921
G01 X55.92766 Y27.00062
G01 X55.80948 Y26.91474
G01 X55.67600 Y26.85531
G01 X55.53305 Y26.82493
G01 X55.38697 Y26.82493
G01 X55.24402 Y26.85531
G01 X55.11057 Y26.91474
G01 X54.99236 Y27.00062
G01 X54.89460 Y27.10921
G01 X54.82152 Y27.23575
G01 X54.77638 Y27.37474
G01 X54.76112 Y27.52000
G01 X54.77638 Y27.66529
G01 X54.82152 Y27.80428
G01 X54.89460 Y27.93082
G01 X54.99236 Y28.03940
G01 X55.11057 Y28.12528
G01 X55.24402 Y28.18472
G01 X55.38697 Y28.21510
G01 X55.53305 Y28.21510
G01 X55.67600 Y28.18472
G01 X55.80948 Y28.12528
G01 X55.92766 Y28.03940
G01 X56.02543 Y27.93082
G01 X56.09851 Y27.80428
G01 X56.14364 Y27.66534
G01 X56.15781 Y27.52000
G01 X55.75561 Y27.52000
G01 X55.74915 Y27.45853
G01 X55.75352 Y27.45762
G01 X55.74915 Y27.45853
G01 X55.73008 Y27.39978
G01 X55.69917 Y27.34626
G01 X55.70277 Y27.34365
G01 X55.69917 Y27.34626
G01 X55.65779 Y27.30032
G01 X55.60917 Y27.26194
G01 X55.55200 Y27.23646
G01 X55.49089 Y27.22602
G01 X55.42914 Y27.22602
G01 X55.42866 Y27.22158
G01 X55.42914 Y27.22602
G01 X55.36866 Y27.23887
G01 X55.31220 Y27.26402
G01 X55.30996 Y27.26016
G01 X55.31220 Y27.26402
G01 X55.26224 Y27.30032
G01 X55.22086 Y27.34626
G01 X55.21725 Y27.34365
G01 X55.22086 Y27.34626
G01 X55.18995 Y27.39978
G01 X55.17087 Y27.45853
G01 X55.16650 Y27.45762
G01 X55.17087 Y27.45853
G01 X55.16442 Y27.52003
G01 X55.17087 Y27.58149
G01 X55.16650 Y27.58241
G01 X55.17087 Y27.58149
G01 X55.18997 Y27.64024
G01 X55.22086 Y27.69376
G01 X55.21725 Y27.69638
G01 X55.22086 Y27.69376
G01 X55.26221 Y27.73968
G01 X55.31222 Y27.77601
G01 X55.30999 Y27.77989
G01 X55.31222 Y27.77601
G01 X55.36866 Y27.80115
G01 X55.42871 Y27.81647
G01 X55.49132 Y27.81647
G01 X55.55136 Y27.80115
G01 X55.60780 Y27.77601
G01 X55.61004 Y27.77989
G01 X55.60780 Y27.77601
G01 X55.65782 Y27.73968
G01 X55.69917 Y27.69376
G01 X55.70277 Y27.69638
G01 X55.69917 Y27.69376
G01 X55.73005 Y27.64024
G01 X55.74915 Y27.58149
G01 X55.75352 Y27.58241
G01 X55.74915 Y27.58149
G01 X55.75561 Y27.52000
G01 X55.56363 Y27.47387
G01 X55.54636 Y27.48160
G01 X55.55451 Y27.52003
G01 X55.54636 Y27.55846
G01 X55.55962 Y27.56354
G01 X55.54636 Y27.55846
G01 X55.52327 Y27.59023
G01 X55.50727 Y27.60186
G01 X55.51375 Y27.61454
G01 X55.50727 Y27.60186
G01 X55.46991 Y27.61401
G01 X55.43082 Y27.60989
G01 X55.42497 Y27.62790
G01 X55.43082 Y27.60989
G01 X55.39675 Y27.59023
G01 X55.37369 Y27.55846
G01 X55.36099 Y27.56493
G01 X55.37369 Y27.55846
G01 X55.36757 Y27.53966
G01 X55.36757 Y27.50037
G01 X55.35383 Y27.49668
G01 X55.36757 Y27.50037
G01 X55.38355 Y27.46448
G01 X55.41276 Y27.43816
G01 X55.40331 Y27.42178
G01 X55.41276 Y27.43816
G01 X55.45014 Y27.42602
G01 X55.48921 Y27.43013
G01 X55.49508 Y27.41213
G01 X55.48921 Y27.43013
G01 X55.52325 Y27.44979
G01 X55.54636 Y27.48160
G04 P0 ( dwell for no time -- G64 should not smooth over this point )
G00 Z0.50000 ( retract )

G00 X55.95672 Y24.98003 ( rapid move to begin. )
G01 F100.00000
( Mill infeed pass 1/1 )
G01 Z-0.25000
G04 P0 ( dwell for no time -- G64 should not smooth over this point )
G01 F200.00000
G01 X55.95672 Y24.98003
G01 X55.94694 Y25.08353
G01 X55.91479 Y25.18249
G01 X55.86274 Y25.27263
G01 X55.79310 Y25.34995
G01 X55.70892 Y25.41111
G01 X55.61385 Y25.45346
G01 X55.51204 Y25.47510
G01 X55.40798 Y25.47510
G01 X55.30618 Y25.45346
G01 X55.21111 Y25.41111
G01 X55.12690 Y25.34995
G01 X55.05728 Y25.27263
G01 X55.00524 Y25.18249
G01 X54.97308 Y25.08351
G01 X54.96221 Y24.98000
G01 X54.97308 Y24.87652
G01 X55.00524 Y24.77754
G01 X55.05728 Y24.68742
G01 X55.12693 Y24.61007
G01 X55.21111 Y24.54891
G01 X55.30618 Y24.50657
G01 X55.40798 Y24.48493
G01 X55.51204 Y24.48493
G01 X55.61382 Y24.50657
G01 X55.70892 Y24.54891
G01 X55.79310 Y24.61007
G01 X55.86274 Y24.68742
G01 X55.91479 Y24.77754
G01 X55.94694 Y24.87650
G01 X55.95672 Y24.98003
G01 X56.35891 Y24.98003
G01 X56.33927 Y24.79313
G01 X56.28121 Y24.61439
G01 X56.18723 Y24.45165
G01 X56.06150 Y24.31201
G01 X55.90948 Y24.20154
G01 X55.73780 Y24.12511
G01 X55.55398 Y24.08605
G01 X55.36605 Y24.08605
G01 X55.18223 Y24.12511
G01 X55.01055 Y24.20154
G01 X54.85853 Y24.31201
G01 X54.73280 Y24.45165
G01 X54.63882 Y24.61439
G01 X54.58075 Y24.79311
G01 X54.56112 Y24.98000
G01 X54.58075 Y25.16689
G01 X54.63882 Y25.34563
G01 X54.73280 Y25.50837
G01 X54.85853 Y25.64802
G01 X55.01055 Y25.75848
G01 X55.18225 Y25.83491
G01 X55.36607 Y25.87398
G01 X55.55395 Y25.87398
G01 X55.73777 Y25.83491
G01 X55.90945 Y25.75848
G01 X56.06150 Y25.64802
G01 X56.18723 Y25.50837
G01 X56.28121 Y25.34563
G01 X56.33927 Y25.16689
G01 X56.35891 Y24.98003
G01 X56.15781 Y24.98000
G01 X56.14364 Y24.83469
G01 X56.09851 Y24.69575
G01 X56.02545 Y24.56921
G01 X55.92766 Y24.46062
G01 X55.80945 Y24.37474
G01 X55.67600 Y24.31531
G01 X55.53308 Y24.28493
G01 X55.38692 Y24.28493
G01 X55.24402 Y24.31531
G01 X55.11057 Y24.37474
G01 X54.99236 Y24.46062
G01 X54.89460 Y24.56921
G01 X54.82152 Y24.69575
G01 X54.77638 Y24.83474
G01 X54.76112 Y24.98000
G01 X54.77638 Y25.12529
G01 X54.82155 Y25.26428
G01 X54.89460 Y25.39082
G01 X54.99236 Y25.49940
G01 X55.11057 Y25.58528
G01 X55.24405 Y25.64472
G01 X55.38695 Y25.67510
G01 X55.53308 Y25.67510
G01 X55.67598 Y25.64472
G01 X55.80948 Y25.58528
G01 X55.92766 Y25.49940
G01 X56.02543 Y25.39082
G01 X56.09848 Y25.26428
G01 X56.14364 Y25.12534
G01 X56.15781 Y24.98000
G01 X55.75561 Y24.98000
G01 X55.74915 Y24.91853
G01 X55.75352 Y24.91762
G01 X55.74915 Y24.91853
G01 X55.73005 Y24.85978
G01 X55.69917 Y24.80626
G01 X55.70277 Y24.80365
G01 X55.69917 Y24.80626
G01 X55.65782 Y24.76034
G01 X55.60780 Y24.72402
G01 X55.61004 Y24.72013
G01 X55.60780 Y24.72402
G01 X55.55136 Y24.69887
G01 X55.49132 Y24.68356
G01 X55.42871 Y24.68356
G01 X55.36866 Y24.69887
G01 X55.31222 Y24.72402
G01 X55.30999 Y24.72013
G01 X55.31222 Y24.72402
G01 X55.26221 Y24.76034
G01 X55.22086 Y24.80626
G01 X55.21725 Y24.80365
G01 X55.22086 Y24.80626
G01 X55.18997 Y24.85978
G01 X55.17087 Y24.91853
G01 X55.16650 Y24.91762
G01 X55.17087 Y24.91853
G01 X55.16442 Y24.98003
G01 X55.17087 Y25.04149
G01 X55.16650 Y25.04241
G01 X55.17087 Y25.04149
G01 X55.18995 Y25.10024
G01 X55.22086 Y25.15376
G01 X55.21725 Y25.15638
G01 X55.22086 Y25.15376
G01 X55.26224 Y25.19971
G01 X55.31085 Y25.23809
G01 X55.36803 Y25.26357
G01 X55.42914 Y25.27401
G01 X55.49089 Y25.27401
G01 X55.49137 Y25.27845
G01 X55.49089 Y25.27401
G01 X55.55136 Y25.26115
G01 X55.60783 Y25.23601
G01 X55.61006 Y25.23987
G01 X55.60783 Y25.23601
G01 X55.65779 Y25.19971
G01 X55.69917 Y25.15376
G01 X55.70277 Y25.15638
G01 X55.69917 Y25.15376
G01 X55.73008 Y25.10024
G01 X55.74915 Y25.04149
G01 X55.75352 Y25.04241
G01 X55.74915 Y25.04149
G01 X55.75561 Y24.98000
G01 X55.56363 Y24.93387
G01 X55.54636 Y24.94157
G01 X55.55451 Y24.98003
G01 X55.54636 Y25.01843
G01 X55.55964 Y25.02354
G01 X55.54636 Y25.01843
G01 X55.53645 Y25.03558
G01 X55.50727 Y25.06186
G01 X55.51372 Y25.07454
G01 X55.50727 Y25.06186
G01 X55.46988 Y25.07401
G01 X55.43082 Y25.06989
G01 X55.42495 Y25.08790
G01 X55.43082 Y25.06989
G01 X55.39678 Y25.05023
G01 X55.37369 Y25.01846
G01 X55.36099 Y25.02491
G01 X55.37369 Y25.01846
G01 X55.36757 Y24.99966
G01 X55.36757 Y24.96037
G01 X55.35383 Y24.95668
G01 X55.36757 Y24.96037
G01 X55.38355 Y24.92448
G01 X55.41276 Y24.89816
G01 X55.40331 Y24.88178
G01 X55.41276 Y24.89816
G01 X55.45012 Y24.88602
G01 X55.48921 Y24.89013
G01 X55.49505 Y24.87213
G01 X55.48921 Y24.89013
G01 X55.52327 Y24.90979
G01 X55.54636 Y24.94157
G04 P0 ( dwell for no time -- G64 should not smooth over this point )
G00 Z0.50000 ( retract )

G00 X55.95672 Y22.44003 ( rapid move to begin. )
G01 F100.00000
( Mill infeed pass 1/1 )
G01 Z-0.25000
G04 P0 ( dwell for no time -- G64 should not smooth over this point )
G01 F200.00000
G01 X55.95672 Y22.44003
G01 X55.94694 Y22.54353
G01 X55.91479 Y22.64249
G01 X55.86274 Y22.73263
G01 X55.79310 Y22.80995
G01 X55.70892 Y22.87111
G01 X55.61385 Y22.91346
G01 X55.51207 Y22.93510
G01 X55.40796 Y22.93510
G01 X55.30618 Y22.91346
G01 X55.21111 Y22.87111
G01 X55.12690 Y22.80995
G01 X55.05728 Y22.73263
G01 X55.00524 Y22.64249
G01 X54.97308 Y22.54351
G01 X54.96221 Y22.44000
G01 X54.97308 Y22.33652
G01 X55.00524 Y22.23754
G01 X55.05728 Y22.14742
G01 X55.12690 Y22.07007
G01 X55.21111 Y22.00891
G01 X55.30618 Y21.96657
G01 X55.40796 Y21.94493
G01 X55.51207 Y21.94493
G01 X55.61385 Y21.96657
G01 X55.70892 Y22.00891
G01 X55.79310 Y22.07007
G01 X55.86274 Y22.14742
G01 X55.91479 Y22.23754
G01 X55.94694 Y22.33650
G01 X55.95672 Y22.44003
G01 X56.35891 Y22.44000
G01 X56.33927 Y22.25313
G01 X56.28121 Y22.07439
G01 X56.18723 Y21.91165
G01 X56.06150 Y21.77201
G01 X55.90948 Y21.66154
G01 X55.73777 Y21.58511
G01 X55.55395 Y21.54605
G01 X55.36607 Y21.54605
G01 X55.18225 Y21.58511
G01 X55.01055 Y21.66154
G01 X54.85853 Y21.77201
G01 X54.73280 Y21.91165
G01 X54.63882 Y22.07439
G01 X54.58075 Y22.25313
G01 X54.56112 Y22.44000
G01 X54.58075 Y22.62689
G01 X54.63882 Y22.80563
G01 X54.73280 Y22.96837
G01 X54.85853 Y23.10805
G01 X55.01057 Y23.21848
G01 X55.18223 Y23.29491
G01 X55.36607 Y23.33398
G01 X55.55395 Y23.33398
G01 X55.73780 Y23.29491
G01 X55.90945 Y23.21848
G01 X56.06150 Y23.10805
G01 X56.18723 Y22.96837
G01 X56.28121 Y22.80563
G01 X56.33927 Y22.62689
G01 X56.35891 Y22.44000
G01 X56.15781 Y22.44003
G01 X56.14364 Y22.29471
G01 X56.09851 Y22.15575
G01 X56.02545 Y22.02921
G01 X55.92766 Y21.92062
G01 X55.80948 Y21.83474
G01 X55.67598 Y21.77531
G01 X55.53308 Y21.74493
G01 X55.38695 Y21.74493
G01 X55.24405 Y21.77531
G01 X55.11057 Y21.83474
G01 X54.99236 Y21.92062
G01 X54.89460 Y22.02921
G01 X54.82152 Y22.15575
G01 X54.77638 Y22.29474
G01 X54.76112 Y22.44003
G01 X54.77638 Y22.58529
G01 X54.82152 Y22.72428
G01 X54.89460 Y22.85082
G01 X54.99236 Y22.95940
G01 X55.11057 Y23.04528
G01 X55.24405 Y23.10472
G01 X55.38695 Y23.13510
G01 X55.53308 Y23.13510
G01 X55.67598 Y23.10472
G01 X55.80948 Y23.04528
G01 X55.92766 Y22.95940
G01 X56.02545 Y22.85082
G01 X56.09851 Y22.72428
G01 X56.14364 Y22.58534
G01 X56.15781 Y22.44003
G01 X55.75561 Y22.44000
G01 X55.74915 Y22.37853
G01 X55.75352 Y22.37762
G01 X55.74915 Y22.37853
G01 X55.73008 Y22.31978
G01 X55.69917 Y22.26626
G01 X55.70277 Y22.26365
G01 X55.69917 Y22.26626
G01 X55.65779 Y22.22032
G01 X55.60783 Y22.18402
G01 X55.61006 Y22.18016
G01 X55.60783 Y22.18402
G01 X55.55136 Y22.15887
G01 X55.49089 Y22.14602
G01 X55.49137 Y22.14158
G01 X55.49089 Y22.14602
G01 X55.42914 Y22.14602
G01 X55.36866 Y22.15887
G01 X55.36729 Y22.15463
G01 X55.36866 Y22.15887
G01 X55.31220 Y22.18402
G01 X55.26066 Y22.21839
G01 X55.21878 Y22.26492
G01 X55.18995 Y22.31978
G01 X55.17087 Y22.37853
G01 X55.16650 Y22.37762
G01 X55.17087 Y22.37853
G01 X55.16442 Y22.44003
G01 X55.17087 Y22.50149
G01 X55.16650 Y22.50241
G01 X55.17087 Y22.50149
G01 X55.18997 Y22.56024
G01 X55.22086 Y22.61376
G01 X55.21725 Y22.61638
G01 X55.22086 Y22.61376
G01 X55.26221 Y22.65968
G01 X55.31222 Y22.69601
G01 X55.30999 Y22.69989
G01 X55.31222 Y22.69601
G01 X55.36866 Y22.72115
G01 X55.42911 Y22.73401
G01 X55.42863 Y22.73845
G01 X55.42911 Y22.73401
G01 X55.49091 Y22.73401
G01 X55.55136 Y22.72115
G01 X55.55274 Y22.72539
G01 X55.55136 Y22.72115
G01 X55.60780 Y22.69601
G01 X55.65939 Y22.66162
G01 X55.70125 Y22.61511
G01 X55.73005 Y22.56024
G01 X55.74915 Y22.50149
G01 X55.75352 Y22.50241
G01 X55.74915 Y22.50149
G01 X55.75561 Y22.44000
G01 X55.55451 Y22.44003
G01 X55.54636 Y22.47846
G01 X55.53645 Y22.49558
G01 X55.54753 Y22.50454
G01 X55.53645 Y22.49558
G01 X55.50727 Y22.52186
G01 X55.46988 Y22.53401
G01 X55.47184 Y22.55283
G01 X55.46988 Y22.53401
G01 X55.43079 Y22.52989
G01 X55.39678 Y22.51023
G01 X55.38410 Y22.52430
G01 X55.39678 Y22.51023
G01 X55.37369 Y22.47846
G01 X55.36551 Y22.44000
G01 X55.34659 Y22.44000
G01 X55.36551 Y22.44000
G01 X55.37369 Y22.40157
G01 X55.39678 Y22.36979
G01 X55.38672 Y22.35971
G01 X55.39678 Y22.36979
G01 X55.41276 Y22.35816
G01 X55.45014 Y22.34602
G01 X55.44938 Y22.33182
G01 X55.45014 Y22.34602
G01 X55.48921 Y22.35013
G01 X55.52325 Y22.36979
G01 X55.53592 Y22.35572
G01 X55.52325 Y22.36979
G01 X55.54636 Y22.40160
G01 X55.55451 Y22.44003
G04 P0 ( dwell for no time -- G64 should not smooth over this point )
G00 Z0.50000 ( retract )

G00 X55.55246 Y19.91966 ( rapid move to begin. )
G01 F100.00000
( Mill infeed pass 1/1 )
G01 Z-0.25000
G04 P0 ( dwell for no time -- G64 should not smooth over this point )
G01 F200.00000
G01 X55.55246 Y19.91966
G01 X55.53648 Y19.95555
G01 X55.50727 Y19.98186
G01 X55.51674 Y19.99825
G01 X55.50727 Y19.98186
G01 X55.46988 Y19.99401
G01 X55.43082 Y19.98989
G01 X55.42495 Y20.00790
G01 X55.43082 Y19.98989
G01 X55.39678 Y19.97026
G01 X55.37369 Y19.93846
G01 X55.36099 Y19.94493
G01 X55.37369 Y19.93846
G01 X55.36757 Y19.91966
G01 X55.36757 Y19.88037
G01 X55.35383 Y19.87668
G01 X55.36757 Y19.88037
G01 X55.38355 Y19.84448
G01 X55.41276 Y19.81816
G01 X55.40331 Y19.80178
G01 X55.41276 Y19.81816
G01 X55.45012 Y19.80602
G01 X55.48921 Y19.81013
G01 X55.49505 Y19.79213
G01 X55.48921 Y19.81013
G01 X55.52327 Y19.82979
G01 X55.54636 Y19.86157
G01 X55.55903 Y19.85512
G01 X55.54636 Y19.86157
G01 X55.55246 Y19.88037
G01 X55.55246 Y19.91966
G01 X55.56620 Y19.92334
G01 X55.75561 Y19.90000
G01 X55.74915 Y19.96149
G01 X55.75352 Y19.96241
G01 X55.74915 Y19.96149
G01 X55.73008 Y20.02024
G01 X55.69917 Y20.07376
G01 X55.70277 Y20.07638
G01 X55.69917 Y20.07376
G01 X55.65779 Y20.11971
G01 X55.60783 Y20.15601
G01 X55.61006 Y20.15987
G01 X55.60783 Y20.15601
G01 X55.55136 Y20.18115
G01 X55.49089 Y20.19401
G01 X55.49137 Y20.19845
G01 X55.49089 Y20.19401
G01 X55.42914 Y20.19401
G01 X55.36803 Y20.18357
G01 X55.31085 Y20.15809
G01 X55.26224 Y20.11971
G01 X55.22086 Y20.07376
G01 X55.21725 Y20.07638
G01 X55.22086 Y20.07376
G01 X55.18995 Y20.02024
G01 X55.17087 Y19.96149
G01 X55.16650 Y19.96241
G01 X55.17087 Y19.96149
G01 X55.16442 Y19.90003
G01 X55.17087 Y19.83853
G01 X55.16650 Y19.83762
G01 X55.17087 Y19.83853
G01 X55.18997 Y19.77978
G01 X55.22086 Y19.72626
G01 X55.21725 Y19.72365
G01 X55.22086 Y19.72626
G01 X55.26221 Y19.68034
G01 X55.31222 Y19.64402
G01 X55.30999 Y19.64013
G01 X55.31222 Y19.64402
G01 X55.36866 Y19.61887
G01 X55.42871 Y19.60356
G01 X55.49132 Y19.60356
G01 X55.55136 Y19.61887
G01 X55.60780 Y19.64402
G01 X55.61004 Y19.64013
G01 X55.60780 Y19.64402
G01 X55.65782 Y19.68034
G01 X55.69917 Y19.72626
G01 X55.70277 Y19.72365
G01 X55.69917 Y19.72626
G01 X55.73005 Y19.77978
G01 X55.74915 Y19.83853
G01 X55.75352 Y19.83762
G01 X55.74915 Y19.83853
G01 X55.75561 Y19.90000
G01 X56.15781 Y19.90000
G01 X56.14364 Y20.04531
G01 X56.09851 Y20.18428
G01 X56.02545 Y20.31082
G01 X55.92766 Y20.41940
G01 X55.80945 Y20.50528
G01 X55.67600 Y20.56472
G01 X55.53308 Y20.59510
G01 X55.38695 Y20.59510
G01 X55.24402 Y20.56472
G01 X55.11057 Y20.50528
G01 X54.99236 Y20.41940
G01 X54.89460 Y20.31082
G01 X54.82152 Y20.18428
G01 X54.77638 Y20.04529
G01 X54.76112 Y19.90000
G01 X54.77638 Y19.75474
G01 X54.82152 Y19.61575
G01 X54.89460 Y19.48921
G01 X54.99236 Y19.38062
G01 X55.11057 Y19.29474
G01 X55.24405 Y19.23531
G01 X55.38695 Y19.20493
G01 X55.53308 Y19.20493
G01 X55.67598 Y19.23531
G01 X55.80948 Y19.29474
G01 X55.92766 Y19.38062
G01 X56.02545 Y19.48921
G01 X56.09851 Y19.61575
G01 X56.14364 Y19.75469
G01 X56.15781 Y19.90000
G01 X56.35891 Y19.90003
G01 X56.33927 Y19.71313
G01 X56.28118 Y19.53439
G01 X56.18723 Y19.37165
G01 X56.06150 Y19.23201
G01 X55.90948 Y19.12154
G01 X55.73777 Y19.04511
G01 X55.64588 Y19.02558
G01 X55.55395 Y19.00605
G01 X55.36607 Y19.00605
G01 X55.18225 Y19.04511
G01 X55.01055 Y19.12154
G01 X54.85853 Y19.23201
G01 X54.73280 Y19.37165
G01 X54.63884 Y19.53439
G01 X54.58075 Y19.71313
G01 X54.56112 Y19.90003
G01 X54.58075 Y20.08689
G01 X54.63882 Y20.26563
G01 X54.73280 Y20.42837
G01 X54.85853 Y20.56802
G01 X55.01057 Y20.67848
G01 X55.18223 Y20.75491
G01 X55.36607 Y20.79398
G01 X55.55395 Y20.79398
G01 X55.73780 Y20.75491
G01 X55.90945 Y20.67848
G01 X56.06150 Y20.56802
G01 X56.18723 Y20.42837
G01 X56.28121 Y20.26563
G01 X56.33927 Y20.08689
G01 X56.35891 Y19.90003
G01 X55.95672 Y19.90003
G01 X55.94694 Y19.79650
G01 X55.91479 Y19.69754
G01 X55.86274 Y19.60739
G01 X55.79310 Y19.53007
G01 X55.70892 Y19.46891
G01 X55.61385 Y19.42657
G01 X55.51207 Y19.40493
G01 X55.40796 Y19.40493
G01 X55.30618 Y19.42657
G01 X55.21111 Y19.46891
G01 X55.12690 Y19.53007
G01 X55.05728 Y19.60739
G01 X55.00524 Y19.69754
G01 X54.97308 Y19.79652
G01 X54.96221 Y19.90000
G01 X54.97308 Y20.00351
G01 X55.00526 Y20.10251
G01 X55.05728 Y20.19261
G01 X55.12690 Y20.26995
G01 X55.21111 Y20.33111
G01 X55.30618 Y20.37346
G01 X55.40796 Y20.39510
G01 X55.51207 Y20.39510
G01 X55.61385 Y20.37346
G01 X55.70892 Y20.33111
G01 X55.79310 Y20.26995
G01 X55.86274 Y20.19261
G01 X55.91476 Y20.10251
G01 X55.94694 Y20.00353
G01 X55.95672 Y19.90003
G04 P0 ( dwell for no time -- G64 should not smooth over this point )
G00 Z0.50000 ( retract )

G00 X55.95672 Y17.36003 ( rapid move to begin. )
G01 F100.00000
( Mill infeed pass 1/1 )
G01 Z-0.25000
G04 P0 ( dwell for no time -- G64 should not smooth over this point )
G01 F200.00000
G01 X55.95672 Y17.36003
G01 X55.94694 Y17.46353
G01 X55.91479 Y17.56249
G01 X55.86274 Y17.65261
G01 X55.79310 Y17.72995
G01 X55.70892 Y17.79111
G01 X55.61382 Y17.83346
G01 X55.51204 Y17.85510
G01 X55.40798 Y17.85510
G01 X55.30618 Y17.83346
G01 X55.21111 Y17.79111
G01 X55.12693 Y17.72995
G01 X55.05728 Y17.65261
G01 X55.00524 Y17.56249
G01 X54.97308 Y17.46351
G01 X54.96221 Y17.36000
G01 X54.97308 Y17.25652
G01 X55.00524 Y17.15754
G01 X55.05728 Y17.06742
G01 X55.12693 Y16.99005
G01 X55.21111 Y16.92891
G01 X55.30618 Y16.88657
G01 X55.40798 Y16.86493
G01 X55.51204 Y16.86493
G01 X55.61382 Y16.88657
G01 X55.70892 Y16.92891
G01 X55.79310 Y16.99005
G01 X55.86274 Y17.06742
G01 X55.91479 Y17.15754
G01 X55.94694 Y17.25650
G01 X55.95672 Y17.36003
G01 X56.35891 Y17.36000
G01 X56.33927 Y17.17313
G01 X56.28121 Y16.99439
G01 X56.18723 Y16.83165
G01 X56.06152 Y16.69201
G01 X55.90948 Y16.58154
G01 X55.73780 Y16.50511
G01 X55.55395 Y16.46605
G01 X55.36607 Y16.46605
G01 X55.18223 Y16.50511
G01 X55.01057 Y16.58154
G01 X54.85850 Y16.69201
G01 X54.73280 Y16.83165
G01 X54.63882 Y16.99439
G01 X54.58075 Y17.17313
G01 X54.56112 Y17.36003
G01 X54.58075 Y17.54689
G01 X54.63882 Y17.72563
G01 X54.73280 Y17.88837
G01 X54.85850 Y18.02802
G01 X55.01055 Y18.13848
G01 X55.18223 Y18.21491
G01 X55.36607 Y18.25398
G01 X55.55395 Y18.25398
G01 X55.73780 Y18.21491
G01 X55.90948 Y18.13848
G01 X56.06152 Y18.02802
G01 X56.18723 Y17.88837
G01 X56.28121 Y17.72563
G01 X56.33927 Y17.54689
G01 X56.35891 Y17.36000
G01 X56.15781 Y17.36000
G01 X56.14364 Y17.21469
G01 X56.09848 Y17.07575
G01 X56.02543 Y16.94921
G01 X55.92766 Y16.84062
G01 X55.80948 Y16.75474
G01 X55.67600 Y16.69531
G01 X55.53305 Y16.66493
G01 X55.38697 Y16.66493
G01 X55.24402 Y16.69531
G01 X55.11057 Y16.75474
G01 X54.99236 Y16.84062
G01 X54.89460 Y16.94921
G01 X54.82155 Y17.07575
G01 X54.77638 Y17.21474
G01 X54.76112 Y17.36000
G01 X54.77638 Y17.50529
G01 X54.82152 Y17.64428
G01 X54.89460 Y17.77082
G01 X54.99236 Y17.87940
G01 X55.11057 Y17.96528
G01 X55.24402 Y18.02472
G01 X55.38692 Y18.05510
G01 X55.53308 Y18.05510
G01 X55.67600 Y18.02472
G01 X55.80948 Y17.96528
G01 X55.92766 Y17.87940
G01 X56.02545 Y17.77082
G01 X56.09851 Y17.64428
G01 X56.14364 Y17.50534
G01 X56.15781 Y17.36000
G01 X55.75561 Y17.36000
G01 X55.74915 Y17.29853
G01 X55.75352 Y17.29762
G01 X55.74915 Y17.29853
G01 X55.73008 Y17.23978
G01 X55.69917 Y17.18626
G01 X55.70277 Y17.18365
G01 X55.69917 Y17.18626
G01 X55.65779 Y17.14032
G01 X55.60917 Y17.10194
G01 X55.55200 Y17.07646
G01 X55.49089 Y17.06602
G01 X55.42914 Y17.06602
G01 X55.42866 Y17.06158
G01 X55.42914 Y17.06602
G01 X55.36866 Y17.07887
G01 X55.31220 Y17.10402
G01 X55.30996 Y17.10016
G01 X55.31220 Y17.10402
G01 X55.26224 Y17.14032
G01 X55.22086 Y17.18626
G01 X55.21725 Y17.18365
G01 X55.22086 Y17.18626
G01 X55.18995 Y17.23978
G01 X55.17087 Y17.29853
G01 X55.16650 Y17.29762
G01 X55.17087 Y17.29853
G01 X55.16442 Y17.36003
G01 X55.17087 Y17.42149
G01 X55.16650 Y17.42241
G01 X55.17087 Y17.42149
G01 X55.18997 Y17.48024
G01 X55.22086 Y17.53376
G01 X55.21725 Y17.53638
G01 X55.22086 Y17.53376
G01 X55.26221 Y17.57968
G01 X55.31222 Y17.61601
G01 X55.30999 Y17.61989
G01 X55.31222 Y17.61601
G01 X55.36866 Y17.64115
G01 X55.42871 Y17.65647
G01 X55.49132 Y17.65647
G01 X55.55136 Y17.64115
G01 X55.60780 Y17.61601
G01 X55.61004 Y17.61989
G01 X55.60780 Y17.61601
G01 X55.65782 Y17.57968
G01 X55.69917 Y17.53376
G01 X55.70277 Y17.53638
G01 X55.69917 Y17.53376
G01 X55.73005 Y17.48024
G01 X55.74915 Y17.42149
G01 X55.75352 Y17.42241
G01 X55.74915 Y17.42149
G01 X55.75561 Y17.36000
G01 X55.56620 Y17.33668
G01 X55.55246 Y17.34037
G01 X55.55246 Y17.37966
G01 X55.54636 Y17.39843
G01 X55.55903 Y17.40491
G01 X55.54636 Y17.39843
G01 X55.52325 Y17.43023
G01 X55.48921 Y17.44989
G01 X55.49508 Y17.46790
G01 X55.48921 Y17.44989
G01 X55.45014 Y17.45401
G01 X55.41276 Y17.44186
G01 X55.40331 Y17.45825
G01 X55.41276 Y17.44186
G01 X55.38355 Y17.41555
G01 X55.36757 Y17.37966
G01 X55.35383 Y17.38334
G01 X55.36757 Y17.37966
G01 X55.36757 Y17.34037
G01 X55.37369 Y17.32157
G01 X55.36099 Y17.31509
G01 X55.37369 Y17.32157
G01 X55.39678 Y17.28979
G01 X55.43082 Y17.27013
G01 X55.42495 Y17.25213
G01 X55.43082 Y17.27013
G01 X55.46988 Y17.26602
G01 X55.50727 Y17.27816
G01 X55.51672 Y17.26178
G01 X55.50727 Y17.27816
G01 X55.53645 Y17.30445
G01 X55.55246 Y17.34037
G04 P0 ( dwell for no time -- G64 should not smooth over this point )
G00 Z0.50000 ( retract )

G00 X55.95672 Y14.82003 ( rapid move to begin. )
G01 F100.00000
( Mill infeed pass 1/1 )
G01 Z-0.25000
G04 P0 ( dwell for no time -- G64 should not smooth over this point )
G01 F200.00000
G01 X55.95672 Y14.82003
G01 X55.94694 Y14.92353
G01 X55.91479 Y15.02249
G01 X55.86274 Y15.11261
G01 X55.79310 Y15.18995
G01 X55.70892 Y15.25111
G01 X55.61382 Y15.29346
G01 X55.51204 Y15.31510
G01 X55.40798 Y15.31510
G01 X55.30618 Y15.29346
G01 X55.21111 Y15.25111
G01 X55.12693 Y15.18995
G01 X55.05728 Y15.11261
G01 X55.00524 Y15.02249
G01 X54.97308 Y14.92351
G01 X54.96221 Y14.82000
G01 X54.97308 Y14.71652
G01 X55.00524 Y14.61754
G01 X55.05728 Y14.52742
G01 X55.12693 Y14.45007
G01 X55.21111 Y14.38891
G01 X55.30618 Y14.34657
G01 X55.40798 Y14.32493
G01 X55.51204 Y14.32493
G01 X55.61382 Y14.34657
G01 X55.70892 Y14.38891
G01 X55.79310 Y14.45007
G01 X55.86274 Y14.52742
G01 X55.91479 Y14.61754
G01 X55.94694 Y14.71650
G01 X55.95672 Y14.82003
G01 X56.35891 Y14.82000
G01 X56.33927 Y14.63313
G01 X56.28121 Y14.45439
G01 X56.18723 Y14.29165
G01 X56.06150 Y14.15201
G01 X55.90945 Y14.04154
G01 X55.73780 Y13.96511
G01 X55.55395 Y13.92605
G01 X55.36607 Y13.92605
G01 X55.18223 Y13.96511
G01 X55.01057 Y14.04154
G01 X54.85853 Y14.15201
G01 X54.73280 Y14.29165
G01 X54.63882 Y14.45439
G01 X54.58075 Y14.63313
G01 X54.56112 Y14.82000
G01 X54.58075 Y15.00689
G01 X54.63884 Y15.18563
G01 X54.73280 Y15.34837
G01 X54.85850 Y15.48802
G01 X55.01055 Y15.59848
G01 X55.18225 Y15.67491
G01 X55.36607 Y15.71398
G01 X55.55395 Y15.71398
G01 X55.73777 Y15.67491
G01 X55.90948 Y15.59848
G01 X56.06152 Y15.48802
G01 X56.18723 Y15.34837
G01 X56.22162 Y15.28881
G01 X56.28118 Y15.18563
G01 X56.33927 Y15.00689
G01 X56.35891 Y14.82000
G01 X56.15781 Y14.82000
G01 X56.14364 Y14.67469
G01 X56.09851 Y14.53575
G01 X56.02543 Y14.40921
G01 X55.92766 Y14.30062
G01 X55.80948 Y14.21474
G01 X55.67600 Y14.15531
G01 X55.53305 Y14.12493
G01 X55.38697 Y14.12493
G01 X55.24402 Y14.15531
G01 X55.11057 Y14.21474
G01 X54.99236 Y14.30062
G01 X54.89460 Y14.40921
G01 X54.82152 Y14.53575
G01 X54.77638 Y14.67474
G01 X54.76112 Y14.82000
G01 X54.77638 Y14.96529
G01 X54.82152 Y15.10428
G01 X54.89460 Y15.23082
G01 X54.99236 Y15.33940
G01 X55.11057 Y15.42528
G01 X55.24402 Y15.48472
G01 X55.38697 Y15.51510
G01 X55.53305 Y15.51510
G01 X55.67600 Y15.48472
G01 X55.80948 Y15.42528
G01 X55.92766 Y15.33940
G01 X56.02543 Y15.23082
G01 X56.09851 Y15.10428
G01 X56.14364 Y14.96534
G01 X56.15781 Y14.82000
G01 X55.75561 Y14.82000
G01 X55.74915 Y14.75853
G01 X55.75352 Y14.75762
G01 X55.74915 Y14.75853
G01 X55.73005 Y14.69978
G01 X55.69917 Y14.64626
G01 X55.70277 Y14.64365
G01 X55.69917 Y14.64626
G01 X55.65782 Y14.60034
G01 X55.60780 Y14.56402
G01 X55.61004 Y14.56013
G01 X55.60780 Y14.56402
G01 X55.55136 Y14.53887
G01 X55.49132 Y14.52356
G01 X55.42871 Y14.52356
G01 X55.36866 Y14.53887
G01 X55.31222 Y14.56402
G01 X55.30999 Y14.56013
G01 X55.31222 Y14.56402
G01 X55.26221 Y14.60034
G01 X55.22086 Y14.64626
G01 X55.21725 Y14.64365
G01 X55.22086 Y14.64626
G01 X55.18997 Y14.69978
G01 X55.17087 Y14.75853
G01 X55.16650 Y14.75762
G01 X55.17087 Y14.75853
G01 X55.16442 Y14.82003
G01 X55.17087 Y14.88149
G01 X55.16650 Y14.88241
G01 X55.17087 Y14.88149
G01 X55.18995 Y14.94024
G01 X55.22086 Y14.99376
G01 X55.21725 Y14.99638
G01 X55.22086 Y14.99376
G01 X55.26224 Y15.03971
G01 X55.31085 Y15.07809
G01 X55.36803 Y15.10357
G01 X55.42914 Y15.11401
G01 X55.49089 Y15.11401
G01 X55.49137 Y15.11845
G01 X55.49089 Y15.11401
G01 X55.55136 Y15.10115
G01 X55.60783 Y15.07601
G01 X55.61006 Y15.07987
G01 X55.60783 Y15.07601
G01 X55.65779 Y15.03971
G01 X55.69917 Y14.99376
G01 X55.70277 Y14.99638
G01 X55.69917 Y14.99376
G01 X55.73008 Y14.94024
G01 X55.74915 Y14.88149
G01 X55.75352 Y14.88241
G01 X55.74915 Y14.88149
G01 X55.75561 Y14.82000
G01 X55.56363 Y14.77387
G01 X55.54636 Y14.78160
G01 X55.55451 Y14.82003
G01 X55.54636 Y14.85846
G01 X55.55962 Y14.86354
G01 X55.54636 Y14.85846
G01 X55.52327 Y14.89023
G01 X55.50727 Y14.90186
G01 X55.51375 Y14.91454
G01 X55.50727 Y14.90186
G01 X55.46991 Y14.91401
G01 X55.43082 Y14.90989
G01 X55.42497 Y14.92790
G01 X55.43082 Y14.90989
G01 X55.39675 Y14.89023
G01 X55.37369 Y14.85846
G01 X55.36099 Y14.86493
G01 X55.37369 Y14.85846
G01 X55.36757 Y14.83966
G01 X55.36757 Y14.80037
G01 X55.35383 Y14.79668
G01 X55.36757 Y14.80037
G01 X55.38355 Y14.76448
G01 X55.41276 Y14.73816
G01 X55.40331 Y14.72178
G01 X55.41276 Y14.73816
G01 X55.45014 Y14.72602
G01 X55.48921 Y14.73013
G01 X55.49508 Y14.71213
G01 X55.48921 Y14.73013
G01 X55.52325 Y14.74979
G01 X55.54636 Y14.78160
G04 P0 ( dwell for no time -- G64 should not smooth over this point )
G00 Z0.50000 ( retract )

G00 X56.35891 Y12.28000 ( rapid move to begin. )
G01 F100.00000
( Mill infeed pass 1/1 )
G01 Z-0.25000
G04 P0 ( dwell for no time -- G64 should not smooth over this point )
G01 F200.00000
G01 X56.35891 Y12.28000
G01 X56.33927 Y12.09313
G01 X56.28121 Y11.91439
G01 X56.18723 Y11.75168
G01 X56.06150 Y11.61198
G01 X55.90945 Y11.50154
G01 X55.73780 Y11.42511
G01 X55.55395 Y11.38605
G01 X55.36607 Y11.38605
G01 X55.18223 Y11.42511
G01 X55.01057 Y11.50154
G01 X54.85853 Y11.61198
G01 X54.73280 Y11.75168
G01 X54.63882 Y11.91439
G01 X54.58075 Y12.09313
G01 X54.56112 Y12.28003
G01 X54.58075 Y12.46689
G01 X54.63882 Y12.64563
G01 X54.73277 Y12.80835
G01 X54.85853 Y12.94805
G01 X55.01055 Y13.05848
G01 X55.18225 Y13.13491
G01 X55.36607 Y13.17398
G01 X55.55395 Y13.17398
G01 X55.64588 Y13.15445
G01 X55.73777 Y13.13491
G01 X55.90948 Y13.05848
G01 X56.06150 Y12.94805
G01 X56.18725 Y12.80835
G01 X56.28121 Y12.64563
G01 X56.32131 Y12.52219
G01 X56.33927 Y12.46689
G01 X56.35891 Y12.28000
G01 X56.15781 Y12.28003
G01 X56.14364 Y12.13469
G01 X56.09851 Y11.99575
G01 X56.02545 Y11.86921
G01 X55.92766 Y11.76062
G01 X55.80945 Y11.67474
G01 X55.67600 Y11.61531
G01 X55.53308 Y11.58495
G01 X55.38692 Y11.58495
G01 X55.24402 Y11.61531
G01 X55.11057 Y11.67474
G01 X54.99236 Y11.76062
G01 X54.89460 Y11.86921
G01 X54.82152 Y11.99575
G01 X54.77638 Y12.13474
G01 X54.76112 Y12.28003
G01 X54.77638 Y12.42529
G01 X54.82155 Y12.56428
G01 X54.89460 Y12.69082
G01 X54.99236 Y12.79940
G01 X55.11057 Y12.88528
G01 X55.24405 Y12.94472
G01 X55.38695 Y12.97510
G01 X55.53308 Y12.97510
G01 X55.67598 Y12.94472
G01 X55.80948 Y12.88528
G01 X55.92766 Y12.79940
G01 X56.02543 Y12.69082
G01 X56.09848 Y12.56428
G01 X56.14364 Y12.42534
G01 X56.15781 Y12.28003
G01 X55.95672 Y12.28003
G01 X55.94694 Y12.17650
G01 X55.91479 Y12.07754
G01 X55.86274 Y11.98742
G01 X55.79310 Y11.91007
G01 X55.70892 Y11.84891
G01 X55.61382 Y11.80657
G01 X55.51204 Y11.78493
G01 X55.40798 Y11.78493
G01 X55.30618 Y11.80657
G01 X55.21111 Y11.84891
G01 X55.12693 Y11.91007
G01 X55.05728 Y11.98742
G01 X55.00524 Y12.07754
G01 X54.97308 Y12.17652
G01 X54.96221 Y12.28000
G01 X54.97308 Y12.38351
G01 X55.00524 Y12.48249
G01 X55.05728 Y12.57263
G01 X55.12690 Y12.64995
G01 X55.21111 Y12.71111
G01 X55.30618 Y12.75346
G01 X55.40798 Y12.77510
G01 X55.51204 Y12.77510
G01 X55.61385 Y12.75346
G01 X55.70892 Y12.71111
G01 X55.79310 Y12.64995
G01 X55.86274 Y12.57263
G01 X55.91479 Y12.48249
G01 X55.94694 Y12.38353
G01 X55.95672 Y12.28003
G01 X55.75561 Y12.28003
G01 X55.74915 Y12.21853
G01 X55.75352 Y12.21764
G01 X55.74915 Y12.21853
G01 X55.73008 Y12.15978
G01 X55.69917 Y12.10626
G01 X55.70277 Y12.10367
G01 X55.69917 Y12.10626
G01 X55.65779 Y12.06032
G01 X55.60917 Y12.02194
G01 X55.55200 Y11.99646
G01 X55.49089 Y11.98602
G01 X55.42914 Y11.98602
G01 X55.42866 Y11.98158
G01 X55.42914 Y11.98602
G01 X55.36866 Y11.99887
G01 X55.31220 Y12.02402
G01 X55.30996 Y12.02016
G01 X55.31220 Y12.02402
G01 X55.26224 Y12.06032
G01 X55.22086 Y12.10626
G01 X55.21725 Y12.10367
G01 X55.22086 Y12.10626
G01 X55.18995 Y12.15978
G01 X55.17087 Y12.21853
G01 X55.16650 Y12.21764
G01 X55.17087 Y12.21853
G01 X55.16442 Y12.28003
G01 X55.17087 Y12.34149
G01 X55.16650 Y12.34241
G01 X55.17087 Y12.34149
G01 X55.18997 Y12.40024
G01 X55.22086 Y12.45376
G01 X55.21725 Y12.45638
G01 X55.22086 Y12.45376
G01 X55.26221 Y12.49968
G01 X55.31222 Y12.53601
G01 X55.30999 Y12.53989
G01 X55.31222 Y12.53601
G01 X55.36866 Y12.56115
G01 X55.42871 Y12.57647
G01 X55.49132 Y12.57647
G01 X55.55136 Y12.56115
G01 X55.60780 Y12.53601
G01 X55.61004 Y12.53989
G01 X55.60780 Y12.53601
G01 X55.65782 Y12.49968
G01 X55.69917 Y12.45376
G01 X55.70277 Y12.45638
G01 X55.69917 Y12.45376
G01 X55.73005 Y12.40024
G01 X55.74915 Y12.34149
G01 X55.75352 Y12.34241
G01 X55.74915 Y12.34149
G01 X55.75561 Y12.28003
G01 X55.57097 Y12.25643
G01 X55.55246 Y12.26039
G01 X55.55246 Y12.29966
G01 X55.53645 Y12.33558
G01 X55.55177 Y12.34670
G01 X55.53645 Y12.33558
G01 X55.50727 Y12.36186
G01 X55.46988 Y12.37401
G01 X55.47212 Y12.38805
G01 X55.46988 Y12.37401
G01 X55.45014 Y12.37401
G01 X55.41276 Y12.36186
G01 X55.40501 Y12.37380
G01 X55.41276 Y12.36186
G01 X55.38355 Y12.33555
G01 X55.36757 Y12.29966
G01 X55.35383 Y12.30334
G01 X55.36757 Y12.29966
G01 X55.36757 Y12.26039
G01 X55.37369 Y12.24157
G01 X55.36099 Y12.23509
G01 X55.37369 Y12.24157
G01 X55.39675 Y12.20979
G01 X55.43082 Y12.19013
G01 X55.42497 Y12.17213
G01 X55.43082 Y12.19013
G01 X55.46991 Y12.18602
G01 X55.50727 Y12.19816
G01 X55.51674 Y12.18180
G01 X55.50727 Y12.19816
G01 X55.53645 Y12.22445
G01 X55.55246 Y12.26039
G04 P0 ( dwell for no time -- G64 should not smooth over this point )
G00 Z0.50000 ( retract )

G00 X49.70891 Y12.26501 ( rapid move to begin. )
G01 F100.00000
( Mill infeed pass 1/1 )
G01 Z-0.25000
G04 P0 ( dwell for no time -- G64 should not smooth over this point )
G01 F200.00000
G01 X49.70891 Y12.26501
G01 X49.69583 Y12.14050
G01 X49.65714 Y12.02143
G01 X49.59453 Y11.91300
G01 X49.51076 Y11.81996
G01 X49.40949 Y11.74637
G01 X49.29509 Y11.69542
G01 X49.17261 Y11.66938
G01 X49.04741 Y11.66938
G01 X48.92494 Y11.69542
G01 X48.81056 Y11.74635
G01 X48.70926 Y11.81996
G01 X48.62549 Y11.91297
G01 X48.56288 Y12.02143
G01 X48.52420 Y12.14048
G01 X48.51112 Y12.26501
G01 X48.52420 Y12.38952
G01 X48.56288 Y12.50860
G01 X48.62549 Y12.61706
G01 X48.70929 Y12.71010
G01 X48.81056 Y12.78368
G01 X48.92494 Y12.83461
G01 X49.04741 Y12.86064
G01 X49.17261 Y12.86064
G01 X49.29509 Y12.83461
G01 X49.40949 Y12.78366
G01 X49.51076 Y12.71007
G01 X49.59453 Y12.61703
G01 X49.65714 Y12.50863
G01 X49.69583 Y12.38952
G01 X49.70891 Y12.26501
G01 X49.50781 Y12.26501
G01 X49.49913 Y12.18231
G01 X49.50350 Y12.18137
G01 X49.49913 Y12.18231
G01 X49.47342 Y12.10322
G01 X49.43184 Y12.03121
G01 X49.43545 Y12.02857
G01 X49.43184 Y12.03121
G01 X49.37619 Y11.96941
G01 X49.30891 Y11.92051
G01 X49.31114 Y11.91663
G01 X49.30891 Y11.92051
G01 X49.23294 Y11.88668
G01 X49.15161 Y11.86938
G01 X49.15206 Y11.86496
G01 X49.15161 Y11.86938
G01 X49.06842 Y11.86938
G01 X48.98709 Y11.88668
G01 X48.98572 Y11.88244
G01 X48.98709 Y11.88668
G01 X48.91109 Y11.92051
G01 X48.84228 Y11.96745
G01 X48.78610 Y12.02984
G01 X48.74660 Y12.10322
G01 X48.72090 Y12.18234
G01 X48.71653 Y12.18140
G01 X48.72090 Y12.18234
G01 X48.71221 Y12.26501
G01 X48.72090 Y12.34769
G01 X48.71653 Y12.34863
G01 X48.72090 Y12.34769
G01 X48.74660 Y12.42681
G01 X48.78818 Y12.49885
G01 X48.78458 Y12.50146
G01 X48.78818 Y12.49885
G01 X48.84383 Y12.56064
G01 X48.91109 Y12.60951
G01 X48.90886 Y12.61338
G01 X48.91109 Y12.60951
G01 X48.98711 Y12.64335
G01 X49.06801 Y12.66311
G01 X49.15201 Y12.66311
G01 X49.23291 Y12.64335
G01 X49.30891 Y12.60951
G01 X49.31114 Y12.61338
G01 X49.30891 Y12.60951
G01 X49.37619 Y12.56062
G01 X49.43184 Y12.49885
G01 X49.43545 Y12.50146
G01 X49.43184 Y12.49885
G01 X49.47342 Y12.42681
G01 X49.49913 Y12.34772
G01 X49.50350 Y12.34866
G01 X49.49913 Y12.34772
G01 X49.50781 Y12.26501
G01 X49.30672 Y12.26501
G01 X49.30240 Y12.30593
G01 X49.30677 Y12.30685
G01 X49.30240 Y12.30593
G01 X49.28971 Y12.34500
G01 X49.26916 Y12.38063
G01 X49.27276 Y12.38325
G01 X49.26916 Y12.38063
G01 X49.24162 Y12.41119
G01 X49.20835 Y12.43537
G01 X49.21058 Y12.43923
G01 X49.20835 Y12.43537
G01 X49.17078 Y12.45209
G01 X49.13060 Y12.46064
G01 X49.13098 Y12.46768
G01 X49.13060 Y12.46064
G01 X49.08943 Y12.46064
G01 X49.04924 Y12.45209
G01 X49.01165 Y12.43537
G01 X49.00845 Y12.44165
G01 X49.01165 Y12.43537
G01 X48.97840 Y12.41119
G01 X48.95087 Y12.38063
G01 X48.94726 Y12.38325
G01 X48.95087 Y12.38063
G01 X48.93032 Y12.34502
G01 X48.91762 Y12.30593
G01 X48.91064 Y12.30703
G01 X48.91762 Y12.30593
G01 X48.91330 Y12.26501
G01 X48.91762 Y12.22409
G01 X48.93032 Y12.18503
G01 X48.92374 Y12.18249
G01 X48.93032 Y12.18503
G01 X48.95087 Y12.14939
G01 X48.97840 Y12.11886
G01 X48.97541 Y12.11551
G01 X48.97840 Y12.11886
G01 X49.01165 Y12.09466
G01 X49.04924 Y12.07794
G01 X49.04785 Y12.07368
G01 X49.04924 Y12.07794
G01 X49.08943 Y12.06938
G01 X49.13060 Y12.06938
G01 X49.13106 Y12.06496
G01 X49.13060 Y12.06938
G01 X49.17078 Y12.07794
G01 X49.20835 Y12.09466
G01 X49.21058 Y12.09080
G01 X49.20835 Y12.09466
G01 X49.24162 Y12.11886
G01 X49.26916 Y12.14939
G01 X49.27276 Y12.14678
G01 X49.26916 Y12.14939
G01 X49.28971 Y12.18503
G01 X49.30240 Y12.22409
G01 X49.30677 Y12.22318
G01 X49.30240 Y12.22409
G01 X49.30672 Y12.26501
G04 P0 ( dwell for no time -- G64 should not smooth over this point )
G00 Z0.50000 ( retract )

G00 X49.70891 Y14.80501 ( rapid move to begin. )
G01 F100.00000
( Mill infeed pass 1/1 )
G01 Z-0.25000
G04 P0 ( dwell for no time -- G64 should not smooth over this point )
G01 F200.00000
G01 X49.70891 Y14.80501
G01 X49.69583 Y14.68050
G01 X49.65714 Y14.56143
G01 X49.59453 Y14.45300
G01 X49.51074 Y14.35993
G01 X49.40949 Y14.28637
G01 X49.29509 Y14.23542
G01 X49.17261 Y14.20938
G01 X49.04741 Y14.20938
G01 X48.92494 Y14.23542
G01 X48.81056 Y14.28635
G01 X48.70929 Y14.35993
G01 X48.62549 Y14.45297
G01 X48.56288 Y14.56143
G01 X48.52420 Y14.68048
G01 X48.51112 Y14.80501
G01 X48.52420 Y14.92952
G01 X48.55321 Y15.01883
G01 X48.56288 Y15.04860
G01 X48.62549 Y15.15706
G01 X48.70929 Y15.25010
G01 X48.81056 Y15.32368
G01 X48.92494 Y15.37461
G01 X49.04741 Y15.40064
G01 X49.17261 Y15.40064
G01 X49.29506 Y15.37461
G01 X49.40947 Y15.32368
G01 X49.51076 Y15.25007
G01 X49.59453 Y15.15703
G01 X49.65714 Y15.04860
G01 X49.69583 Y14.92952
G01 X49.70891 Y14.80501
G01 X49.50781 Y14.80501
G01 X49.49913 Y14.72231
G01 X49.47576 Y14.64233
G01 X49.43377 Y14.56961
G01 X49.37619 Y14.50938
G01 X49.30891 Y14.46051
G01 X49.31114 Y14.45663
G01 X49.30891 Y14.46051
G01 X49.23291 Y14.42668
G01 X49.15163 Y14.40938
G01 X49.15209 Y14.40494
G01 X49.15163 Y14.40938
G01 X49.06839 Y14.40938
G01 X48.98711 Y14.42668
G01 X48.98572 Y14.42241
G01 X48.98711 Y14.42668
G01 X48.91109 Y14.46051
G01 X48.84383 Y14.50938
G01 X48.84084 Y14.50608
G01 X48.84383 Y14.50938
G01 X48.78818 Y14.57118
G01 X48.74660 Y14.64322
G01 X48.74251 Y14.64139
G01 X48.74660 Y14.64322
G01 X48.72090 Y14.72234
G01 X48.70972 Y14.80489
G01 X48.71848 Y14.88835
G01 X48.74660 Y14.96681
G01 X48.78818 Y15.03882
G01 X48.78458 Y15.04146
G01 X48.78818 Y15.03882
G01 X48.84386 Y15.10064
G01 X48.91109 Y15.14951
G01 X48.90886 Y15.15338
G01 X48.91109 Y15.14951
G01 X48.98709 Y15.18335
G01 X49.06842 Y15.20064
G01 X49.06796 Y15.20509
G01 X49.06842 Y15.20064
G01 X49.15161 Y15.20064
G01 X49.23294 Y15.18335
G01 X49.23431 Y15.18759
G01 X49.23294 Y15.18335
G01 X49.30891 Y15.14951
G01 X49.37619 Y15.10064
G01 X49.37916 Y15.10397
G01 X49.37619 Y15.10064
G01 X49.43184 Y15.03882
G01 X49.47342 Y14.96681
G01 X49.47751 Y14.96862
G01 X49.47342 Y14.96681
G01 X49.49913 Y14.88772
G01 X49.50781 Y14.80501
G01 X49.30672 Y14.80501
G01 X49.30240 Y14.84593
G01 X49.28971 Y14.88500
G01 X49.29379 Y14.88683
G01 X49.28971 Y14.88500
G01 X49.26916 Y14.92063
G01 X49.24162 Y14.95119
G01 X49.24462 Y14.95452
G01 X49.24162 Y14.95119
G01 X49.20835 Y14.97537
G01 X49.17081 Y14.99209
G01 X49.17264 Y14.99889
G01 X49.17081 Y14.99209
G01 X49.13057 Y15.00064
G01 X49.08945 Y15.00064
G01 X49.04922 Y14.99209
G01 X49.04739 Y14.99889
G01 X49.04922 Y14.99209
G01 X49.01165 Y14.97537
G01 X48.97840 Y14.95119
G01 X48.97541 Y14.95452
G01 X48.97840 Y14.95119
G01 X48.95087 Y14.92063
G01 X48.93032 Y14.88502
G01 X48.92623 Y14.88683
G01 X48.93032 Y14.88502
G01 X48.91762 Y14.84593
G01 X48.91330 Y14.80501
G01 X48.90883 Y14.80501
G01 X48.91330 Y14.80501
G01 X48.91762 Y14.76409
G01 X48.93032 Y14.72500
G01 X48.92623 Y14.72318
G01 X48.93032 Y14.72500
G01 X48.95087 Y14.68939
G01 X48.97840 Y14.65884
G01 X48.97541 Y14.65551
G01 X48.97840 Y14.65884
G01 X49.01165 Y14.63466
G01 X49.04924 Y14.61794
G01 X49.04785 Y14.61368
G01 X49.04924 Y14.61794
G01 X49.08945 Y14.60938
G01 X49.13057 Y14.60938
G01 X49.13103 Y14.60494
G01 X49.13057 Y14.60938
G01 X49.17078 Y14.61794
G01 X49.20835 Y14.63466
G01 X49.21221 Y14.62874
G01 X49.20835 Y14.63466
G01 X49.24162 Y14.65884
G01 X49.26916 Y14.68939
G01 X49.28971 Y14.72503
G01 X49.29600 Y14.72180
G01 X49.28971 Y14.72503
G01 X49.30240 Y14.76409
G01 X49.30672 Y14.80501
G04 P0 ( dwell for no time -- G64 should not smooth over this point )
G00 Z0.50000 ( retract )

G00 X49.70891 Y17.34501 ( rapid move to begin. )
G01 F100.00000
( Mill infeed pass 1/1 )
G01 Z-0.25000
G04 P0 ( dwell for no time -- G64 should not smooth over this point )
G01 F200.00000
G01 X49.70891 Y17.34501
G01 X49.69583 Y17.22050
G01 X49.65714 Y17.10140
G01 X49.59456 Y16.99300
G01 X49.51076 Y16.89993
G01 X49.40949 Y16.82637
G01 X49.29509 Y16.77542
G01 X49.17261 Y16.74938
G01 X49.04741 Y16.74938
G01 X48.92494 Y16.77542
G01 X48.81056 Y16.82635
G01 X48.70929 Y16.89993
G01 X48.62549 Y16.99300
G01 X48.56288 Y17.10140
G01 X48.52420 Y17.22048
G01 X48.51112 Y17.34501
G01 X48.52420 Y17.46955
G01 X48.54998 Y17.54893
G01 X48.56288 Y17.58860
G01 X48.62549 Y17.69706
G01 X48.70926 Y17.79007
G01 X48.81056 Y17.86368
G01 X48.92494 Y17.91458
G01 X49.04741 Y17.94064
G01 X49.17261 Y17.94064
G01 X49.29506 Y17.91461
G01 X49.40947 Y17.86368
G01 X49.51076 Y17.79007
G01 X49.59453 Y17.69703
G01 X49.65712 Y17.58863
G01 X49.69583 Y17.46952
G01 X49.70891 Y17.34501
G01 X49.50781 Y17.34501
G01 X49.49913 Y17.26231
G01 X49.50350 Y17.26137
G01 X49.49913 Y17.26231
G01 X49.47342 Y17.18322
G01 X49.43184 Y17.11118
G01 X49.43545 Y17.10857
G01 X49.43184 Y17.11118
G01 X49.37619 Y17.04938
G01 X49.30891 Y17.00051
G01 X49.31114 Y16.99663
G01 X49.30891 Y17.00051
G01 X49.23294 Y16.96668
G01 X49.15158 Y16.94938
G01 X49.15206 Y16.94494
G01 X49.15158 Y16.94938
G01 X49.06845 Y16.94938
G01 X48.98709 Y16.96668
G01 X48.98569 Y16.96244
G01 X48.98709 Y16.96668
G01 X48.91112 Y17.00051
G01 X48.84383 Y17.04938
G01 X48.84084 Y17.04608
G01 X48.84383 Y17.04938
G01 X48.78818 Y17.11118
G01 X48.74660 Y17.18322
G01 X48.74251 Y17.18139
G01 X48.74660 Y17.18322
G01 X48.72090 Y17.26234
G01 X48.71221 Y17.34501
G01 X48.70774 Y17.34501
G01 X48.71221 Y17.34501
G01 X48.72090 Y17.42769
G01 X48.74427 Y17.50770
G01 X48.78625 Y17.58040
G01 X48.84383 Y17.64064
G01 X48.91112 Y17.68951
G01 X48.90888 Y17.69338
G01 X48.91112 Y17.68951
G01 X48.98706 Y17.72335
G01 X49.06845 Y17.74064
G01 X49.06796 Y17.74509
G01 X49.06845 Y17.74064
G01 X49.15158 Y17.74064
G01 X49.23296 Y17.72335
G01 X49.23433 Y17.72759
G01 X49.23296 Y17.72335
G01 X49.30891 Y17.68951
G01 X49.37777 Y17.64258
G01 X49.43393 Y17.58019
G01 X49.47342 Y17.50681
G01 X49.49913 Y17.42772
G01 X49.50350 Y17.42866
G01 X49.49913 Y17.42772
G01 X49.50781 Y17.34501
G01 X49.30672 Y17.34501
G01 X49.30240 Y17.38591
G01 X49.30680 Y17.38685
G01 X49.30240 Y17.38591
G01 X49.28971 Y17.42502
G01 X49.26916 Y17.46063
G01 X49.27276 Y17.46325
G01 X49.26916 Y17.46063
G01 X49.24162 Y17.49119
G01 X49.20837 Y17.51535
G01 X49.21157 Y17.52165
G01 X49.20837 Y17.51535
G01 X49.17081 Y17.53209
G01 X49.13057 Y17.54064
G01 X49.08945 Y17.54064
G01 X49.08910 Y17.54768
G01 X49.08945 Y17.54064
G01 X49.04922 Y17.53209
G01 X49.01165 Y17.51535
G01 X49.00942 Y17.51923
G01 X49.01165 Y17.51535
G01 X48.97840 Y17.49119
G01 X48.95087 Y17.46063
G01 X48.94726 Y17.46325
G01 X48.95087 Y17.46063
G01 X48.93032 Y17.42502
G01 X48.91762 Y17.38591
G01 X48.91323 Y17.38685
G01 X48.91762 Y17.38591
G01 X48.91330 Y17.34501
G01 X48.91762 Y17.30409
G01 X48.91325 Y17.30318
G01 X48.91762 Y17.30409
G01 X48.93032 Y17.26500
G01 X48.95087 Y17.22939
G01 X48.94726 Y17.22678
G01 X48.95087 Y17.22939
G01 X48.97840 Y17.19884
G01 X49.01165 Y17.17466
G01 X49.00942 Y17.17080
G01 X49.01165 Y17.17466
G01 X49.04924 Y17.15794
G01 X49.08945 Y17.14938
G01 X49.08899 Y17.14494
G01 X49.08945 Y17.14938
G01 X49.13057 Y17.14938
G01 X49.17078 Y17.15794
G01 X49.17332 Y17.15134
G01 X49.17078 Y17.15794
G01 X49.20835 Y17.17466
G01 X49.24162 Y17.19884
G01 X49.26916 Y17.22939
G01 X49.27464 Y17.22497
G01 X49.26916 Y17.22939
G01 X49.28971 Y17.26503
G01 X49.30240 Y17.30409
G01 X49.30677 Y17.30318
G01 X49.30240 Y17.30409
G01 X49.30672 Y17.34501
G04 P0 ( dwell for no time -- G64 should not smooth over this point )
G00 Z0.50000 ( retract )

G00 X49.70891 Y19.88501 ( rapid move to begin. )
G01 F100.00000
( Mill infeed pass 1/1 )
G01 Z-0.25000
G04 P0 ( dwell for no time -- G64 should not smooth over this point )
G01 F200.00000
G01 X49.70891 Y19.88501
G01 X49.69583 Y19.76050
G01 X49.65714 Y19.64140
G01 X49.59456 Y19.53300
G01 X49.51076 Y19.43996
G01 X49.40947 Y19.36635
G01 X49.29509 Y19.31542
G01 X49.17261 Y19.28938
G01 X49.04741 Y19.28938
G01 X48.92494 Y19.31542
G01 X48.81056 Y19.36635
G01 X48.70926 Y19.43996
G01 X48.62549 Y19.53300
G01 X48.56288 Y19.64140
G01 X48.52420 Y19.76048
G01 X48.51112 Y19.88501
G01 X48.52420 Y20.00955
G01 X48.56288 Y20.12860
G01 X48.62549 Y20.23703
G01 X48.70926 Y20.33007
G01 X48.81056 Y20.40368
G01 X48.92494 Y20.45458
G01 X49.04741 Y20.48064
G01 X49.17261 Y20.48064
G01 X49.29506 Y20.45461
G01 X49.40947 Y20.40368
G01 X49.51076 Y20.33007
G01 X49.59453 Y20.23703
G01 X49.65714 Y20.12863
G01 X49.69583 Y20.00952
G01 X49.70891 Y19.88501
G01 X49.50781 Y19.88501
G01 X49.49913 Y19.80229
G01 X49.47342 Y19.72322
G01 X49.47751 Y19.72139
G01 X49.47342 Y19.72322
G01 X49.43184 Y19.65121
G01 X49.37797 Y19.58763
G01 X49.31003 Y19.53828
G01 X49.23294 Y19.50668
G01 X49.15158 Y19.48938
G01 X49.15206 Y19.48494
G01 X49.15158 Y19.48938
G01 X49.06845 Y19.48938
G01 X48.98709 Y19.50668
G01 X48.98569 Y19.50244
G01 X48.98709 Y19.50668
G01 X48.91112 Y19.54051
G01 X48.84226 Y19.58745
G01 X48.78610 Y19.64984
G01 X48.74660 Y19.72322
G01 X48.72090 Y19.80234
G01 X48.71653 Y19.80140
G01 X48.72090 Y19.80234
G01 X48.71221 Y19.88501
G01 X48.72090 Y19.96769
G01 X48.71653 Y19.96863
G01 X48.72090 Y19.96769
G01 X48.74660 Y20.04681
G01 X48.78818 Y20.11882
G01 X48.78458 Y20.12146
G01 X48.78818 Y20.11882
G01 X48.84383 Y20.18064
G01 X48.91112 Y20.22951
G01 X48.90888 Y20.23338
G01 X48.91112 Y20.22951
G01 X48.98709 Y20.26335
G01 X49.06845 Y20.28064
G01 X49.06796 Y20.28509
G01 X49.06845 Y20.28064
G01 X49.15158 Y20.28064
G01 X49.23294 Y20.26335
G01 X49.23433 Y20.26759
G01 X49.23294 Y20.26335
G01 X49.30891 Y20.22951
G01 X49.37619 Y20.18062
G01 X49.37919 Y20.18395
G01 X49.37619 Y20.18062
G01 X49.43184 Y20.11882
G01 X49.47342 Y20.04681
G01 X49.47751 Y20.04862
G01 X49.47342 Y20.04681
G01 X49.49913 Y19.96772
G01 X49.50781 Y19.88501
G01 X49.30672 Y19.88501
G01 X49.30240 Y19.84412
G01 X49.30677 Y19.84318
G01 X49.30240 Y19.84412
G01 X49.28971 Y19.80500
G01 X49.26916 Y19.76942
G01 X49.27464 Y19.76497
G01 X49.26916 Y19.76942
G01 X49.24162 Y19.73881
G01 X49.20837 Y19.71466
G01 X49.17081 Y19.69794
G01 X49.17335 Y19.69136
G01 X49.17081 Y19.69794
G01 X49.13057 Y19.68938
G01 X49.08945 Y19.68938
G01 X49.08899 Y19.68494
G01 X49.08945 Y19.68938
G01 X49.04922 Y19.69794
G01 X49.01165 Y19.71468
G01 X49.00942 Y19.71080
G01 X49.01165 Y19.71468
G01 X48.97840 Y19.73881
G01 X48.95087 Y19.76939
G01 X48.94726 Y19.76678
G01 X48.95087 Y19.76939
G01 X48.93032 Y19.80498
G01 X48.91762 Y19.84412
G01 X48.91325 Y19.84318
G01 X48.91762 Y19.84412
G01 X48.91330 Y19.88501
G01 X48.91762 Y19.92591
G01 X48.91325 Y19.92685
G01 X48.91762 Y19.92591
G01 X48.93032 Y19.96502
G01 X48.95087 Y20.00063
G01 X48.94538 Y20.00505
G01 X48.95087 Y20.00063
G01 X48.97840 Y20.03119
G01 X49.01168 Y20.05537
G01 X49.04922 Y20.07209
G01 X49.04668 Y20.07866
G01 X49.04922 Y20.07209
G01 X49.08945 Y20.08064
G01 X49.13057 Y20.08064
G01 X49.13103 Y20.08509
G01 X49.13057 Y20.08064
G01 X49.17081 Y20.07209
G01 X49.20835 Y20.05537
G01 X49.21058 Y20.05923
G01 X49.20835 Y20.05537
G01 X49.24162 Y20.03119
G01 X49.26916 Y20.00061
G01 X49.27276 Y20.00325
G01 X49.26916 Y20.00061
G01 X49.28971 Y19.96500
G01 X49.30240 Y19.92591
G01 X49.30677 Y19.92685
G01 X49.30240 Y19.92591
G01 X49.30672 Y19.88501
G04 P0 ( dwell for no time -- G64 should not smooth over this point )
G00 Z0.50000 ( retract )

G00 X49.70891 Y22.42501 ( rapid move to begin. )
G01 F100.00000
( Mill infeed pass 1/1 )
G01 Z-0.25000
G04 P0 ( dwell for no time -- G64 should not smooth over this point )
G01 F200.00000
G01 X49.70891 Y22.42501
G01 X49.69583 Y22.30050
G01 X49.65714 Y22.18140
G01 X49.59453 Y22.07300
G01 X49.51076 Y21.97996
G01 X49.40947 Y21.90635
G01 X49.29506 Y21.85542
G01 X49.17261 Y21.82938
G01 X49.04741 Y21.82938
G01 X48.92494 Y21.85542
G01 X48.81056 Y21.90635
G01 X48.70926 Y21.97996
G01 X48.62549 Y22.07300
G01 X48.56288 Y22.18143
G01 X48.52420 Y22.30048
G01 X48.51112 Y22.42501
G01 X48.52420 Y22.54955
G01 X48.53456 Y22.58145
G01 X48.56288 Y22.66860
G01 X48.62549 Y22.77706
G01 X48.70926 Y22.87007
G01 X48.81058 Y22.94368
G01 X48.92494 Y22.99458
G01 X49.04741 Y23.02064
G01 X49.17261 Y23.02064
G01 X49.29506 Y22.99461
G01 X49.40944 Y22.94368
G01 X49.51074 Y22.87010
G01 X49.59453 Y22.77703
G01 X49.65714 Y22.66863
G01 X49.69583 Y22.54952
G01 X49.70891 Y22.42501
G01 X49.50781 Y22.42501
G01 X49.49913 Y22.34231
G01 X49.50350 Y22.34137
G01 X49.49913 Y22.34231
G01 X49.47342 Y22.26322
G01 X49.43393 Y22.18984
G01 X49.37777 Y22.12745
G01 X49.30891 Y22.08051
G01 X49.23296 Y22.04668
G01 X49.23433 Y22.04244
G01 X49.23296 Y22.04668
G01 X49.15158 Y22.02938
G01 X49.06845 Y22.02938
G01 X49.06796 Y22.02494
G01 X49.06845 Y22.02938
G01 X48.98706 Y22.04668
G01 X48.91112 Y22.08051
G01 X48.90888 Y22.07663
G01 X48.91112 Y22.08051
G01 X48.84383 Y22.12938
G01 X48.78818 Y22.19121
G01 X48.78458 Y22.18857
G01 X48.78818 Y22.19121
G01 X48.74660 Y22.26322
G01 X48.72090 Y22.34234
G01 X48.71653 Y22.34140
G01 X48.72090 Y22.34234
G01 X48.71221 Y22.42501
G01 X48.71843 Y22.50810
G01 X48.74439 Y22.58796
G01 X48.78818 Y22.65885
G01 X48.84383 Y22.72064
G01 X48.84084 Y22.72395
G01 X48.84383 Y22.72064
G01 X48.91112 Y22.76951
G01 X48.98709 Y22.80335
G01 X48.98569 Y22.80759
G01 X48.98709 Y22.80335
G01 X49.06845 Y22.82064
G01 X49.15158 Y22.82064
G01 X49.15206 Y22.82509
G01 X49.15158 Y22.82064
G01 X49.23294 Y22.80335
G01 X49.30891 Y22.76951
G01 X49.31114 Y22.77340
G01 X49.30891 Y22.76951
G01 X49.37619 Y22.72062
G01 X49.43184 Y22.65885
G01 X49.43545 Y22.66146
G01 X49.43184 Y22.65885
G01 X49.47342 Y22.58681
G01 X49.49913 Y22.50772
G01 X49.50350 Y22.50866
G01 X49.49913 Y22.50772
G01 X49.50781 Y22.42501
G01 X49.30672 Y22.42501
G01 X49.30240 Y22.38409
G01 X49.28971 Y22.34503
G01 X49.29379 Y22.34320
G01 X49.28971 Y22.34503
G01 X49.26916 Y22.30939
G01 X49.24162 Y22.27884
G01 X49.24462 Y22.27551
G01 X49.24162 Y22.27884
G01 X49.20835 Y22.25466
G01 X49.17081 Y22.23794
G01 X49.17220 Y22.23370
G01 X49.17081 Y22.23794
G01 X49.13057 Y22.22938
G01 X49.08945 Y22.22938
G01 X49.08836 Y22.22242
G01 X49.08945 Y22.22938
G01 X49.04922 Y22.23794
G01 X49.01165 Y22.25466
G01 X48.97840 Y22.27884
G01 X48.97396 Y22.27335
G01 X48.97840 Y22.27884
G01 X48.95087 Y22.30939
G01 X48.93032 Y22.34500
G01 X48.92623 Y22.34320
G01 X48.93032 Y22.34500
G01 X48.91762 Y22.38409
G01 X48.91330 Y22.42501
G01 X48.90883 Y22.42501
G01 X48.91330 Y22.42501
G01 X48.91762 Y22.46593
G01 X48.93032 Y22.50502
G01 X48.92623 Y22.50685
G01 X48.93032 Y22.50502
G01 X48.95087 Y22.54063
G01 X48.97840 Y22.57119
G01 X48.97541 Y22.57452
G01 X48.97840 Y22.57119
G01 X49.01165 Y22.59537
G01 X49.04924 Y22.61209
G01 X49.04785 Y22.61635
G01 X49.04924 Y22.61209
G01 X49.08945 Y22.62064
G01 X49.13057 Y22.62064
G01 X49.13167 Y22.62760
G01 X49.13057 Y22.62064
G01 X49.17078 Y22.61209
G01 X49.20835 Y22.59537
G01 X49.24162 Y22.57119
G01 X49.24607 Y22.57668
G01 X49.24162 Y22.57119
G01 X49.26916 Y22.54061
G01 X49.28971 Y22.50500
G01 X49.29379 Y22.50683
G01 X49.28971 Y22.50500
G01 X49.30240 Y22.46593
G01 X49.30672 Y22.42501
G04 P0 ( dwell for no time -- G64 should not smooth over this point )
G00 Z0.50000 ( retract )

G00 X49.70891 Y24.96501 ( rapid move to begin. )
G01 F100.00000
( Mill infeed pass 1/1 )
G01 Z-0.25000
G04 P0 ( dwell for no time -- G64 should not smooth over this point )
G01 F200.00000
G01 X49.70891 Y24.96501
G01 X49.69583 Y25.08952
G01 X49.65714 Y25.20863
G01 X49.59453 Y25.31703
G01 X49.51074 Y25.41010
G01 X49.40947 Y25.48368
G01 X49.29509 Y25.53458
G01 X49.17261 Y25.56064
G01 X49.04741 Y25.56064
G01 X48.92494 Y25.53458
G01 X48.81056 Y25.48368
G01 X48.70926 Y25.41007
G01 X48.62549 Y25.31706
G01 X48.56288 Y25.20860
G01 X48.52420 Y25.08952
G01 X48.51112 Y24.96501
G01 X48.52420 Y24.84048
G01 X48.56288 Y24.72143
G01 X48.62549 Y24.61297
G01 X48.70926 Y24.51996
G01 X48.81056 Y24.44635
G01 X48.92494 Y24.39542
G01 X49.04741 Y24.36938
G01 X49.17261 Y24.36938
G01 X49.29506 Y24.39542
G01 X49.40947 Y24.44635
G01 X49.51076 Y24.51996
G01 X49.59453 Y24.61300
G01 X49.65714 Y24.72143
G01 X49.69583 Y24.84050
G01 X49.70891 Y24.96501
G01 X49.50781 Y24.96501
G01 X49.49913 Y25.04772
G01 X49.47342 Y25.12681
G01 X49.47751 Y25.12862
G01 X49.47342 Y25.12681
G01 X49.43184 Y25.19885
G01 X49.37619 Y25.26062
G01 X49.37919 Y25.26395
G01 X49.37619 Y25.26062
G01 X49.30891 Y25.30951
G01 X49.23291 Y25.34335
G01 X49.23431 Y25.34759
G01 X49.23291 Y25.34335
G01 X49.15163 Y25.36064
G01 X49.06839 Y25.36064
G01 X49.06794 Y25.36509
G01 X49.06839 Y25.36064
G01 X48.98711 Y25.34335
G01 X48.91109 Y25.30951
G01 X48.90886 Y25.31338
G01 X48.91109 Y25.30951
G01 X48.84383 Y25.26064
G01 X48.78818 Y25.19885
G01 X48.78458 Y25.20146
G01 X48.78818 Y25.19885
G01 X48.74660 Y25.12681
G01 X48.72090 Y25.04769
G01 X48.71653 Y25.04863
G01 X48.72090 Y25.04769
G01 X48.71221 Y24.96501
G01 X48.72090 Y24.88234
G01 X48.71653 Y24.88140
G01 X48.72090 Y24.88234
G01 X48.74660 Y24.80322
G01 X48.78610 Y24.72984
G01 X48.84228 Y24.66743
G01 X48.91109 Y24.62051
G01 X48.98709 Y24.58668
G01 X48.98572 Y24.58244
G01 X48.98709 Y24.58668
G01 X49.06842 Y24.56938
G01 X49.15161 Y24.56938
G01 X49.15206 Y24.56494
G01 X49.15161 Y24.56938
G01 X49.23294 Y24.58668
G01 X49.30891 Y24.62051
G01 X49.31114 Y24.61663
G01 X49.30891 Y24.62051
G01 X49.37619 Y24.66938
G01 X49.43184 Y24.73121
G01 X49.43545 Y24.72857
G01 X49.43184 Y24.73121
G01 X49.47342 Y24.80322
G01 X49.50152 Y24.88165
G01 X49.51030 Y24.96514
G01 X49.30672 Y24.96501
G01 X49.30240 Y24.92409
G01 X49.30677 Y24.92318
G01 X49.30240 Y24.92409
G01 X49.28971 Y24.88503
G01 X49.26916 Y24.84939
G01 X49.27276 Y24.84678
G01 X49.26916 Y24.84939
G01 X49.24162 Y24.81884
G01 X49.20835 Y24.79466
G01 X49.21058 Y24.79080
G01 X49.20835 Y24.79466
G01 X49.17078 Y24.77794
G01 X49.13060 Y24.76938
G01 X49.13106 Y24.76494
G01 X49.13060 Y24.76938
G01 X49.08943 Y24.76938
G01 X49.04924 Y24.77794
G01 X49.04785 Y24.77368
G01 X49.04924 Y24.77794
G01 X49.01165 Y24.79466
G01 X48.97840 Y24.81884
G01 X48.97541 Y24.81551
G01 X48.97840 Y24.81884
G01 X48.95087 Y24.84939
G01 X48.93032 Y24.88500
G01 X48.92623 Y24.88320
G01 X48.93032 Y24.88500
G01 X48.91762 Y24.92409
G01 X48.91330 Y24.96501
G01 X48.90627 Y24.96537
G01 X48.91330 Y24.96501
G01 X48.91762 Y25.00593
G01 X48.93032 Y25.04502
G01 X48.95087 Y25.08063
G01 X48.94495 Y25.08447
G01 X48.95087 Y25.08063
G01 X48.97840 Y25.11119
G01 X49.01165 Y25.13537
G01 X49.00942 Y25.13923
G01 X49.01165 Y25.13537
G01 X49.04924 Y25.15209
G01 X49.08943 Y25.16064
G01 X49.08897 Y25.16509
G01 X49.08943 Y25.16064
G01 X49.13060 Y25.16064
G01 X49.17078 Y25.15209
G01 X49.17218 Y25.15635
G01 X49.17078 Y25.15209
G01 X49.20835 Y25.13537
G01 X49.24162 Y25.11119
G01 X49.24663 Y25.11617
G01 X49.24162 Y25.11119
G01 X49.26916 Y25.08063
G01 X49.28971 Y25.04500
G01 X49.30240 Y25.00593
G01 X49.30924 Y25.00774
G01 X49.30240 Y25.00593
G01 X49.30672 Y24.96501
G04 P0 ( dwell for no time -- G64 should not smooth over this point )
G00 Z0.50000 ( retract )

G00 X49.70891 Y27.50501 ( rapid move to begin. )
G01 F100.00000
( Mill infeed pass 1/1 )
G01 Z-0.25000
G04 P0 ( dwell for no time -- G64 should not smooth over this point )
G01 F200.00000
G01 X49.70891 Y27.50501
G01 X49.69583 Y27.38050
G01 X49.65714 Y27.26143
G01 X49.59453 Y27.15300
G01 X49.51074 Y27.05993
G01 X49.40947 Y26.98635
G01 X49.29509 Y26.93542
G01 X49.17261 Y26.90938
G01 X49.04741 Y26.90938
G01 X48.92494 Y26.93542
G01 X48.81056 Y26.98635
G01 X48.70926 Y27.05996
G01 X48.62549 Y27.15297
G01 X48.56288 Y27.26143
G01 X48.52420 Y27.38048
G01 X48.51112 Y27.50501
G01 X48.52420 Y27.62952
G01 X48.56288 Y27.74860
G01 X48.62549 Y27.85703
G01 X48.70926 Y27.95007
G01 X48.81056 Y28.02368
G01 X48.88181 Y28.05541
G01 X48.92494 Y28.07461
G01 X49.04739 Y28.10062
G01 X49.17264 Y28.10062
G01 X49.29509 Y28.07461
G01 X49.40949 Y28.02366
G01 X49.51076 Y27.95007
G01 X49.59453 Y27.85703
G01 X49.65714 Y27.74860
G01 X49.69583 Y27.62952
G01 X49.70891 Y27.50501
G01 X49.50781 Y27.50501
G01 X49.49913 Y27.42231
G01 X49.50350 Y27.42137
G01 X49.49913 Y27.42231
G01 X49.47342 Y27.34322
G01 X49.43184 Y27.27118
G01 X49.43545 Y27.26857
G01 X49.43184 Y27.27118
G01 X49.37619 Y27.20938
G01 X49.30891 Y27.16051
G01 X49.31114 Y27.15663
G01 X49.30891 Y27.16051
G01 X49.23291 Y27.12668
G01 X49.15201 Y27.10692
G01 X49.06801 Y27.10692
G01 X48.98711 Y27.12668
G01 X48.91109 Y27.16051
G01 X48.90886 Y27.15665
G01 X48.91109 Y27.16051
G01 X48.84383 Y27.20938
G01 X48.78818 Y27.27118
G01 X48.78458 Y27.26857
G01 X48.78818 Y27.27118
G01 X48.74660 Y27.34322
G01 X48.72090 Y27.42234
G01 X48.71653 Y27.42140
G01 X48.72090 Y27.42234
G01 X48.71221 Y27.50501
G01 X48.72090 Y27.58769
G01 X48.71653 Y27.58863
G01 X48.72090 Y27.58769
G01 X48.74660 Y27.66681
G01 X48.78818 Y27.73882
G01 X48.78458 Y27.74146
G01 X48.78818 Y27.73882
G01 X48.84386 Y27.80064
G01 X48.91109 Y27.84951
G01 X48.90886 Y27.85338
G01 X48.91109 Y27.84951
G01 X48.98709 Y27.88335
G01 X49.06842 Y27.90064
G01 X49.06796 Y27.90509
G01 X49.06842 Y27.90064
G01 X49.15161 Y27.90064
G01 X49.23294 Y27.88335
G01 X49.23431 Y27.88759
G01 X49.23294 Y27.88335
G01 X49.30891 Y27.84951
G01 X49.37774 Y27.80260
G01 X49.43393 Y27.74019
G01 X49.47342 Y27.66681
G01 X49.49913 Y27.58772
G01 X49.50350 Y27.58866
G01 X49.49913 Y27.58772
G01 X49.50781 Y27.50501
G01 X49.30672 Y27.50501
G01 X49.30240 Y27.54593
G01 X49.30677 Y27.54685
G01 X49.30240 Y27.54593
G01 X49.28971 Y27.58500
G01 X49.26916 Y27.62063
G01 X49.27276 Y27.62325
G01 X49.26916 Y27.62063
G01 X49.24162 Y27.65119
G01 X49.20835 Y27.67537
G01 X49.21157 Y27.68165
G01 X49.20835 Y27.67537
G01 X49.17081 Y27.69209
G01 X49.13057 Y27.70064
G01 X49.08945 Y27.70064
G01 X49.08907 Y27.70768
G01 X49.08945 Y27.70064
G01 X49.04922 Y27.69209
G01 X49.01165 Y27.67537
G01 X49.00942 Y27.67923
G01 X49.01165 Y27.67537
G01 X48.97840 Y27.65119
G01 X48.95087 Y27.62063
G01 X48.94726 Y27.62325
G01 X48.95087 Y27.62063
G01 X48.93032 Y27.58502
G01 X48.91762 Y27.54593
G01 X48.91323 Y27.54685
G01 X48.91762 Y27.54593
G01 X48.91330 Y27.50501
G01 X48.91762 Y27.46409
G01 X48.91325 Y27.46318
G01 X48.91762 Y27.46409
G01 X48.93032 Y27.42500
G01 X48.95087 Y27.38939
G01 X48.94726 Y27.38678
G01 X48.95087 Y27.38939
G01 X48.97840 Y27.35884
G01 X49.01165 Y27.33466
G01 X49.00942 Y27.33080
G01 X49.01165 Y27.33466
G01 X49.04924 Y27.31794
G01 X49.08945 Y27.30938
G01 X49.08899 Y27.30494
G01 X49.08945 Y27.30938
G01 X49.13057 Y27.30938
G01 X49.17078 Y27.31794
G01 X49.17332 Y27.31134
G01 X49.17078 Y27.31794
G01 X49.20835 Y27.33466
G01 X49.24162 Y27.35884
G01 X49.26916 Y27.38939
G01 X49.27464 Y27.38497
G01 X49.26916 Y27.38939
G01 X49.28971 Y27.42503
G01 X49.30240 Y27.46409
G01 X49.30677 Y27.46318
G01 X49.30240 Y27.46409
G01 X49.30672 Y27.50501
G04 P0 ( dwell for no time -- G64 should not smooth over this point )
G00 Z0.50000 ( retract )

G00 X49.70891 Y30.04501 ( rapid move to begin. )
G01 F100.00000
( Mill infeed pass 1/1 )
G01 Z-0.25000
G04 P0 ( dwell for no time -- G64 should not smooth over this point )
G01 F200.00000
G01 X49.70891 Y30.04501
G01 X49.69583 Y29.92050
G01 X49.65712 Y29.80140
G01 X49.59453 Y29.69300
G01 X49.51074 Y29.59993
G01 X49.40947 Y29.52635
G01 X49.37815 Y29.51240
G01 X49.29506 Y29.47542
G01 X49.17261 Y29.44938
G01 X49.04741 Y29.44938
G01 X48.92494 Y29.47542
G01 X48.81056 Y29.52635
G01 X48.70926 Y29.59996
G01 X48.62549 Y29.69297
G01 X48.56288 Y29.80143
G01 X48.52420 Y29.92048
G01 X48.51112 Y30.04501
G01 X48.52420 Y30.16955
G01 X48.56288 Y30.28863
G01 X48.62549 Y30.39703
G01 X48.70926 Y30.49007
G01 X48.81056 Y30.56368
G01 X48.88181 Y30.59541
G01 X48.92494 Y30.61461
G01 X49.04739 Y30.64062
G01 X49.17264 Y30.64062
G01 X49.29509 Y30.61461
G01 X49.40949 Y30.56366
G01 X49.51076 Y30.49007
G01 X49.59456 Y30.39703
G01 X49.65714 Y30.28863
G01 X49.69583 Y30.16952
G01 X49.70891 Y30.04501
G01 X49.50781 Y30.04501
G01 X49.49913 Y29.96231
G01 X49.50350 Y29.96137
G01 X49.49913 Y29.96231
G01 X49.47342 Y29.88322
G01 X49.43184 Y29.81118
G01 X49.43545 Y29.80857
G01 X49.43184 Y29.81118
G01 X49.37619 Y29.74938
G01 X49.30891 Y29.70051
G01 X49.31114 Y29.69663
G01 X49.30891 Y29.70051
G01 X49.23294 Y29.66668
G01 X49.15158 Y29.64938
G01 X49.15206 Y29.64494
G01 X49.15158 Y29.64938
G01 X49.06845 Y29.64938
G01 X48.98643 Y29.66427
G01 X48.90975 Y29.69843
G01 X48.84383 Y29.74938
G01 X48.78818 Y29.81118
G01 X48.78458 Y29.80857
G01 X48.78818 Y29.81118
G01 X48.74660 Y29.88322
G01 X48.72090 Y29.96234
G01 X48.71653 Y29.96140
G01 X48.72090 Y29.96234
G01 X48.71221 Y30.04501
G01 X48.72090 Y30.12769
G01 X48.71653 Y30.12863
G01 X48.72090 Y30.12769
G01 X48.74660 Y30.20681
G01 X48.78610 Y30.28019
G01 X48.84226 Y30.34258
G01 X48.91112 Y30.38951
G01 X48.98706 Y30.42335
G01 X48.98569 Y30.42759
G01 X48.98706 Y30.42335
G01 X49.06845 Y30.44064
G01 X49.15158 Y30.44064
G01 X49.15206 Y30.44509
G01 X49.15158 Y30.44064
G01 X49.23296 Y30.42335
G01 X49.30891 Y30.38951
G01 X49.31114 Y30.39340
G01 X49.30891 Y30.38951
G01 X49.37619 Y30.34064
G01 X49.43184 Y30.27882
G01 X49.43545 Y30.28146
G01 X49.43184 Y30.27882
G01 X49.47342 Y30.20681
G01 X49.49913 Y30.12772
G01 X49.50350 Y30.12866
G01 X49.49913 Y30.12772
G01 X49.50781 Y30.04501
G01 X49.30672 Y30.04501
G01 X49.30240 Y30.08591
G01 X49.28971 Y30.12502
G01 X49.29379 Y30.12683
G01 X49.28971 Y30.12502
G01 X49.26916 Y30.16063
G01 X49.24162 Y30.19119
G01 X49.24607 Y30.19668
G01 X49.24162 Y30.19119
G01 X49.20837 Y30.21535
G01 X49.17081 Y30.23209
G01 X49.13057 Y30.24064
G01 X49.13167 Y30.24760
G01 X49.13057 Y30.24064
G01 X49.08945 Y30.24064
G01 X49.04922 Y30.23209
G01 X49.04785 Y30.23633
G01 X49.04922 Y30.23209
G01 X49.01165 Y30.21535
G01 X48.97840 Y30.19119
G01 X48.97541 Y30.19452
G01 X48.97840 Y30.19119
G01 X48.95087 Y30.16063
G01 X48.93032 Y30.12502
G01 X48.92623 Y30.12685
G01 X48.93032 Y30.12502
G01 X48.91762 Y30.08591
G01 X48.91330 Y30.04501
G01 X48.90883 Y30.04501
G01 X48.91330 Y30.04501
G01 X48.91762 Y30.00409
G01 X48.93032 Y29.96500
G01 X48.92623 Y29.96318
G01 X48.93032 Y29.96500
G01 X48.95087 Y29.92939
G01 X48.97840 Y29.89884
G01 X48.97541 Y29.89551
G01 X48.97840 Y29.89884
G01 X49.01165 Y29.87466
G01 X49.04924 Y29.85794
G01 X49.04785 Y29.85368
G01 X49.04924 Y29.85794
G01 X49.08945 Y29.84938
G01 X49.13057 Y29.84938
G01 X49.13167 Y29.84242
G01 X49.13057 Y29.84938
G01 X49.17078 Y29.85794
G01 X49.20835 Y29.87466
G01 X49.24162 Y29.89884
G01 X49.24607 Y29.89335
G01 X49.24162 Y29.89884
G01 X49.26916 Y29.92939
G01 X49.28971 Y29.96503
G01 X49.29379 Y29.96320
G01 X49.28971 Y29.96503
G01 X49.30240 Y30.00409
G01 X49.30672 Y30.04501
G04 P0 ( dwell for no time -- G64 should not smooth over this point )
G00 Z0.50000 ( retract )

G00 X49.71002 Y31.98502 ( rapid move to begin. )
G01 F100.00000
( Mill infeed pass 1/1 )
G01 Z-0.25000
G04 P0 ( dwell for no time -- G64 should not smooth over this point )
G01 F200.00000
G01 X49.71002 Y31.98502
G01 X49.71002 Y33.18501
G01 X48.51000 Y33.18501
G01 X48.51000 Y31.98502
G01 X49.71002 Y31.98502
G01 X49.51002 Y32.18501
G01 X49.51002 Y32.98501
G01 X49.56860 Y33.04359
G01 X49.51002 Y32.98501
G01 X48.71000 Y32.98501
G01 X48.65143 Y33.04359
G01 X48.71000 Y32.98501
G01 X48.71000 Y32.18501
G01 X48.65143 Y32.12644
G01 X48.71000 Y32.18501
G01 X49.51002 Y32.18501
G01 X49.31003 Y32.38501
G01 X49.31003 Y32.78501
G01 X49.36860 Y32.84361
G01 X49.31003 Y32.78501
G01 X48.91000 Y32.78501
G01 X48.85143 Y32.84361
G01 X48.91000 Y32.78501
G01 X48.91000 Y32.38501
G01 X48.85143 Y32.32642
G01 X48.91000 Y32.38501
G01 X49.31003 Y32.38501
G04 P0 ( dwell for no time -- G64 should not smooth over this point )
G00 Z0.50000 ( retract )

G00 X45.89002 Y29.44502 ( rapid move to begin. )
G01 F100.00000
( Mill infeed pass 1/1 )
G01 Z-0.25000
G04 P0 ( dwell for no time -- G64 should not smooth over this point )
G01 F200.00000
G01 X45.89002 Y29.44502
G01 X45.89002 Y30.64501
G01 X44.69002 Y30.64501
G01 X44.69002 Y29.44502
G01 X45.89002 Y29.44502
G01 X45.69002 Y29.64501
G01 X45.69002 Y30.44501
G01 X45.74859 Y30.50359
G01 X45.69002 Y30.44501
G01 X44.89002 Y30.44501
G01 X44.83142 Y30.50359
G01 X44.89002 Y30.44501
G01 X44.89002 Y29.64501
G01 X44.83142 Y29.58644
G01 X44.89002 Y29.64501
G01 X45.69002 Y29.64501
G01 X45.49002 Y29.84501
G01 X45.49002 Y30.24501
G01 X45.54859 Y30.30361
G01 X45.49002 Y30.24501
G01 X45.09002 Y30.24501
G01 X45.03142 Y30.30361
G01 X45.09002 Y30.24501
G01 X45.09002 Y29.84501
G01 X45.03142 Y29.78642
G01 X45.09002 Y29.84501
G01 X45.49002 Y29.84501
G04 P0 ( dwell for no time -- G64 should not smooth over this point )
G00 Z0.50000 ( retract )

G00 X45.88890 Y27.50501 ( rapid move to begin. )
G01 F100.00000
( Mill infeed pass 1/1 )
G01 Z-0.25000
G04 P0 ( dwell for no time -- G64 should not smooth over this point )
G01 F200.00000
G01 X45.88890 Y27.50501
G01 X45.87582 Y27.38050
G01 X45.83713 Y27.26143
G01 X45.77452 Y27.15297
G01 X45.69075 Y27.05996
G01 X45.58946 Y26.98635
G01 X45.47511 Y26.93544
G01 X45.35260 Y26.90938
G01 X45.22743 Y26.90938
G01 X45.10493 Y26.93544
G01 X44.99058 Y26.98635
G01 X44.88928 Y27.05996
G01 X44.80551 Y27.15297
G01 X44.74290 Y27.26140
G01 X44.70419 Y27.38050
G01 X44.69111 Y27.50501
G01 X44.70419 Y27.62952
G01 X44.74290 Y27.74860
G01 X44.80549 Y27.85703
G01 X44.88926 Y27.95007
G01 X44.99055 Y28.02368
G01 X45.10495 Y28.07461
G01 X45.22738 Y28.10062
G01 X45.35263 Y28.10062
G01 X45.47508 Y28.07461
G01 X45.58948 Y28.02366
G01 X45.69075 Y27.95007
G01 X45.77452 Y27.85703
G01 X45.83713 Y27.74860
G01 X45.87582 Y27.62952
G01 X45.88890 Y27.50501
G01 X45.68781 Y27.50501
G01 X45.67912 Y27.42231
G01 X45.68349 Y27.42137
G01 X45.67912 Y27.42231
G01 X45.65342 Y27.34322
G01 X45.61184 Y27.27118
G01 X45.61544 Y27.26857
G01 X45.61184 Y27.27118
G01 X45.55618 Y27.20938
G01 X45.48893 Y27.16051
G01 X45.49116 Y27.15665
G01 X45.48893 Y27.16051
G01 X45.41293 Y27.12668
G01 X45.33200 Y27.10692
G01 X45.24801 Y27.10692
G01 X45.16711 Y27.12668
G01 X45.09111 Y27.16051
G01 X45.08888 Y27.15665
G01 X45.09111 Y27.16051
G01 X45.02383 Y27.20938
G01 X44.96820 Y27.27118
G01 X44.96457 Y27.26857
G01 X44.96820 Y27.27118
G01 X44.92659 Y27.34322
G01 X44.90092 Y27.42231
G01 X44.89655 Y27.42137
G01 X44.90092 Y27.42231
G01 X44.89220 Y27.50501
G01 X44.90092 Y27.58772
G01 X44.89655 Y27.58866
G01 X44.90092 Y27.58772
G01 X44.92659 Y27.66681
G01 X44.96817 Y27.73882
G01 X44.96457 Y27.74146
G01 X44.96817 Y27.73882
G01 X45.02385 Y27.80064
G01 X45.09111 Y27.84951
G01 X45.08888 Y27.85338
G01 X45.09111 Y27.84951
G01 X45.16711 Y27.88335
G01 X45.24844 Y27.90064
G01 X45.24796 Y27.90509
G01 X45.24844 Y27.90064
G01 X45.33160 Y27.90064
G01 X45.41293 Y27.88335
G01 X45.41430 Y27.88759
G01 X45.41293 Y27.88335
G01 X45.48893 Y27.84951
G01 X45.55773 Y27.80260
G01 X45.61394 Y27.74019
G01 X45.65342 Y27.66681
G01 X45.67912 Y27.58772
G01 X45.68349 Y27.58866
G01 X45.67912 Y27.58772
G01 X45.68781 Y27.50501
G01 X45.48672 Y27.50501
G01 X45.48242 Y27.54593
G01 X45.48923 Y27.54774
G01 X45.48242 Y27.54593
G01 X45.46970 Y27.58502
G01 X45.44915 Y27.62063
G01 X45.42164 Y27.65119
G01 X45.42662 Y27.65617
G01 X45.42164 Y27.65119
G01 X45.38837 Y27.67537
G01 X45.35080 Y27.69209
G01 X45.35220 Y27.69633
G01 X45.35080 Y27.69209
G01 X45.31059 Y27.70064
G01 X45.26944 Y27.70064
G01 X45.26896 Y27.70509
G01 X45.26944 Y27.70064
G01 X45.22921 Y27.69209
G01 X45.19167 Y27.67537
G01 X45.18943 Y27.67923
G01 X45.19167 Y27.67537
G01 X45.15839 Y27.65119
G01 X45.13089 Y27.62063
G01 X45.12497 Y27.62450
G01 X45.13089 Y27.62063
G01 X45.11031 Y27.58500
G01 X45.09761 Y27.54593
G01 X45.09332 Y27.50501
G01 X45.08626 Y27.50537
G01 X45.09332 Y27.50501
G01 X45.09761 Y27.46409
G01 X45.11031 Y27.42503
G01 X45.10622 Y27.42320
G01 X45.11031 Y27.42503
G01 X45.13089 Y27.38939
G01 X45.15839 Y27.35884
G01 X45.15540 Y27.35551
G01 X45.15839 Y27.35884
G01 X45.19167 Y27.33466
G01 X45.22924 Y27.31794
G01 X45.22786 Y27.31368
G01 X45.22924 Y27.31794
G01 X45.26947 Y27.30938
G01 X45.31057 Y27.30938
G01 X45.31102 Y27.30494
G01 X45.31057 Y27.30938
G01 X45.35080 Y27.31794
G01 X45.38837 Y27.33466
G01 X45.39060 Y27.33080
G01 X45.38837 Y27.33466
G01 X45.42164 Y27.35884
G01 X45.44915 Y27.38939
G01 X45.45276 Y27.38678
G01 X45.44915 Y27.38939
G01 X45.46970 Y27.42500
G01 X45.48242 Y27.46409
G01 X45.48679 Y27.46318
G01 X45.48242 Y27.46409
G01 X45.48672 Y27.50501
G04 P0 ( dwell for no time -- G64 should not smooth over this point )
G00 Z0.50000 ( retract )

G00 X45.88890 Y24.96501 ( rapid move to begin. )
G01 F100.00000
( Mill infeed pass 1/1 )
G01 Z-0.25000
G04 P0 ( dwell for no time -- G64 should not smooth over this point )
G01 F200.00000
G01 X45.88890 Y24.96501
G01 X45.87582 Y25.08952
G01 X45.83713 Y25.20860
G01 X45.77452 Y25.31703
G01 X45.69075 Y25.41010
G01 X45.58946 Y25.48368
G01 X45.47508 Y25.53461
G01 X45.35260 Y25.56064
G01 X45.22743 Y25.56064
G01 X45.10493 Y25.53461
G01 X44.99058 Y25.48368
G01 X44.88928 Y25.41007
G01 X44.80549 Y25.31703
G01 X44.74290 Y25.20860
G01 X44.70419 Y25.08952
G01 X44.69111 Y24.96501
G01 X44.70419 Y24.84050
G01 X44.74290 Y24.72140
G01 X44.80551 Y24.61297
G01 X44.88926 Y24.51996
G01 X44.99058 Y24.44635
G01 X45.10495 Y24.39542
G01 X45.22743 Y24.36938
G01 X45.35260 Y24.36938
G01 X45.47508 Y24.39542
G01 X45.58946 Y24.44635
G01 X45.69075 Y24.51996
G01 X45.77452 Y24.61297
G01 X45.83713 Y24.72143
G01 X45.87582 Y24.84050
G01 X45.88890 Y24.96501
G01 X45.68781 Y24.96501
G01 X45.67912 Y24.88231
G01 X45.68349 Y24.88137
G01 X45.67912 Y24.88231
G01 X45.65342 Y24.80322
G01 X45.61184 Y24.73121
G01 X45.61547 Y24.72857
G01 X45.61184 Y24.73121
G01 X45.55618 Y24.66938
G01 X45.48893 Y24.62051
G01 X45.49116 Y24.61665
G01 X45.48893 Y24.62051
G01 X45.41293 Y24.58668
G01 X45.33160 Y24.56938
G01 X45.33205 Y24.56494
G01 X45.33160 Y24.56938
G01 X45.24844 Y24.56938
G01 X45.16711 Y24.58668
G01 X45.16571 Y24.58244
G01 X45.16711 Y24.58668
G01 X45.09111 Y24.62051
G01 X45.02228 Y24.66743
G01 X44.96609 Y24.72984
G01 X44.92659 Y24.80322
G01 X44.90092 Y24.88231
G01 X44.89655 Y24.88137
G01 X44.90092 Y24.88231
G01 X44.89220 Y24.96501
G01 X44.90092 Y25.04772
G01 X44.89655 Y25.04866
G01 X44.90092 Y25.04772
G01 X44.92659 Y25.12681
G01 X44.96820 Y25.19885
G01 X44.96457 Y25.20146
G01 X44.96820 Y25.19885
G01 X45.02383 Y25.26064
G01 X45.09111 Y25.30951
G01 X45.08888 Y25.31338
G01 X45.09111 Y25.30951
G01 X45.16711 Y25.34335
G01 X45.24801 Y25.36311
G01 X45.33200 Y25.36311
G01 X45.41293 Y25.34335
G01 X45.48893 Y25.30951
G01 X45.49116 Y25.31338
G01 X45.48893 Y25.30951
G01 X45.55618 Y25.26064
G01 X45.61184 Y25.19885
G01 X45.61544 Y25.20146
G01 X45.61184 Y25.19885
G01 X45.65342 Y25.12681
G01 X45.67912 Y25.04772
G01 X45.68349 Y25.04866
G01 X45.67912 Y25.04772
G01 X45.68781 Y24.96501
G01 X45.48672 Y24.96501
G01 X45.48242 Y25.00593
G01 X45.46970 Y25.04502
G01 X45.47379 Y25.04683
G01 X45.46970 Y25.04502
G01 X45.44915 Y25.08063
G01 X45.42164 Y25.11119
G01 X45.42461 Y25.11452
G01 X45.42164 Y25.11119
G01 X45.38837 Y25.13537
G01 X45.35080 Y25.15209
G01 X45.35217 Y25.15635
G01 X45.35080 Y25.15209
G01 X45.31059 Y25.16064
G01 X45.26942 Y25.16064
G01 X45.26896 Y25.16509
G01 X45.26942 Y25.16064
G01 X45.22924 Y25.15209
G01 X45.19167 Y25.13537
G01 X45.18943 Y25.13923
G01 X45.19167 Y25.13537
G01 X45.15839 Y25.11119
G01 X45.13089 Y25.08063
G01 X45.12497 Y25.08450
G01 X45.13089 Y25.08063
G01 X45.11031 Y25.04500
G01 X45.09761 Y25.00593
G01 X45.09332 Y24.96501
G01 X45.08626 Y24.96537
G01 X45.09332 Y24.96501
G01 X45.09761 Y24.92409
G01 X45.11031 Y24.88503
G01 X45.10622 Y24.88320
G01 X45.11031 Y24.88503
G01 X45.13089 Y24.84939
G01 X45.15839 Y24.81884
G01 X45.15540 Y24.81551
G01 X45.15839 Y24.81884
G01 X45.19167 Y24.79466
G01 X45.22924 Y24.77794
G01 X45.22786 Y24.77368
G01 X45.22924 Y24.77794
G01 X45.26942 Y24.76938
G01 X45.31059 Y24.76938
G01 X45.31105 Y24.76494
G01 X45.31059 Y24.76938
G01 X45.35080 Y24.77794
G01 X45.38837 Y24.79466
G01 X45.39060 Y24.79080
G01 X45.38837 Y24.79466
G01 X45.42164 Y24.81884
G01 X45.44915 Y24.84939
G01 X45.45507 Y24.84556
G01 X45.44915 Y24.84939
G01 X45.46970 Y24.88500
G01 X45.48242 Y24.92409
G01 X45.48672 Y24.96501
G04 P0 ( dwell for no time -- G64 should not smooth over this point )
G00 Z0.50000 ( retract )

G00 X45.88890 Y22.42501 ( rapid move to begin. )
G01 F100.00000
( Mill infeed pass 1/1 )
G01 Z-0.25000
G04 P0 ( dwell for no time -- G64 should not smooth over this point )
G01 F200.00000
G01 X45.88890 Y22.42501
G01 X45.87582 Y22.30050
G01 X45.83713 Y22.18140
G01 X45.77452 Y22.07300
G01 X45.69075 Y21.97996
G01 X45.58946 Y21.90635
G01 X45.47508 Y21.85542
G01 X45.35260 Y21.82938
G01 X45.22743 Y21.82938
G01 X45.10495 Y21.85542
G01 X44.99058 Y21.90635
G01 X44.88926 Y21.97996
G01 X44.80549 Y22.07300
G01 X44.74290 Y22.18140
G01 X44.70419 Y22.30050
G01 X44.69111 Y22.42501
G01 X44.70419 Y22.54952
G01 X44.74290 Y22.66860
G01 X44.80551 Y22.77706
G01 X44.84737 Y22.82357
G01 X44.88928 Y22.87007
G01 X44.99058 Y22.94368
G01 X45.10493 Y22.99461
G01 X45.22743 Y23.02064
G01 X45.35260 Y23.02064
G01 X45.47508 Y22.99461
G01 X45.58943 Y22.94368
G01 X45.69075 Y22.87007
G01 X45.77452 Y22.77706
G01 X45.83713 Y22.66860
G01 X45.87582 Y22.54952
G01 X45.88890 Y22.42501
G01 X45.68781 Y22.42501
G01 X45.67912 Y22.50772
G01 X45.65342 Y22.58681
G01 X45.65750 Y22.58864
G01 X45.65342 Y22.58681
G01 X45.61184 Y22.65885
G01 X45.55618 Y22.72064
G01 X45.55918 Y22.72395
G01 X45.55618 Y22.72064
G01 X45.48893 Y22.76951
G01 X45.41295 Y22.80335
G01 X45.41433 Y22.80759
G01 X45.41295 Y22.80335
G01 X45.33160 Y22.82064
G01 X45.24844 Y22.82064
G01 X45.24798 Y22.82509
G01 X45.24844 Y22.82064
G01 X45.16708 Y22.80335
G01 X45.09111 Y22.76951
G01 X45.08888 Y22.77338
G01 X45.09111 Y22.76951
G01 X45.02383 Y22.72064
G01 X44.96820 Y22.65885
G01 X44.96457 Y22.66146
G01 X44.96820 Y22.65885
G01 X44.92659 Y22.58681
G01 X44.89850 Y22.50838
G01 X44.88971 Y22.42489
G01 X44.90092 Y22.34231
G01 X44.92659 Y22.26322
G01 X44.92253 Y22.26139
G01 X44.92659 Y22.26322
G01 X44.96817 Y22.19121
G01 X45.02383 Y22.12938
G01 X45.02085 Y22.12606
G01 X45.02383 Y22.12938
G01 X45.09111 Y22.08051
G01 X45.16708 Y22.04668
G01 X45.16568 Y22.04244
G01 X45.16708 Y22.04668
G01 X45.24844 Y22.02938
G01 X45.33160 Y22.02938
G01 X45.33205 Y22.02494
G01 X45.33160 Y22.02938
G01 X45.41295 Y22.04668
G01 X45.48893 Y22.08051
G01 X45.49116 Y22.07663
G01 X45.48893 Y22.08051
G01 X45.55618 Y22.12938
G01 X45.61184 Y22.19121
G01 X45.61547 Y22.18857
G01 X45.61184 Y22.19121
G01 X45.65342 Y22.26322
G01 X45.68153 Y22.34165
G01 X45.69030 Y22.42514
G01 X45.48672 Y22.42501
G01 X45.48242 Y22.38409
G01 X45.46970 Y22.34500
G01 X45.47379 Y22.34320
G01 X45.46970 Y22.34500
G01 X45.44915 Y22.30939
G01 X45.42164 Y22.27884
G01 X45.42461 Y22.27551
G01 X45.42164 Y22.27884
G01 X45.38837 Y22.25466
G01 X45.35083 Y22.23794
G01 X45.35220 Y22.23370
G01 X45.35083 Y22.23794
G01 X45.31057 Y22.22938
G01 X45.26947 Y22.22938
G01 X45.26835 Y22.22242
G01 X45.26947 Y22.22938
G01 X45.22921 Y22.23794
G01 X45.19167 Y22.25466
G01 X45.15839 Y22.27884
G01 X45.15395 Y22.27335
G01 X45.15839 Y22.27884
G01 X45.13089 Y22.30939
G01 X45.11031 Y22.34503
G01 X45.10622 Y22.34320
G01 X45.11031 Y22.34503
G01 X45.09761 Y22.38409
G01 X45.09332 Y22.42501
G01 X45.08885 Y22.42501
G01 X45.09332 Y22.42501
G01 X45.09761 Y22.46593
G01 X45.11031 Y22.50500
G01 X45.10622 Y22.50683
G01 X45.11031 Y22.50500
G01 X45.13089 Y22.54063
G01 X45.15839 Y22.57119
G01 X45.15540 Y22.57449
G01 X45.15839 Y22.57119
G01 X45.19167 Y22.59537
G01 X45.22924 Y22.61209
G01 X45.22786 Y22.61635
G01 X45.22924 Y22.61209
G01 X45.26947 Y22.62064
G01 X45.31057 Y22.62064
G01 X45.31166 Y22.62760
G01 X45.31057 Y22.62064
G01 X45.35080 Y22.61209
G01 X45.38837 Y22.59537
G01 X45.42164 Y22.57119
G01 X45.42606 Y22.57668
G01 X45.42164 Y22.57119
G01 X45.44915 Y22.54063
G01 X45.46970 Y22.50502
G01 X45.47379 Y22.50685
G01 X45.46970 Y22.50502
G01 X45.48242 Y22.46593
G01 X45.48672 Y22.42501
G04 P0 ( dwell for no time -- G64 should not smooth over this point )
G00 Z0.50000 ( retract )

G00 X45.88890 Y19.88501 ( rapid move to begin. )
G01 F100.00000
( Mill infeed pass 1/1 )
G01 Z-0.25000
G04 P0 ( dwell for no time -- G64 should not smooth over this point )
G01 F200.00000
G01 X45.88890 Y19.88501
G01 X45.87582 Y19.76050
G01 X45.83713 Y19.64140
G01 X45.77452 Y19.53300
G01 X45.69075 Y19.43996
G01 X45.58946 Y19.36635
G01 X45.56073 Y19.35354
G01 X45.47508 Y19.31542
G01 X45.35260 Y19.28938
G01 X45.22743 Y19.28938
G01 X45.10495 Y19.31542
G01 X44.99058 Y19.36635
G01 X44.88928 Y19.43996
G01 X44.80549 Y19.53300
G01 X44.74290 Y19.64140
G01 X44.70419 Y19.76050
G01 X44.69111 Y19.88501
G01 X44.70419 Y20.00952
G01 X44.74290 Y20.12860
G01 X44.80551 Y20.23706
G01 X44.88926 Y20.33007
G01 X44.99058 Y20.40368
G01 X45.10495 Y20.45461
G01 X45.22743 Y20.48064
G01 X45.35260 Y20.48064
G01 X45.47508 Y20.45461
G01 X45.58946 Y20.40368
G01 X45.69075 Y20.33007
G01 X45.77452 Y20.23706
G01 X45.83713 Y20.12860
G01 X45.87582 Y20.00952
G01 X45.88890 Y19.88501
G01 X45.68781 Y19.88501
G01 X45.67912 Y19.80229
G01 X45.65342 Y19.72322
G01 X45.65750 Y19.72139
G01 X45.65342 Y19.72322
G01 X45.61184 Y19.65121
G01 X45.55618 Y19.58938
G01 X45.55918 Y19.58608
G01 X45.55618 Y19.58938
G01 X45.48893 Y19.54051
G01 X45.41384 Y19.50434
G01 X45.33172 Y19.48689
G01 X45.24844 Y19.48938
G01 X45.16708 Y19.50668
G01 X45.16571 Y19.50244
G01 X45.16708 Y19.50668
G01 X45.09111 Y19.54051
G01 X45.02383 Y19.58938
G01 X45.02085 Y19.58608
G01 X45.02383 Y19.58938
G01 X44.96817 Y19.65121
G01 X44.92659 Y19.72322
G01 X44.92253 Y19.72139
G01 X44.92659 Y19.72322
G01 X44.90092 Y19.80229
G01 X44.89220 Y19.88501
G01 X44.88773 Y19.88501
G01 X44.89220 Y19.88501
G01 X44.90092 Y19.96772
G01 X44.92659 Y20.04681
G01 X44.92253 Y20.04862
G01 X44.92659 Y20.04681
G01 X44.96817 Y20.11882
G01 X45.02383 Y20.18064
G01 X45.02085 Y20.18395
G01 X45.02383 Y20.18064
G01 X45.09111 Y20.22951
G01 X45.16619 Y20.26566
G01 X45.24831 Y20.28313
G01 X45.33160 Y20.28064
G01 X45.41295 Y20.26335
G01 X45.41433 Y20.26759
G01 X45.41295 Y20.26335
G01 X45.48893 Y20.22951
G01 X45.55618 Y20.18064
G01 X45.55918 Y20.18395
G01 X45.55618 Y20.18064
G01 X45.61184 Y20.11882
G01 X45.65342 Y20.04681
G01 X45.65750 Y20.04862
G01 X45.65342 Y20.04681
G01 X45.67912 Y19.96772
G01 X45.68781 Y19.88501
G01 X45.48672 Y19.88501
G01 X45.48242 Y19.84412
G01 X45.48679 Y19.84318
G01 X45.48242 Y19.84412
G01 X45.46970 Y19.80498
G01 X45.44915 Y19.76939
G01 X45.45464 Y19.76497
G01 X45.44915 Y19.76939
G01 X45.42162 Y19.73881
G01 X45.38839 Y19.71468
G01 X45.35080 Y19.69794
G01 X45.35334 Y19.69136
G01 X45.35080 Y19.69794
G01 X45.31057 Y19.68938
G01 X45.26947 Y19.68938
G01 X45.26899 Y19.68494
G01 X45.26947 Y19.68938
G01 X45.22921 Y19.69794
G01 X45.19164 Y19.71466
G01 X45.18941 Y19.71080
G01 X45.19164 Y19.71466
G01 X45.15839 Y19.73881
G01 X45.13089 Y19.76939
G01 X45.12725 Y19.76678
G01 X45.13089 Y19.76939
G01 X45.11031 Y19.80500
G01 X45.09761 Y19.84412
G01 X45.09324 Y19.84318
G01 X45.09761 Y19.84412
G01 X45.09332 Y19.88501
G01 X45.09761 Y19.92591
G01 X45.09324 Y19.92685
G01 X45.09761 Y19.92591
G01 X45.11031 Y19.96500
G01 X45.13089 Y20.00063
G01 X45.12540 Y20.00508
G01 X45.13089 Y20.00063
G01 X45.15839 Y20.03119
G01 X45.19167 Y20.05537
G01 X45.22921 Y20.07209
G01 X45.22670 Y20.07866
G01 X45.22921 Y20.07209
G01 X45.26947 Y20.08064
G01 X45.31057 Y20.08064
G01 X45.31102 Y20.08509
G01 X45.31057 Y20.08064
G01 X45.35080 Y20.07209
G01 X45.38837 Y20.05537
G01 X45.39060 Y20.05923
G01 X45.38837 Y20.05537
G01 X45.42164 Y20.03119
G01 X45.44915 Y20.00063
G01 X45.45278 Y20.00325
G01 X45.44915 Y20.00063
G01 X45.46970 Y19.96502
G01 X45.48242 Y19.92591
G01 X45.48679 Y19.92685
G01 X45.48242 Y19.92591
G01 X45.48672 Y19.88501
G04 P0 ( dwell for no time -- G64 should not smooth over this point )
G00 Z0.50000 ( retract )

G00 X45.88890 Y17.34501 ( rapid move to begin. )
G01 F100.00000
( Mill infeed pass 1/1 )
G01 Z-0.25000
G04 P0 ( dwell for no time -- G64 should not smooth over this point )
G01 F200.00000
G01 X45.88890 Y17.34501
G01 X45.87582 Y17.22050
G01 X45.83713 Y17.10140
G01 X45.77452 Y16.99297
G01 X45.69075 Y16.89993
G01 X45.58948 Y16.82635
G01 X45.47508 Y16.77542
G01 X45.35260 Y16.74938
G01 X45.22741 Y16.74938
G01 X45.10495 Y16.77542
G01 X44.99055 Y16.82635
G01 X44.88928 Y16.89993
G01 X44.80549 Y16.99300
G01 X44.74290 Y17.10140
G01 X44.70419 Y17.22050
G01 X44.69111 Y17.34501
G01 X44.70419 Y17.46952
G01 X44.74290 Y17.58863
G01 X44.80549 Y17.69703
G01 X44.88926 Y17.79007
G01 X44.99058 Y17.86368
G01 X45.10495 Y17.91461
G01 X45.22743 Y17.94064
G01 X45.35260 Y17.94064
G01 X45.47508 Y17.91461
G01 X45.58946 Y17.86368
G01 X45.69075 Y17.79007
G01 X45.77452 Y17.69703
G01 X45.83713 Y17.58863
G01 X45.87582 Y17.46952
G01 X45.88890 Y17.34501
G01 X45.68781 Y17.34501
G01 X45.67912 Y17.26231
G01 X45.68349 Y17.26137
G01 X45.67912 Y17.26231
G01 X45.65342 Y17.18322
G01 X45.61184 Y17.11118
G01 X45.61544 Y17.10857
G01 X45.61184 Y17.11118
G01 X45.55618 Y17.04938
G01 X45.48893 Y17.00051
G01 X45.49116 Y16.99663
G01 X45.48893 Y17.00051
G01 X45.41295 Y16.96668
G01 X45.33160 Y16.94938
G01 X45.33205 Y16.94494
G01 X45.33160 Y16.94938
G01 X45.24844 Y16.94938
G01 X45.16708 Y16.96668
G01 X45.16571 Y16.96244
G01 X45.16708 Y16.96668
G01 X45.09111 Y17.00051
G01 X45.02383 Y17.04938
G01 X45.02085 Y17.04608
G01 X45.02383 Y17.04938
G01 X44.96820 Y17.11118
G01 X44.92659 Y17.18322
G01 X44.92253 Y17.18139
G01 X44.92659 Y17.18322
G01 X44.90092 Y17.26231
G01 X44.88971 Y17.34489
G01 X44.89850 Y17.42838
G01 X44.92659 Y17.50681
G01 X44.96817 Y17.57882
G01 X44.96457 Y17.58146
G01 X44.96817 Y17.57882
G01 X45.02383 Y17.64064
G01 X45.09111 Y17.68951
G01 X45.08888 Y17.69338
G01 X45.09111 Y17.68951
G01 X45.16708 Y17.72335
G01 X45.24844 Y17.74064
G01 X45.24798 Y17.74509
G01 X45.24844 Y17.74064
G01 X45.33160 Y17.74064
G01 X45.41295 Y17.72335
G01 X45.41433 Y17.72759
G01 X45.41295 Y17.72335
G01 X45.48893 Y17.68951
G01 X45.55776 Y17.64258
G01 X45.61394 Y17.58019
G01 X45.65342 Y17.50681
G01 X45.67912 Y17.42772
G01 X45.68349 Y17.42866
G01 X45.67912 Y17.42772
G01 X45.68781 Y17.34501
G01 X45.48672 Y17.34501
G01 X45.48242 Y17.38591
G01 X45.48679 Y17.38685
G01 X45.48242 Y17.38591
G01 X45.46970 Y17.42502
G01 X45.44915 Y17.46063
G01 X45.45276 Y17.46325
G01 X45.44915 Y17.46063
G01 X45.42164 Y17.49119
G01 X45.38839 Y17.51535
G01 X45.39159 Y17.52165
G01 X45.38839 Y17.51535
G01 X45.35080 Y17.53209
G01 X45.31057 Y17.54064
G01 X45.26947 Y17.54064
G01 X45.26909 Y17.54768
G01 X45.26947 Y17.54064
G01 X45.22921 Y17.53209
G01 X45.19164 Y17.51535
G01 X45.18941 Y17.51923
G01 X45.19164 Y17.51535
G01 X45.15839 Y17.49119
G01 X45.13089 Y17.46063
G01 X45.12497 Y17.46450
G01 X45.13089 Y17.46063
G01 X45.11031 Y17.42502
G01 X45.09761 Y17.38591
G01 X45.09332 Y17.34501
G01 X45.08626 Y17.34537
G01 X45.09332 Y17.34501
G01 X45.09761 Y17.30409
G01 X45.11031 Y17.26503
G01 X45.10622 Y17.26320
G01 X45.11031 Y17.26503
G01 X45.13089 Y17.22939
G01 X45.15839 Y17.19884
G01 X45.15540 Y17.19551
G01 X45.15839 Y17.19884
G01 X45.19167 Y17.17466
G01 X45.22924 Y17.15794
G01 X45.22786 Y17.15368
G01 X45.22924 Y17.15794
G01 X45.26947 Y17.14938
G01 X45.31057 Y17.14938
G01 X45.31102 Y17.14494
G01 X45.31057 Y17.14938
G01 X45.35080 Y17.15794
G01 X45.38837 Y17.17466
G01 X45.39060 Y17.17080
G01 X45.38837 Y17.17466
G01 X45.42164 Y17.19884
G01 X45.44915 Y17.22939
G01 X45.45276 Y17.22678
G01 X45.44915 Y17.22939
G01 X45.46970 Y17.26500
G01 X45.48242 Y17.30409
G01 X45.48679 Y17.30318
G01 X45.48242 Y17.30409
G01 X45.48672 Y17.34501
G04 P0 ( dwell for no time -- G64 should not smooth over this point )
G00 Z0.50000 ( retract )

G00 X45.88890 Y14.80501 ( rapid move to begin. )
G01 F100.00000
( Mill infeed pass 1/1 )
G01 Z-0.25000
G04 P0 ( dwell for no time -- G64 should not smooth over this point )
G01 F200.00000
G01 X45.88890 Y14.80501
G01 X45.87582 Y14.68050
G01 X45.83713 Y14.56143
G01 X45.77452 Y14.45297
G01 X45.69075 Y14.35993
G01 X45.58948 Y14.28635
G01 X45.47508 Y14.23542
G01 X45.35260 Y14.20938
G01 X45.22741 Y14.20938
G01 X45.10495 Y14.23542
G01 X44.99055 Y14.28635
G01 X44.88928 Y14.35993
G01 X44.80549 Y14.45297
G01 X44.74290 Y14.56143
G01 X44.70419 Y14.68050
G01 X44.69111 Y14.80501
G01 X44.70419 Y14.92952
G01 X44.74290 Y15.04860
G01 X44.80549 Y15.15703
G01 X44.88926 Y15.25007
G01 X44.99058 Y15.32368
G01 X45.10495 Y15.37461
G01 X45.22743 Y15.40064
G01 X45.35260 Y15.40064
G01 X45.47506 Y15.37461
G01 X45.58946 Y15.32368
G01 X45.69075 Y15.25007
G01 X45.77452 Y15.15703
G01 X45.83713 Y15.04860
G01 X45.87582 Y14.92952
G01 X45.88890 Y14.80501
G01 X45.68781 Y14.80501
G01 X45.67912 Y14.72231
G01 X45.65575 Y14.64233
G01 X45.61377 Y14.56961
G01 X45.55618 Y14.50938
G01 X45.48893 Y14.46051
G01 X45.49116 Y14.45665
G01 X45.48893 Y14.46051
G01 X45.41293 Y14.42668
G01 X45.33162 Y14.40938
G01 X45.33208 Y14.40494
G01 X45.33162 Y14.40938
G01 X45.24841 Y14.40938
G01 X45.16711 Y14.42668
G01 X45.16571 Y14.42241
G01 X45.16711 Y14.42668
G01 X45.09111 Y14.46051
G01 X45.02383 Y14.50938
G01 X45.02085 Y14.50608
G01 X45.02383 Y14.50938
G01 X44.96820 Y14.57118
G01 X44.92659 Y14.64322
G01 X44.92253 Y14.64139
G01 X44.92659 Y14.64322
G01 X44.90092 Y14.72231
G01 X44.88971 Y14.80489
G01 X44.89850 Y14.88838
G01 X44.92659 Y14.96681
G01 X44.96817 Y15.03882
G01 X44.96457 Y15.04146
G01 X44.96817 Y15.03882
G01 X45.02385 Y15.10064
G01 X45.09111 Y15.14951
G01 X45.08888 Y15.15338
G01 X45.09111 Y15.14951
G01 X45.16711 Y15.18335
G01 X45.24844 Y15.20064
G01 X45.24796 Y15.20509
G01 X45.24844 Y15.20064
G01 X45.33160 Y15.20064
G01 X45.41293 Y15.18335
G01 X45.41430 Y15.18759
G01 X45.41293 Y15.18335
G01 X45.48893 Y15.14951
G01 X45.55618 Y15.10064
G01 X45.55916 Y15.10397
G01 X45.55618 Y15.10064
G01 X45.61184 Y15.03882
G01 X45.65342 Y14.96681
G01 X45.65750 Y14.96862
G01 X45.65342 Y14.96681
G01 X45.67912 Y14.88772
G01 X45.68781 Y14.80501
G01 X45.48672 Y14.80501
G01 X45.48242 Y14.84593
G01 X45.46970 Y14.88502
G01 X45.47379 Y14.88683
G01 X45.46970 Y14.88502
G01 X45.44915 Y14.92063
G01 X45.42164 Y14.95119
G01 X45.42461 Y14.95452
G01 X45.42164 Y14.95119
G01 X45.38837 Y14.97537
G01 X45.35080 Y14.99209
G01 X45.35263 Y14.99889
G01 X45.35080 Y14.99209
G01 X45.31059 Y15.00064
G01 X45.26944 Y15.00064
G01 X45.22921 Y14.99209
G01 X45.22738 Y14.99889
G01 X45.22921 Y14.99209
G01 X45.19167 Y14.97537
G01 X45.15839 Y14.95119
G01 X45.15540 Y14.95449
G01 X45.15839 Y14.95119
G01 X45.13089 Y14.92063
G01 X45.11031 Y14.88500
G01 X45.10622 Y14.88683
G01 X45.11031 Y14.88500
G01 X45.09761 Y14.84593
G01 X45.09332 Y14.80501
G01 X45.08885 Y14.80501
G01 X45.09332 Y14.80501
G01 X45.09761 Y14.76409
G01 X45.11031 Y14.72503
G01 X45.10401 Y14.72180
G01 X45.11031 Y14.72503
G01 X45.13089 Y14.68939
G01 X45.15839 Y14.65884
G01 X45.19167 Y14.63466
G01 X45.18783 Y14.62874
G01 X45.19167 Y14.63466
G01 X45.22924 Y14.61794
G01 X45.26947 Y14.60938
G01 X45.26899 Y14.60494
G01 X45.26947 Y14.60938
G01 X45.31057 Y14.60938
G01 X45.35080 Y14.61794
G01 X45.35217 Y14.61368
G01 X45.35080 Y14.61794
G01 X45.38837 Y14.63466
G01 X45.42164 Y14.65884
G01 X45.42461 Y14.65551
G01 X45.42164 Y14.65884
G01 X45.44915 Y14.68939
G01 X45.46970 Y14.72500
G01 X45.47379 Y14.72318
G01 X45.46970 Y14.72500
G01 X45.48242 Y14.76409
G01 X45.48672 Y14.80501
G04 P0 ( dwell for no time -- G64 should not smooth over this point )
G00 Z0.50000 ( retract )

G00 X45.88890 Y12.26501 ( rapid move to begin. )
G01 F100.00000
( Mill infeed pass 1/1 )
G01 Z-0.25000
G04 P0 ( dwell for no time -- G64 should not smooth over this point )
G01 F200.00000
G01 X45.88890 Y12.26501
G01 X45.87582 Y12.14050
G01 X45.83713 Y12.02143
G01 X45.77452 Y11.91297
G01 X45.69075 Y11.81996
G01 X45.58948 Y11.74635
G01 X45.47508 Y11.69542
G01 X45.35260 Y11.66938
G01 X45.22741 Y11.66938
G01 X45.10495 Y11.69542
G01 X44.99055 Y11.74635
G01 X44.88926 Y11.81996
G01 X44.80549 Y11.91297
G01 X44.74290 Y12.02143
G01 X44.70419 Y12.14050
G01 X44.69111 Y12.26501
G01 X44.70419 Y12.38952
G01 X44.74290 Y12.50863
G01 X44.80549 Y12.61703
G01 X44.88928 Y12.71010
G01 X44.99058 Y12.78368
G01 X45.10493 Y12.83458
G01 X45.22741 Y12.86064
G01 X45.35260 Y12.86064
G01 X45.47511 Y12.83458
G01 X45.58948 Y12.78366
G01 X45.69075 Y12.71010
G01 X45.77452 Y12.61703
G01 X45.83713 Y12.50860
G01 X45.87582 Y12.38952
G01 X45.88890 Y12.26501
G01 X45.68781 Y12.26501
G01 X45.67912 Y12.18231
G01 X45.68349 Y12.18137
G01 X45.67912 Y12.18231
G01 X45.65342 Y12.10322
G01 X45.61184 Y12.03121
G01 X45.61547 Y12.02857
G01 X45.61184 Y12.03121
G01 X45.55618 Y11.96941
G01 X45.48893 Y11.92051
G01 X45.49116 Y11.91665
G01 X45.48893 Y11.92051
G01 X45.41293 Y11.88668
G01 X45.33160 Y11.86938
G01 X45.33205 Y11.86496
G01 X45.33160 Y11.86938
G01 X45.24844 Y11.86938
G01 X45.16711 Y11.88668
G01 X45.16571 Y11.88244
G01 X45.16711 Y11.88668
G01 X45.09111 Y11.92051
G01 X45.02228 Y11.96745
G01 X44.96609 Y12.02984
G01 X44.92659 Y12.10322
G01 X44.90092 Y12.18231
G01 X44.89655 Y12.18137
G01 X44.90092 Y12.18231
G01 X44.89220 Y12.26501
G01 X44.90092 Y12.34772
G01 X44.89655 Y12.34866
G01 X44.90092 Y12.34772
G01 X44.92659 Y12.42681
G01 X44.96820 Y12.49885
G01 X44.96457 Y12.50146
G01 X44.96820 Y12.49885
G01 X45.02383 Y12.56064
G01 X45.09111 Y12.60951
G01 X45.08888 Y12.61338
G01 X45.09111 Y12.60951
G01 X45.16711 Y12.64335
G01 X45.24801 Y12.66311
G01 X45.33200 Y12.66311
G01 X45.41293 Y12.64335
G01 X45.48893 Y12.60951
G01 X45.49116 Y12.61338
G01 X45.48893 Y12.60951
G01 X45.55618 Y12.56064
G01 X45.61184 Y12.49885
G01 X45.61544 Y12.50146
G01 X45.61184 Y12.49885
G01 X45.65342 Y12.42681
G01 X45.67912 Y12.34772
G01 X45.68349 Y12.34866
G01 X45.67912 Y12.34772
G01 X45.68781 Y12.26501
G01 X45.48672 Y12.26501
G01 X45.48242 Y12.30593
G01 X45.46970 Y12.34502
G01 X45.47630 Y12.34754
G01 X45.46970 Y12.34502
G01 X45.44915 Y12.38063
G01 X45.42164 Y12.41119
G01 X45.42461 Y12.41452
G01 X45.42164 Y12.41119
G01 X45.38837 Y12.43537
G01 X45.35080 Y12.45209
G01 X45.35217 Y12.45635
G01 X45.35080 Y12.45209
G01 X45.31059 Y12.46064
G01 X45.26942 Y12.46064
G01 X45.26896 Y12.46509
G01 X45.26942 Y12.46064
G01 X45.22924 Y12.45209
G01 X45.19167 Y12.43537
G01 X45.18783 Y12.44129
G01 X45.19167 Y12.43537
G01 X45.15839 Y12.41119
G01 X45.13089 Y12.38063
G01 X45.11031 Y12.34500
G01 X45.10401 Y12.34820
G01 X45.11031 Y12.34500
G01 X45.09761 Y12.30593
G01 X45.09332 Y12.26501
G01 X45.08885 Y12.26501
G01 X45.09332 Y12.26501
G01 X45.09761 Y12.22409
G01 X45.11031 Y12.18503
G01 X45.10622 Y12.18320
G01 X45.11031 Y12.18503
G01 X45.13089 Y12.14939
G01 X45.15839 Y12.11886
G01 X45.15540 Y12.11551
G01 X45.15839 Y12.11886
G01 X45.19167 Y12.09466
G01 X45.22924 Y12.07794
G01 X45.22786 Y12.07368
G01 X45.22924 Y12.07794
G01 X45.26942 Y12.06938
G01 X45.31059 Y12.06938
G01 X45.31105 Y12.06496
G01 X45.31059 Y12.06938
G01 X45.35080 Y12.07794
G01 X45.38837 Y12.09466
G01 X45.39060 Y12.09080
G01 X45.38837 Y12.09466
G01 X45.42164 Y12.11886
G01 X45.44915 Y12.14939
G01 X45.45276 Y12.14678
G01 X45.44915 Y12.14939
G01 X45.46970 Y12.18503
G01 X45.48242 Y12.22409
G01 X45.48938 Y12.22300
G01 X45.48242 Y12.22409
G01 X45.48672 Y12.26501
G04 P0 ( dwell for no time -- G64 should not smooth over this point )
G00 Z0.50000 ( retract )

G00 X38.26890 Y12.26501 ( rapid move to begin. )
G01 F100.00000
( Mill infeed pass 1/1 )
G01 Z-0.25000
G04 P0 ( dwell for no time -- G64 should not smooth over this point )
G01 F200.00000
G01 X38.26890 Y12.26501
G01 X38.25582 Y12.14048
G01 X38.21713 Y12.02143
G01 X38.15455 Y11.91300
G01 X38.07075 Y11.81996
G01 X37.96948 Y11.74637
G01 X37.85508 Y11.69542
G01 X37.73260 Y11.66938
G01 X37.60741 Y11.66938
G01 X37.48495 Y11.69542
G01 X37.37055 Y11.74635
G01 X37.26926 Y11.81996
G01 X37.18549 Y11.91300
G01 X37.12288 Y12.02143
G01 X37.08419 Y12.14048
G01 X37.07111 Y12.26501
G01 X37.08419 Y12.38955
G01 X37.12290 Y12.50860
G01 X37.18549 Y12.61703
G01 X37.26928 Y12.71007
G01 X37.37055 Y12.78368
G01 X37.48495 Y12.83461
G01 X37.60741 Y12.86064
G01 X37.73260 Y12.86064
G01 X37.85508 Y12.83461
G01 X37.96948 Y12.78366
G01 X38.07075 Y12.71007
G01 X38.15455 Y12.61703
G01 X38.21713 Y12.50863
G01 X38.25582 Y12.38955
G01 X38.26890 Y12.26501
G01 X38.06781 Y12.26501
G01 X38.05912 Y12.18231
G01 X38.03342 Y12.10322
G01 X38.03750 Y12.10141
G01 X38.03342 Y12.10322
G01 X37.99184 Y12.03121
G01 X37.93618 Y11.96941
G01 X37.93918 Y11.96606
G01 X37.93618 Y11.96941
G01 X37.86890 Y11.92051
G01 X37.79293 Y11.88668
G01 X37.79430 Y11.88244
G01 X37.79293 Y11.88668
G01 X37.71160 Y11.86938
G01 X37.62844 Y11.86938
G01 X37.62796 Y11.86496
G01 X37.62844 Y11.86938
G01 X37.54708 Y11.88668
G01 X37.47111 Y11.92051
G01 X37.46888 Y11.91663
G01 X37.47111 Y11.92051
G01 X37.40385 Y11.96941
G01 X37.34624 Y12.02963
G01 X37.30428 Y12.10233
G01 X37.28089 Y12.18234
G01 X37.27220 Y12.26501
G01 X37.26773 Y12.26501
G01 X37.27220 Y12.26501
G01 X37.28089 Y12.34769
G01 X37.30659 Y12.42681
G01 X37.30253 Y12.42862
G01 X37.30659 Y12.42681
G01 X37.34820 Y12.49885
G01 X37.40383 Y12.56064
G01 X37.40085 Y12.56395
G01 X37.40383 Y12.56064
G01 X37.47111 Y12.60951
G01 X37.54711 Y12.64335
G01 X37.54571 Y12.64759
G01 X37.54711 Y12.64335
G01 X37.62841 Y12.66064
G01 X37.71162 Y12.66064
G01 X37.71208 Y12.66509
G01 X37.71162 Y12.66064
G01 X37.79293 Y12.64335
G01 X37.86890 Y12.60951
G01 X37.87113 Y12.61338
G01 X37.86890 Y12.60951
G01 X37.93621 Y12.56062
G01 X37.99377 Y12.50042
G01 X38.03575 Y12.42770
G01 X38.05912 Y12.34772
G01 X38.06781 Y12.26501
G01 X37.86672 Y12.26501
G01 X37.86242 Y12.30593
G01 X37.86679 Y12.30685
G01 X37.86242 Y12.30593
G01 X37.84972 Y12.34500
G01 X37.82915 Y12.38063
G01 X37.83276 Y12.38325
G01 X37.82915 Y12.38063
G01 X37.80164 Y12.41119
G01 X37.76837 Y12.43537
G01 X37.77060 Y12.43923
G01 X37.76837 Y12.43537
G01 X37.73080 Y12.45209
G01 X37.69059 Y12.46064
G01 X37.69097 Y12.46768
G01 X37.69059 Y12.46064
G01 X37.64944 Y12.46064
G01 X37.60924 Y12.45209
G01 X37.57167 Y12.43537
G01 X37.56847 Y12.44165
G01 X37.57167 Y12.43537
G01 X37.53840 Y12.41119
G01 X37.51089 Y12.38063
G01 X37.50725 Y12.38325
G01 X37.51089 Y12.38063
G01 X37.49031 Y12.34502
G01 X37.47761 Y12.30591
G01 X37.47063 Y12.30700
G01 X37.47761 Y12.30591
G01 X37.47332 Y12.26501
G01 X37.47761 Y12.22412
G01 X37.49031 Y12.18503
G01 X37.48373 Y12.18249
G01 X37.49031 Y12.18503
G01 X37.51089 Y12.14939
G01 X37.53840 Y12.11886
G01 X37.53540 Y12.11551
G01 X37.53840 Y12.11886
G01 X37.57167 Y12.09466
G01 X37.60924 Y12.07794
G01 X37.60786 Y12.07368
G01 X37.60924 Y12.07794
G01 X37.64944 Y12.06938
G01 X37.69059 Y12.06938
G01 X37.69107 Y12.06496
G01 X37.69059 Y12.06938
G01 X37.73080 Y12.07794
G01 X37.76837 Y12.09466
G01 X37.77060 Y12.09080
G01 X37.76837 Y12.09466
G01 X37.80164 Y12.11886
G01 X37.82915 Y12.14939
G01 X37.83276 Y12.14678
G01 X37.82915 Y12.14939
G01 X37.84972 Y12.18503
G01 X37.86242 Y12.22409
G01 X37.86679 Y12.22318
G01 X37.86242 Y12.22409
G01 X37.86672 Y12.26501
G04 P0 ( dwell for no time -- G64 should not smooth over this point )
G00 Z0.50000 ( retract )

G00 X38.26890 Y14.80501 ( rapid move to begin. )
G01 F100.00000
( Mill infeed pass 1/1 )
G01 Z-0.25000
G04 P0 ( dwell for no time -- G64 should not smooth over this point )
G01 F200.00000
G01 X38.26890 Y14.80501
G01 X38.25582 Y14.68048
G01 X38.21713 Y14.56143
G01 X38.15455 Y14.45300
G01 X38.07075 Y14.35993
G01 X37.96948 Y14.28637
G01 X37.85508 Y14.23542
G01 X37.73260 Y14.20938
G01 X37.60741 Y14.20938
G01 X37.48493 Y14.23542
G01 X37.37055 Y14.28635
G01 X37.26928 Y14.35996
G01 X37.18549 Y14.45300
G01 X37.12288 Y14.56143
G01 X37.08419 Y14.68048
G01 X37.07111 Y14.80501
G01 X37.08419 Y14.92955
G01 X37.12288 Y15.04860
G01 X37.18549 Y15.15703
G01 X37.26926 Y15.25007
G01 X37.37055 Y15.32368
G01 X37.48495 Y15.37461
G01 X37.60743 Y15.40064
G01 X37.73260 Y15.40064
G01 X37.85506 Y15.37461
G01 X37.96946 Y15.32368
G01 X38.07075 Y15.25007
G01 X38.15455 Y15.15703
G01 X38.21713 Y15.04860
G01 X38.25582 Y14.92955
G01 X38.26890 Y14.80501
G01 X38.06781 Y14.80501
G01 X38.05912 Y14.72231
G01 X38.03342 Y14.64322
G01 X38.03750 Y14.64139
G01 X38.03342 Y14.64322
G01 X37.99184 Y14.57118
G01 X37.93621 Y14.50938
G01 X37.93918 Y14.50608
G01 X37.93621 Y14.50938
G01 X37.86890 Y14.46051
G01 X37.79293 Y14.42668
G01 X37.79430 Y14.42241
G01 X37.79293 Y14.42668
G01 X37.71162 Y14.40938
G01 X37.62841 Y14.40938
G01 X37.62793 Y14.40494
G01 X37.62841 Y14.40938
G01 X37.54711 Y14.42668
G01 X37.47111 Y14.46051
G01 X37.46888 Y14.45665
G01 X37.47111 Y14.46051
G01 X37.40383 Y14.50938
G01 X37.34624 Y14.56961
G01 X37.30428 Y14.64233
G01 X37.28089 Y14.72234
G01 X37.27220 Y14.80501
G01 X37.26773 Y14.80501
G01 X37.27220 Y14.80501
G01 X37.28089 Y14.88769
G01 X37.30659 Y14.96681
G01 X37.30253 Y14.96862
G01 X37.30659 Y14.96681
G01 X37.34817 Y15.03882
G01 X37.40385 Y15.10064
G01 X37.40085 Y15.10397
G01 X37.40385 Y15.10064
G01 X37.47111 Y15.14951
G01 X37.54708 Y15.18335
G01 X37.54571 Y15.18759
G01 X37.54708 Y15.18335
G01 X37.62844 Y15.20064
G01 X37.71160 Y15.20064
G01 X37.71205 Y15.20509
G01 X37.71160 Y15.20064
G01 X37.79293 Y15.18335
G01 X37.86890 Y15.14951
G01 X37.87113 Y15.15340
G01 X37.86890 Y15.14951
G01 X37.93618 Y15.10064
G01 X37.99379 Y15.04040
G01 X38.03575 Y14.96770
G01 X38.05912 Y14.88772
G01 X38.06781 Y14.80501
G01 X37.86672 Y14.80501
G01 X37.86242 Y14.84593
G01 X37.84972 Y14.88500
G01 X37.85379 Y14.88683
G01 X37.84972 Y14.88500
G01 X37.82915 Y14.92063
G01 X37.80164 Y14.95119
G01 X37.80461 Y14.95452
G01 X37.80164 Y14.95119
G01 X37.76837 Y14.97537
G01 X37.73080 Y14.99209
G01 X37.73263 Y14.99889
G01 X37.73080 Y14.99209
G01 X37.69059 Y15.00064
G01 X37.64944 Y15.00064
G01 X37.60921 Y14.99209
G01 X37.60738 Y14.99889
G01 X37.60921 Y14.99209
G01 X37.57167 Y14.97537
G01 X37.53840 Y14.95119
G01 X37.53540 Y14.95452
G01 X37.53840 Y14.95119
G01 X37.51089 Y14.92063
G01 X37.49031 Y14.88502
G01 X37.48622 Y14.88683
G01 X37.49031 Y14.88502
G01 X37.47761 Y14.84591
G01 X37.47332 Y14.80501
G01 X37.46885 Y14.80501
G01 X37.47332 Y14.80501
G01 X37.47761 Y14.76412
G01 X37.49031 Y14.72500
G01 X37.48625 Y14.72318
G01 X37.49031 Y14.72500
G01 X37.51086 Y14.68939
G01 X37.53840 Y14.65884
G01 X37.53540 Y14.65551
G01 X37.53840 Y14.65884
G01 X37.57167 Y14.63466
G01 X37.60924 Y14.61794
G01 X37.60786 Y14.61368
G01 X37.60924 Y14.61794
G01 X37.64947 Y14.60938
G01 X37.69057 Y14.60938
G01 X37.69102 Y14.60494
G01 X37.69057 Y14.60938
G01 X37.73080 Y14.61794
G01 X37.76837 Y14.63466
G01 X37.77220 Y14.62874
G01 X37.76837 Y14.63466
G01 X37.80164 Y14.65884
G01 X37.82915 Y14.68939
G01 X37.84972 Y14.72503
G01 X37.85600 Y14.72180
G01 X37.84972 Y14.72503
G01 X37.86242 Y14.76409
G01 X37.86672 Y14.80501
G04 P0 ( dwell for no time -- G64 should not smooth over this point )
G00 Z0.50000 ( retract )

G00 X38.26890 Y17.34501 ( rapid move to begin. )
G01 F100.00000
( Mill infeed pass 1/1 )
