( pcb2gcode 2.4.0 )
( Software-independent Gcode )

G94 ( Millimeters per minute feed rate. )
G21 ( Units == Millimeters. )

G90 ( Absolute coordinates. )
G00 S1000 ( RPM spindle speed. )
G64 P0.01016 ( set maximum deviation from commanded toolpath )
G01 F200.00000 ( Feedrate. )


G00 Z0.50000 (Retract to tool change height)
T0
M5      (Spindle stop.)
G04 P1.00000 (Wait for spindle to stop)
(MSG, Change tool bit to mill diameter 0.40000mm)
M6      (Tool change.)
M0      (Temporary machine stop.)
M3 ( Spindle on clockwise. )
G04 P1.00000 (Wait for spindle to get up to speed)
G04 P0 ( dwell for no time -- G64 should not smooth over this point )
G00 Z0.50000 ( retract )

G00 X55.72502 Y29.16000 ( rapid move to begin. )
G01 F100.00000
( Mill infeed pass 1/1 )
G01 Z-0.15000
G04 P0 ( dwell for no time -- G64 should not smooth over this point )
G01 F200.00000
G01 X55.72502 Y29.16000
G01 X55.72502 Y30.96002
G01 X53.92500 Y30.96000
G01 X53.92500 Y29.16003
G01 X55.72502 Y29.16000
G01 X55.52502 Y29.36000
G01 X55.52502 Y30.76002
G01 X55.58360 Y30.81860
G01 X55.52502 Y30.76002
G01 X54.12500 Y30.76002
G01 X54.06643 Y30.81860
G01 X54.12500 Y30.76002
G01 X54.12500 Y29.36000
G01 X54.06643 Y29.30143
G01 X54.12500 Y29.36000
G01 X55.52502 Y29.36000
G01 X55.32502 Y29.56000
G01 X55.32502 Y30.56002
G01 X55.38360 Y30.61860
G01 X55.32502 Y30.56002
G01 X54.32500 Y30.56002
G01 X54.26643 Y30.61860
G01 X54.32500 Y30.56002
G01 X54.32500 Y29.56000
G01 X54.26643 Y29.50143
G01 X54.32500 Y29.56000
G01 X55.32502 Y29.56000
G01 X55.12502 Y29.76000
G01 X55.12502 Y30.36002
G01 X55.18360 Y30.41860
G01 X55.12502 Y30.36002
G01 X54.52500 Y30.36002
G01 X54.46643 Y30.41860
G01 X54.52500 Y30.36002
G01 X54.52500 Y29.76000
G01 X54.46643 Y29.70143
G01 X54.52500 Y29.76000
G01 X55.12502 Y29.76000
G01 X54.92503 Y29.96000
G01 X54.92503 Y30.16003
G01 X54.98360 Y30.21860
G01 X54.92503 Y30.16003
G01 X54.72500 Y30.16003
G01 X54.66643 Y30.21860
G01 X54.72500 Y30.16003
G01 X54.72500 Y29.96000
G01 X54.66643 Y29.90143
G01 X54.72500 Y29.96000
G01 X54.92503 Y29.96000
G04 P0 ( dwell for no time -- G64 should not smooth over this point )
G00 Z0.50000 ( retract )

G00 X54.91136 Y27.55846 ( rapid move to begin. )
G01 F100.00000
( Mill infeed pass 1/1 )
G01 Z-0.15000
G04 P0 ( dwell for no time -- G64 should not smooth over this point )
G01 F200.00000
G01 X54.91136 Y27.55846
G01 X54.88827 Y27.59023
G01 X54.85421 Y27.60989
G01 X54.86005 Y27.62790
G01 X54.85421 Y27.60989
G01 X54.81512 Y27.61401
G01 X54.77776 Y27.60186
G01 X54.76831 Y27.61825
G01 X54.77776 Y27.60186
G01 X54.74855 Y27.57555
G01 X54.73257 Y27.53966
G01 X54.71883 Y27.54334
G01 X54.73257 Y27.53966
G01 X54.73257 Y27.50037
G01 X54.73869 Y27.48157
G01 X54.72599 Y27.47512
G01 X54.73869 Y27.48157
G01 X54.76178 Y27.44979
G01 X54.79582 Y27.43013
G01 X54.78995 Y27.41213
G01 X54.79582 Y27.43013
G01 X54.83488 Y27.42602
G01 X54.87227 Y27.43816
G01 X54.87872 Y27.42549
G01 X54.87227 Y27.43816
G01 X54.90145 Y27.46445
G01 X54.91136 Y27.48160
G01 X54.92464 Y27.47649
G01 X54.91136 Y27.48160
G01 X54.91951 Y27.52003
G01 X54.91136 Y27.55846
G01 X54.92863 Y27.56615
G01 X55.12061 Y27.52000
G01 X55.11415 Y27.58149
G01 X55.11852 Y27.58241
G01 X55.11415 Y27.58149
G01 X55.09505 Y27.64024
G01 X55.06417 Y27.69376
G01 X55.06777 Y27.69638
G01 X55.06417 Y27.69376
G01 X55.02282 Y27.73968
G01 X54.97280 Y27.77601
G01 X54.97504 Y27.77989
G01 X54.97280 Y27.77601
G01 X54.91636 Y27.80115
G01 X54.85591 Y27.81401
G01 X54.85639 Y27.81845
G01 X54.85591 Y27.81401
G01 X54.79411 Y27.81401
G01 X54.73366 Y27.80115
G01 X54.73229 Y27.80539
G01 X54.73366 Y27.80115
G01 X54.67722 Y27.77601
G01 X54.62564 Y27.74162
G01 X54.58378 Y27.69511
G01 X54.55497 Y27.64024
G01 X54.53587 Y27.58149
G01 X54.53150 Y27.58241
G01 X54.53587 Y27.58149
G01 X54.52942 Y27.52003
G01 X54.53587 Y27.45853
G01 X54.53150 Y27.45762
G01 X54.53587 Y27.45853
G01 X54.55495 Y27.39978
G01 X54.58586 Y27.34626
G01 X54.58225 Y27.34365
G01 X54.58586 Y27.34626
G01 X54.62724 Y27.30032
G01 X54.67720 Y27.26402
G01 X54.67496 Y27.26016
G01 X54.67720 Y27.26402
G01 X54.73366 Y27.23887
G01 X54.79414 Y27.22602
G01 X54.79366 Y27.22158
G01 X54.79414 Y27.22602
G01 X54.85589 Y27.22602
G01 X54.91636 Y27.23887
G01 X54.91774 Y27.23463
G01 X54.91636 Y27.23887
G01 X54.97283 Y27.26402
G01 X55.02436 Y27.29839
G01 X55.06625 Y27.34492
G01 X55.09508 Y27.39978
G01 X55.11415 Y27.45853
G01 X55.11852 Y27.45762
G01 X55.11415 Y27.45853
G01 X55.12061 Y27.52000
G01 X55.52281 Y27.52000
G01 X55.50864 Y27.66534
G01 X55.46351 Y27.80428
G01 X55.39043 Y27.93082
G01 X55.29266 Y28.03940
G01 X55.17448 Y28.12528
G01 X55.04100 Y28.18472
G01 X54.89805 Y28.21510
G01 X54.75197 Y28.21510
G01 X54.60902 Y28.18472
G01 X54.47557 Y28.12528
G01 X54.35736 Y28.03940
G01 X54.25960 Y27.93082
G01 X54.18652 Y27.80428
G01 X54.14138 Y27.66529
G01 X54.12612 Y27.52000
G01 X54.14138 Y27.37474
G01 X54.18652 Y27.23575
G01 X54.25960 Y27.10921
G01 X54.35736 Y27.00062
G01 X54.47557 Y26.91474
G01 X54.60902 Y26.85531
G01 X54.75197 Y26.82493
G01 X54.89805 Y26.82493
G01 X55.04100 Y26.85531
G01 X55.17448 Y26.91474
G01 X55.29266 Y27.00062
G01 X55.39043 Y27.10921
G01 X55.46351 Y27.23575
G01 X55.50864 Y27.37469
G01 X55.52281 Y27.52000
G01 X55.72391 Y27.52003
G01 X55.70427 Y27.70689
G01 X55.64621 Y27.88563
G01 X55.55223 Y28.04837
G01 X55.44214 Y28.17065
G01 X55.42650 Y28.18802
G01 X55.27445 Y28.29848
G01 X55.10277 Y28.37491
G01 X54.91901 Y28.41398
G01 X54.73102 Y28.41398
G01 X54.71283 Y28.41012
G01 X54.54725 Y28.37491
G01 X54.37555 Y28.29848
G01 X54.22353 Y28.18802
G01 X54.20788 Y28.17065
G01 X54.09780 Y28.04837
G01 X54.00382 Y27.88563
G01 X53.94575 Y27.70689
G01 X53.92612 Y27.52000
G01 X53.94575 Y27.33311
G01 X54.00384 Y27.15439
G01 X54.09780 Y26.99165
G01 X54.22350 Y26.85201
G01 X54.37555 Y26.74154
G01 X54.54725 Y26.66511
G01 X54.73102 Y26.62605
G01 X54.91901 Y26.62605
G01 X55.10277 Y26.66511
G01 X55.27448 Y26.74154
G01 X55.33475 Y26.78533
G01 X55.42652 Y26.85201
G01 X55.55223 Y26.99165
G01 X55.64621 Y27.15439
G01 X55.70427 Y27.33313
G01 X55.72391 Y27.52003
G01 X55.32172 Y27.52003
G01 X55.31194 Y27.41650
G01 X55.27979 Y27.31754
G01 X55.22774 Y27.22742
G01 X55.15810 Y27.15007
G01 X55.07392 Y27.08891
G01 X54.97882 Y27.04657
G01 X54.87704 Y27.02493
G01 X54.77298 Y27.02493
G01 X54.67118 Y27.04657
G01 X54.57611 Y27.08891
G01 X54.49193 Y27.15007
G01 X54.42228 Y27.22742
G01 X54.37024 Y27.31754
G01 X54.33808 Y27.41652
G01 X54.32721 Y27.52000
G01 X54.33808 Y27.62351
G01 X54.37024 Y27.72249
G01 X54.42228 Y27.81261
G01 X54.49193 Y27.88995
G01 X54.57611 Y27.95111
G01 X54.67118 Y27.99346
G01 X54.77298 Y28.01510
G01 X54.87704 Y28.01510
G01 X54.97882 Y27.99346
G01 X55.07392 Y27.95111
G01 X55.15810 Y27.88995
G01 X55.22774 Y27.81261
G01 X55.27979 Y27.72249
G01 X55.31194 Y27.62353
G01 X55.32172 Y27.52003
G04 P0 ( dwell for no time -- G64 should not smooth over this point )
G00 Z0.50000 ( retract )

G00 X55.32172 Y24.98003 ( rapid move to begin. )
G01 F100.00000
( Mill infeed pass 1/1 )
G01 Z-0.15000
G04 P0 ( dwell for no time -- G64 should not smooth over this point )
G01 F200.00000
G01 X55.32172 Y24.98003
G01 X55.31194 Y25.08353
G01 X55.27979 Y25.18249
G01 X55.22774 Y25.27263
G01 X55.15810 Y25.34995
G01 X55.07392 Y25.41111
G01 X54.97885 Y25.45346
G01 X54.87704 Y25.47510
G01 X54.77298 Y25.47510
G01 X54.67118 Y25.45346
G01 X54.57611 Y25.41111
G01 X54.49190 Y25.34995
G01 X54.42228 Y25.27263
G01 X54.37024 Y25.18249
G01 X54.33808 Y25.08351
G01 X54.32721 Y24.98000
G01 X54.33808 Y24.87652
G01 X54.37024 Y24.77754
G01 X54.42228 Y24.68742
G01 X54.49193 Y24.61007
G01 X54.57611 Y24.54891
G01 X54.67118 Y24.50657
G01 X54.77298 Y24.48493
G01 X54.87704 Y24.48493
G01 X54.97882 Y24.50657
G01 X55.07392 Y24.54891
G01 X55.15810 Y24.61007
G01 X55.22774 Y24.68742
G01 X55.27979 Y24.77754
G01 X55.31194 Y24.87650
G01 X55.32172 Y24.98003
G01 X55.72391 Y24.98003
G01 X55.70427 Y24.79313
G01 X55.64621 Y24.61439
G01 X55.55223 Y24.45165
G01 X55.42650 Y24.31201
G01 X55.27448 Y24.20154
G01 X55.10280 Y24.12511
G01 X54.91898 Y24.08605
G01 X54.73105 Y24.08605
G01 X54.54723 Y24.12511
G01 X54.37555 Y24.20154
G01 X54.22353 Y24.31201
G01 X54.09780 Y24.45165
G01 X54.00382 Y24.61439
G01 X53.94575 Y24.79311
G01 X53.92612 Y24.98000
G01 X53.94575 Y25.16689
G01 X54.00382 Y25.34563
G01 X54.09780 Y25.50837
G01 X54.22353 Y25.64802
G01 X54.37555 Y25.75848
G01 X54.54725 Y25.83491
G01 X54.73107 Y25.87398
G01 X54.91895 Y25.87398
G01 X55.01088 Y25.85445
G01 X55.10277 Y25.83491
G01 X55.27445 Y25.75848
G01 X55.42650 Y25.64802
G01 X55.55223 Y25.50837
G01 X55.64621 Y25.34563
G01 X55.70427 Y25.16689
G01 X55.72391 Y24.98003
G01 X55.52281 Y24.98000
G01 X55.50864 Y24.83469
G01 X55.46351 Y24.69575
G01 X55.39045 Y24.56921
G01 X55.29266 Y24.46062
G01 X55.17445 Y24.37474
G01 X55.04100 Y24.31531
G01 X54.89808 Y24.28493
G01 X54.75192 Y24.28493
G01 X54.60902 Y24.31531
G01 X54.47557 Y24.37474
G01 X54.35736 Y24.46062
G01 X54.25960 Y24.56921
G01 X54.18652 Y24.69575
G01 X54.14138 Y24.83474
G01 X54.12612 Y24.98000
G01 X54.14138 Y25.12529
G01 X54.18655 Y25.26428
G01 X54.25960 Y25.39082
G01 X54.35736 Y25.49940
G01 X54.47557 Y25.58528
G01 X54.60905 Y25.64472
G01 X54.75195 Y25.67510
G01 X54.89808 Y25.67510
G01 X55.04098 Y25.64472
G01 X55.17448 Y25.58528
G01 X55.29266 Y25.49940
G01 X55.39043 Y25.39082
G01 X55.46348 Y25.26428
G01 X55.50864 Y25.12534
G01 X55.52281 Y24.98000
G01 X55.12061 Y24.98000
G01 X55.11415 Y24.91853
G01 X55.11852 Y24.91762
G01 X55.11415 Y24.91853
G01 X55.09505 Y24.85978
G01 X55.06625 Y24.80492
G01 X55.02439 Y24.75841
G01 X54.97280 Y24.72402
G01 X54.91636 Y24.69887
G01 X54.91774 Y24.69463
G01 X54.91636 Y24.69887
G01 X54.85591 Y24.68602
G01 X54.79411 Y24.68602
G01 X54.79363 Y24.68158
G01 X54.79411 Y24.68602
G01 X54.73366 Y24.69887
G01 X54.67722 Y24.72402
G01 X54.67499 Y24.72013
G01 X54.67722 Y24.72402
G01 X54.62721 Y24.76034
G01 X54.58586 Y24.80626
G01 X54.58225 Y24.80365
G01 X54.58586 Y24.80626
G01 X54.55497 Y24.85978
G01 X54.53587 Y24.91853
G01 X54.53150 Y24.91762
G01 X54.53587 Y24.91853
G01 X54.52942 Y24.98003
G01 X54.53587 Y25.04149
G01 X54.53150 Y25.04241
G01 X54.53587 Y25.04149
G01 X54.55495 Y25.10024
G01 X54.58378 Y25.15511
G01 X54.62566 Y25.20164
G01 X54.67720 Y25.23601
G01 X54.73366 Y25.26115
G01 X54.73229 Y25.26539
G01 X54.73366 Y25.26115
G01 X54.79414 Y25.27401
G01 X54.85589 Y25.27401
G01 X54.85637 Y25.27845
G01 X54.85589 Y25.27401
G01 X54.91636 Y25.26115
G01 X54.97283 Y25.23601
G01 X54.97506 Y25.23987
G01 X54.97283 Y25.23601
G01 X55.02279 Y25.19971
G01 X55.06417 Y25.15376
G01 X55.06777 Y25.15638
G01 X55.06417 Y25.15376
G01 X55.09508 Y25.10024
G01 X55.11415 Y25.04149
G01 X55.11852 Y25.04241
G01 X55.11415 Y25.04149
G01 X55.12061 Y24.98000
G01 X54.93120 Y24.95668
G01 X54.91746 Y24.96037
G01 X54.91746 Y24.99966
G01 X54.91136 Y25.01843
G01 X54.92403 Y25.02491
G01 X54.91136 Y25.01843
G01 X54.88825 Y25.05023
G01 X54.85421 Y25.06989
G01 X54.86008 Y25.08790
G01 X54.85421 Y25.06989
G01 X54.81514 Y25.07401
G01 X54.77776 Y25.06186
G01 X54.76831 Y25.07825
G01 X54.77776 Y25.06186
G01 X54.74855 Y25.03555
G01 X54.73257 Y24.99966
G01 X54.71883 Y25.00334
G01 X54.73257 Y24.99966
G01 X54.73257 Y24.96037
G01 X54.73869 Y24.94157
G01 X54.72599 Y24.93509
G01 X54.73869 Y24.94157
G01 X54.76175 Y24.90979
G01 X54.79582 Y24.89013
G01 X54.78997 Y24.87213
G01 X54.79582 Y24.89013
G01 X54.83491 Y24.88602
G01 X54.87227 Y24.89816
G01 X54.88174 Y24.88178
G01 X54.87227 Y24.89816
G01 X54.90145 Y24.92445
G01 X54.91746 Y24.96037
G04 P0 ( dwell for no time -- G64 should not smooth over this point )
G00 Z0.50000 ( retract )

G00 X55.32172 Y22.44003 ( rapid move to begin. )
G01 F100.00000
( Mill infeed pass 1/1 )
G01 Z-0.15000
G04 P0 ( dwell for no time -- G64 should not smooth over this point )
G01 F200.00000
G01 X55.32172 Y22.44003
G01 X55.31194 Y22.54353
G01 X55.27979 Y22.64249
G01 X55.22774 Y22.73263
G01 X55.15810 Y22.80995
G01 X55.07392 Y22.87111
G01 X54.97885 Y22.91346
G01 X54.87707 Y22.93510
G01 X54.77296 Y22.93510
G01 X54.67118 Y22.91346
G01 X54.57611 Y22.87111
G01 X54.49190 Y22.80995
G01 X54.42228 Y22.73263
G01 X54.37024 Y22.64249
G01 X54.33808 Y22.54351
G01 X54.32721 Y22.44000
G01 X54.33808 Y22.33652
G01 X54.37024 Y22.23754
G01 X54.42228 Y22.14742
G01 X54.49190 Y22.07007
G01 X54.57611 Y22.00891
G01 X54.67118 Y21.96657
G01 X54.77296 Y21.94493
G01 X54.87707 Y21.94493
G01 X54.97885 Y21.96657
G01 X55.07392 Y22.00891
G01 X55.15810 Y22.07007
G01 X55.22774 Y22.14742
G01 X55.27979 Y22.23754
G01 X55.31194 Y22.33650
G01 X55.32172 Y22.44003
G01 X55.72391 Y22.44000
G01 X55.70427 Y22.25313
G01 X55.64621 Y22.07439
G01 X55.55223 Y21.91165
G01 X55.42650 Y21.77201
G01 X55.27448 Y21.66154
G01 X55.10277 Y21.58511
G01 X54.91895 Y21.54605
G01 X54.73107 Y21.54605
G01 X54.54725 Y21.58511
G01 X54.37555 Y21.66154
G01 X54.22353 Y21.77201
G01 X54.09780 Y21.91165
G01 X54.00382 Y22.07439
G01 X53.94575 Y22.25313
G01 X53.92612 Y22.44000
G01 X53.94575 Y22.62689
G01 X54.00382 Y22.80563
G01 X54.09780 Y22.96837
G01 X54.22353 Y23.10805
G01 X54.37557 Y23.21848
G01 X54.54723 Y23.29491
G01 X54.73107 Y23.33398
G01 X54.91895 Y23.33398
G01 X55.10280 Y23.29491
G01 X55.27445 Y23.21848
G01 X55.42650 Y23.10805
G01 X55.55223 Y22.96837
G01 X55.64621 Y22.80563
G01 X55.70427 Y22.62689
G01 X55.72391 Y22.44000
G01 X55.52281 Y22.44003
G01 X55.50864 Y22.29471
G01 X55.46351 Y22.15575
G01 X55.39045 Y22.02921
G01 X55.29266 Y21.92062
G01 X55.17448 Y21.83474
G01 X55.04098 Y21.77531
G01 X54.89808 Y21.74493
G01 X54.75195 Y21.74493
G01 X54.60905 Y21.77531
G01 X54.47557 Y21.83474
G01 X54.35736 Y21.92062
G01 X54.25960 Y22.02921
G01 X54.18652 Y22.15575
G01 X54.14138 Y22.29474
G01 X54.12612 Y22.44003
G01 X54.14138 Y22.58529
G01 X54.18652 Y22.72428
G01 X54.25960 Y22.85082
G01 X54.35736 Y22.95940
G01 X54.47557 Y23.04528
G01 X54.60905 Y23.10472
G01 X54.75195 Y23.13510
G01 X54.89808 Y23.13510
G01 X55.04098 Y23.10472
G01 X55.17448 Y23.04528
G01 X55.29266 Y22.95940
G01 X55.39045 Y22.85082
G01 X55.46351 Y22.72428
G01 X55.50864 Y22.58534
G01 X55.52281 Y22.44003
G01 X55.12061 Y22.44000
G01 X55.11415 Y22.37853
G01 X55.11852 Y22.37762
G01 X55.11415 Y22.37853
G01 X55.09508 Y22.31978
G01 X55.06417 Y22.26626
G01 X55.06777 Y22.26365
G01 X55.06417 Y22.26626
G01 X55.02279 Y22.22032
G01 X54.97283 Y22.18402
G01 X54.97506 Y22.18016
G01 X54.97283 Y22.18402
G01 X54.91636 Y22.15887
G01 X54.85589 Y22.14602
G01 X54.85637 Y22.14158
G01 X54.85589 Y22.14602
G01 X54.79414 Y22.14602
G01 X54.73366 Y22.15887
G01 X54.73229 Y22.15463
G01 X54.73366 Y22.15887
G01 X54.67720 Y22.18402
G01 X54.62566 Y22.21839
G01 X54.58378 Y22.26492
G01 X54.55495 Y22.31978
G01 X54.53587 Y22.37853
G01 X54.53150 Y22.37762
G01 X54.53587 Y22.37853
G01 X54.52942 Y22.44003
G01 X54.53587 Y22.50149
G01 X54.53150 Y22.50241
G01 X54.53587 Y22.50149
G01 X54.55497 Y22.56024
G01 X54.58586 Y22.61376
G01 X54.58225 Y22.61638
G01 X54.58586 Y22.61376
G01 X54.62721 Y22.65968
G01 X54.67722 Y22.69601
G01 X54.67499 Y22.69989
G01 X54.67722 Y22.69601
G01 X54.73366 Y22.72115
G01 X54.79411 Y22.73401
G01 X54.79363 Y22.73845
G01 X54.79411 Y22.73401
G01 X54.85591 Y22.73401
G01 X54.91636 Y22.72115
G01 X54.91774 Y22.72539
G01 X54.91636 Y22.72115
G01 X54.97280 Y22.69601
G01 X55.02439 Y22.66162
G01 X55.06625 Y22.61511
G01 X55.09505 Y22.56024
G01 X55.11415 Y22.50149
G01 X55.11852 Y22.50241
G01 X55.11415 Y22.50149
G01 X55.12061 Y22.44000
G01 X54.91951 Y22.44003
G01 X54.91136 Y22.47846
G01 X54.90145 Y22.49558
G01 X54.91253 Y22.50454
G01 X54.90145 Y22.49558
G01 X54.87227 Y22.52186
G01 X54.83488 Y22.53401
G01 X54.83684 Y22.55283
G01 X54.83488 Y22.53401
G01 X54.79579 Y22.52989
G01 X54.76178 Y22.51023
G01 X54.74910 Y22.52430
G01 X54.76178 Y22.51023
G01 X54.73869 Y22.47846
G01 X54.73051 Y22.44000
G01 X54.71159 Y22.44000
G01 X54.73051 Y22.44000
G01 X54.73869 Y22.40157
G01 X54.76178 Y22.36979
G01 X54.75172 Y22.35971
G01 X54.76178 Y22.36979
G01 X54.77776 Y22.35816
G01 X54.81514 Y22.34602
G01 X54.81438 Y22.33182
G01 X54.81514 Y22.34602
G01 X54.85421 Y22.35013
G01 X54.88825 Y22.36979
G01 X54.90092 Y22.35572
G01 X54.88825 Y22.36979
G01 X54.91136 Y22.40160
G01 X54.91951 Y22.44003
G04 P0 ( dwell for no time -- G64 should not smooth over this point )
G00 Z0.50000 ( retract )

G00 X55.32172 Y19.90003 ( rapid move to begin. )
G01 F100.00000
( Mill infeed pass 1/1 )
G01 Z-0.15000
G04 P0 ( dwell for no time -- G64 should not smooth over this point )
G01 F200.00000
G01 X55.32172 Y19.90003
G01 X55.31194 Y20.00353
G01 X55.27976 Y20.10251
G01 X55.22774 Y20.19261
G01 X55.15810 Y20.26995
G01 X55.07392 Y20.33111
G01 X54.97885 Y20.37346
G01 X54.87707 Y20.39510
G01 X54.77296 Y20.39510
G01 X54.67118 Y20.37346
G01 X54.57611 Y20.33111
G01 X54.49190 Y20.26995
G01 X54.42228 Y20.19261
G01 X54.37026 Y20.10251
G01 X54.33808 Y20.00351
G01 X54.32721 Y19.90000
G01 X54.33808 Y19.79652
G01 X54.37024 Y19.69754
G01 X54.42228 Y19.60739
G01 X54.49190 Y19.53007
G01 X54.57611 Y19.46891
G01 X54.67118 Y19.42657
G01 X54.77296 Y19.40493
G01 X54.87707 Y19.40493
G01 X54.97885 Y19.42657
G01 X55.07392 Y19.46891
G01 X55.15810 Y19.53007
G01 X55.22774 Y19.60739
G01 X55.27979 Y19.69754
G01 X55.31194 Y19.79650
G01 X55.32172 Y19.90003
G01 X55.72391 Y19.90003
G01 X55.70427 Y20.08689
G01 X55.64621 Y20.26563
G01 X55.55223 Y20.42837
G01 X55.42650 Y20.56802
G01 X55.27445 Y20.67848
G01 X55.10280 Y20.75491
G01 X54.91895 Y20.79398
G01 X54.73107 Y20.79398
G01 X54.54723 Y20.75491
G01 X54.37557 Y20.67848
G01 X54.28075 Y20.60960
G01 X54.22353 Y20.56802
G01 X54.09780 Y20.42837
G01 X54.00382 Y20.26563
G01 X53.94575 Y20.08689
G01 X53.92612 Y19.90003
G01 X53.94575 Y19.71313
G01 X54.00384 Y19.53439
G01 X54.09780 Y19.37165
G01 X54.22353 Y19.23201
G01 X54.37555 Y19.12154
G01 X54.54725 Y19.04511
G01 X54.63915 Y19.02558
G01 X54.73107 Y19.00605
G01 X54.91895 Y19.00605
G01 X55.10277 Y19.04511
G01 X55.27448 Y19.12154
G01 X55.42650 Y19.23201
G01 X55.55223 Y19.37165
G01 X55.64618 Y19.53439
G01 X55.70427 Y19.71313
G01 X55.72391 Y19.90003
G01 X55.52281 Y19.90000
G01 X55.50864 Y19.75469
G01 X55.46351 Y19.61575
G01 X55.39045 Y19.48921
G01 X55.29266 Y19.38062
G01 X55.17448 Y19.29474
G01 X55.04098 Y19.23531
G01 X54.89808 Y19.20493
G01 X54.75195 Y19.20493
G01 X54.60905 Y19.23531
G01 X54.47557 Y19.29474
G01 X54.35736 Y19.38062
G01 X54.25960 Y19.48921
G01 X54.18652 Y19.61575
G01 X54.14138 Y19.75474
G01 X54.12612 Y19.90000
G01 X54.14138 Y20.04529
G01 X54.18652 Y20.18428
G01 X54.25960 Y20.31082
G01 X54.35736 Y20.41940
G01 X54.47557 Y20.50528
G01 X54.60902 Y20.56472
G01 X54.75195 Y20.59510
G01 X54.89808 Y20.59510
G01 X55.04100 Y20.56472
G01 X55.17445 Y20.50528
G01 X55.29266 Y20.41940
G01 X55.39045 Y20.31082
G01 X55.46351 Y20.18428
G01 X55.50864 Y20.04531
G01 X55.52281 Y19.90000
G01 X55.12061 Y19.90000
G01 X55.11415 Y19.83853
G01 X55.11852 Y19.83762
G01 X55.11415 Y19.83853
G01 X55.09505 Y19.77978
G01 X55.06625 Y19.72492
G01 X55.02439 Y19.67841
G01 X54.97280 Y19.64402
G01 X54.91636 Y19.61887
G01 X54.91774 Y19.61463
G01 X54.91636 Y19.61887
G01 X54.85591 Y19.60602
G01 X54.79411 Y19.60602
G01 X54.79363 Y19.60158
G01 X54.79411 Y19.60602
G01 X54.73366 Y19.61887
G01 X54.67722 Y19.64402
G01 X54.67499 Y19.64013
G01 X54.67722 Y19.64402
G01 X54.62721 Y19.68034
G01 X54.58586 Y19.72626
G01 X54.58225 Y19.72365
G01 X54.58586 Y19.72626
G01 X54.55497 Y19.77978
G01 X54.53587 Y19.83853
G01 X54.53150 Y19.83762
G01 X54.53587 Y19.83853
G01 X54.52942 Y19.90003
G01 X54.53587 Y19.96149
G01 X54.53150 Y19.96241
G01 X54.53587 Y19.96149
G01 X54.55495 Y20.02024
G01 X54.58378 Y20.07511
G01 X54.62566 Y20.12164
G01 X54.67720 Y20.15601
G01 X54.73366 Y20.18115
G01 X54.73229 Y20.18539
G01 X54.73366 Y20.18115
G01 X54.79414 Y20.19401
G01 X54.85589 Y20.19401
G01 X54.85637 Y20.19845
G01 X54.85589 Y20.19401
G01 X54.91636 Y20.18115
G01 X54.97283 Y20.15601
G01 X54.97506 Y20.15987
G01 X54.97283 Y20.15601
G01 X55.02279 Y20.11971
G01 X55.06417 Y20.07376
G01 X55.06777 Y20.07638
G01 X55.06417 Y20.07376
G01 X55.09508 Y20.02024
G01 X55.11415 Y19.96149
G01 X55.11852 Y19.96241
G01 X55.11415 Y19.96149
G01 X55.12061 Y19.90000
G01 X54.93597 Y19.87643
G01 X54.91746 Y19.88037
G01 X54.91746 Y19.91966
G01 X54.90148 Y19.95555
G01 X54.91342 Y19.96332
G01 X54.90148 Y19.95555
G01 X54.87227 Y19.98186
G01 X54.85421 Y19.98989
G01 X54.85789 Y20.00363
G01 X54.85421 Y19.98989
G01 X54.81514 Y19.99401
G01 X54.77776 Y19.98186
G01 X54.76831 Y19.99825
G01 X54.77776 Y19.98186
G01 X54.74855 Y19.95555
G01 X54.73257 Y19.91966
G01 X54.71883 Y19.92334
G01 X54.73257 Y19.91966
G01 X54.73257 Y19.88037
G01 X54.73869 Y19.86157
G01 X54.72599 Y19.85509
G01 X54.73869 Y19.86157
G01 X54.76175 Y19.82979
G01 X54.79582 Y19.81013
G01 X54.78997 Y19.79213
G01 X54.79582 Y19.81013
G01 X54.83491 Y19.80602
G01 X54.87227 Y19.81816
G01 X54.88174 Y19.80178
G01 X54.87227 Y19.81816
G01 X54.90145 Y19.84445
G01 X54.91746 Y19.88037
G04 P0 ( dwell for no time -- G64 should not smooth over this point )
G00 Z0.50000 ( retract )

G00 X54.91136 Y17.39843 ( rapid move to begin. )
G01 F100.00000
( Mill infeed pass 1/1 )
G01 Z-0.15000
G04 P0 ( dwell for no time -- G64 should not smooth over this point )
G01 F200.00000
G01 X54.91136 Y17.39843
G01 X54.88825 Y17.43023
G01 X54.85421 Y17.44989
G01 X54.86008 Y17.46790
G01 X54.85421 Y17.44989
G01 X54.81514 Y17.45401
G01 X54.77776 Y17.44186
G01 X54.76831 Y17.45825
G01 X54.77776 Y17.44186
G01 X54.74855 Y17.41555
G01 X54.73257 Y17.37966
G01 X54.71883 Y17.38334
G01 X54.73257 Y17.37966
G01 X54.73257 Y17.34037
G01 X54.73869 Y17.32157
G01 X54.72599 Y17.31509
G01 X54.73869 Y17.32157
G01 X54.76178 Y17.28979
G01 X54.79582 Y17.27013
G01 X54.78995 Y17.25213
G01 X54.79582 Y17.27013
G01 X54.83488 Y17.26602
G01 X54.87227 Y17.27816
G01 X54.87872 Y17.26549
G01 X54.87227 Y17.27816
G01 X54.90145 Y17.30445
G01 X54.91136 Y17.32157
G01 X54.92464 Y17.31649
G01 X54.91136 Y17.32157
G01 X54.91951 Y17.36003
G01 X54.91136 Y17.39843
G01 X54.92863 Y17.40615
G01 X55.12061 Y17.36000
G01 X55.11415 Y17.42149
G01 X55.11852 Y17.42241
G01 X55.11415 Y17.42149
G01 X55.09505 Y17.48024
G01 X55.06417 Y17.53376
G01 X55.06777 Y17.53638
G01 X55.06417 Y17.53376
G01 X55.02282 Y17.57968
G01 X54.97280 Y17.61601
G01 X54.97504 Y17.61989
G01 X54.97280 Y17.61601
G01 X54.91636 Y17.64115
G01 X54.85591 Y17.65401
G01 X54.85639 Y17.65845
G01 X54.85591 Y17.65401
G01 X54.79411 Y17.65401
G01 X54.73366 Y17.64115
G01 X54.73229 Y17.64539
G01 X54.73366 Y17.64115
G01 X54.67722 Y17.61601
G01 X54.62564 Y17.58162
G01 X54.58378 Y17.53511
G01 X54.55497 Y17.48024
G01 X54.53587 Y17.42149
G01 X54.53150 Y17.42241
G01 X54.53587 Y17.42149
G01 X54.52942 Y17.36003
G01 X54.53587 Y17.29853
G01 X54.53150 Y17.29762
G01 X54.53587 Y17.29853
G01 X54.55495 Y17.23978
G01 X54.58586 Y17.18626
G01 X54.58225 Y17.18365
G01 X54.58586 Y17.18626
G01 X54.62724 Y17.14032
G01 X54.67720 Y17.10402
G01 X54.67496 Y17.10016
G01 X54.67720 Y17.10402
G01 X54.73366 Y17.07887
G01 X54.79414 Y17.06602
G01 X54.79366 Y17.06158
G01 X54.79414 Y17.06602
G01 X54.85589 Y17.06602
G01 X54.91636 Y17.07887
G01 X54.91774 Y17.07463
G01 X54.91636 Y17.07887
G01 X54.97283 Y17.10402
G01 X55.02436 Y17.13839
G01 X55.06625 Y17.18492
G01 X55.09508 Y17.23978
G01 X55.11415 Y17.29853
G01 X55.11852 Y17.29762
G01 X55.11415 Y17.29853
G01 X55.12061 Y17.36000
G01 X55.52281 Y17.36000
G01 X55.50864 Y17.50534
G01 X55.46351 Y17.64428
G01 X55.39045 Y17.77082
G01 X55.29266 Y17.87940
G01 X55.17448 Y17.96528
G01 X55.04100 Y18.02472
G01 X54.89808 Y18.05510
G01 X54.75192 Y18.05510
G01 X54.60902 Y18.02472
G01 X54.47557 Y17.96528
G01 X54.35736 Y17.87940
G01 X54.25960 Y17.77082
G01 X54.18652 Y17.64428
G01 X54.14138 Y17.50529
G01 X54.12612 Y17.36000
G01 X54.14138 Y17.21474
G01 X54.18655 Y17.07575
G01 X54.25960 Y16.94921
G01 X54.35736 Y16.84062
G01 X54.47557 Y16.75474
G01 X54.60902 Y16.69531
G01 X54.75197 Y16.66493
G01 X54.89805 Y16.66493
G01 X55.04100 Y16.69531
G01 X55.17448 Y16.75474
G01 X55.29266 Y16.84062
G01 X55.39043 Y16.94921
G01 X55.46348 Y17.07575
G01 X55.50864 Y17.21469
G01 X55.52281 Y17.36000
G01 X55.72391 Y17.36000
G01 X55.70427 Y17.54689
G01 X55.64621 Y17.72563
G01 X55.55223 Y17.88837
G01 X55.42652 Y18.02802
G01 X55.27448 Y18.13848
G01 X55.10280 Y18.21491
G01 X54.91895 Y18.25398
G01 X54.73107 Y18.25398
G01 X54.54723 Y18.21491
G01 X54.37555 Y18.13848
G01 X54.22350 Y18.02802
G01 X54.09780 Y17.88837
G01 X54.00382 Y17.72563
G01 X53.94575 Y17.54689
G01 X53.92612 Y17.36003
G01 X53.94575 Y17.17313
G01 X54.00382 Y16.99439
G01 X54.09780 Y16.83165
G01 X54.22350 Y16.69201
G01 X54.37557 Y16.58154
G01 X54.54723 Y16.50511
G01 X54.73107 Y16.46605
G01 X54.91895 Y16.46605
G01 X55.10280 Y16.50511
G01 X55.27448 Y16.58154
G01 X55.42652 Y16.69201
G01 X55.55223 Y16.83165
G01 X55.64621 Y16.99439
G01 X55.70427 Y17.17313
G01 X55.72391 Y17.36000
G01 X55.32172 Y17.36003
G01 X55.31194 Y17.25650
G01 X55.27979 Y17.15754
G01 X55.22774 Y17.06742
G01 X55.15810 Y16.99005
G01 X55.07392 Y16.92891
G01 X54.97882 Y16.88657
G01 X54.87704 Y16.86493
G01 X54.77298 Y16.86493
G01 X54.67118 Y16.88657
G01 X54.57611 Y16.92891
G01 X54.49193 Y16.99005
G01 X54.42228 Y17.06742
G01 X54.37024 Y17.15754
G01 X54.33808 Y17.25652
G01 X54.32721 Y17.36000
G01 X54.33808 Y17.46351
G01 X54.37024 Y17.56249
G01 X54.42228 Y17.65261
G01 X54.49193 Y17.72995
G01 X54.57611 Y17.79111
G01 X54.67118 Y17.83346
G01 X54.77298 Y17.85510
G01 X54.87704 Y17.85510
G01 X54.97882 Y17.83346
G01 X55.07392 Y17.79111
G01 X55.15810 Y17.72995
G01 X55.22774 Y17.65261
G01 X55.27979 Y17.56249
G01 X55.31194 Y17.46353
G01 X55.32172 Y17.36003
G04 P0 ( dwell for no time -- G64 should not smooth over this point )
G00 Z0.50000 ( retract )

G00 X54.91136 Y14.85846 ( rapid move to begin. )
G01 F100.00000
( Mill infeed pass 1/1 )
G01 Z-0.15000
G04 P0 ( dwell for no time -- G64 should not smooth over this point )
G01 F200.00000
G01 X54.91136 Y14.85846
G01 X54.88827 Y14.89023
G01 X54.85421 Y14.90989
G01 X54.86005 Y14.92790
G01 X54.85421 Y14.90989
G01 X54.81512 Y14.91401
G01 X54.77776 Y14.90186
G01 X54.76831 Y14.91825
G01 X54.77776 Y14.90186
G01 X54.74855 Y14.87555
G01 X54.73257 Y14.83966
G01 X54.71883 Y14.84334
G01 X54.73257 Y14.83966
G01 X54.73257 Y14.80037
G01 X54.73869 Y14.78157
G01 X54.72599 Y14.77512
G01 X54.73869 Y14.78157
G01 X54.76178 Y14.74979
G01 X54.79582 Y14.73013
G01 X54.78995 Y14.71213
G01 X54.79582 Y14.73013
G01 X54.83488 Y14.72602
G01 X54.87227 Y14.73816
G01 X54.87872 Y14.72549
G01 X54.87227 Y14.73816
G01 X54.90145 Y14.76445
G01 X54.91136 Y14.78160
G01 X54.92464 Y14.77649
G01 X54.91136 Y14.78160
G01 X54.91951 Y14.82003
G01 X54.91136 Y14.85846
G01 X54.92863 Y14.86615
G01 X55.12061 Y14.82000
G01 X55.11415 Y14.88149
G01 X55.11852 Y14.88241
G01 X55.11415 Y14.88149
G01 X55.09508 Y14.94024
G01 X55.06417 Y14.99376
G01 X55.06777 Y14.99638
G01 X55.06417 Y14.99376
G01 X55.02279 Y15.03971
G01 X54.97283 Y15.07601
G01 X54.97506 Y15.07987
G01 X54.97283 Y15.07601
G01 X54.91636 Y15.10115
G01 X54.85589 Y15.11401
G01 X54.85637 Y15.11845
G01 X54.85589 Y15.11401
G01 X54.79414 Y15.11401
G01 X54.73366 Y15.10115
G01 X54.73229 Y15.10539
G01 X54.73366 Y15.10115
G01 X54.67720 Y15.07601
G01 X54.62566 Y15.04164
G01 X54.58378 Y14.99511
G01 X54.55495 Y14.94024
G01 X54.53587 Y14.88149
G01 X54.53150 Y14.88241
G01 X54.53587 Y14.88149
G01 X54.52942 Y14.82003
G01 X54.53587 Y14.75853
G01 X54.53150 Y14.75762
G01 X54.53587 Y14.75853
G01 X54.55497 Y14.69978
G01 X54.58586 Y14.64626
G01 X54.58225 Y14.64365
G01 X54.58586 Y14.64626
G01 X54.62721 Y14.60034
G01 X54.67722 Y14.56402
G01 X54.67499 Y14.56013
G01 X54.67722 Y14.56402
G01 X54.73366 Y14.53887
G01 X54.79411 Y14.52602
G01 X54.79363 Y14.52158
G01 X54.79411 Y14.52602
G01 X54.85591 Y14.52602
G01 X54.91636 Y14.53887
G01 X54.91774 Y14.53463
G01 X54.91636 Y14.53887
G01 X54.97280 Y14.56402
G01 X55.02439 Y14.59841
G01 X55.06625 Y14.64492
G01 X55.09505 Y14.69978
G01 X55.11415 Y14.75853
G01 X55.11852 Y14.75762
G01 X55.11415 Y14.75853
G01 X55.12061 Y14.82000
G01 X55.52281 Y14.82000
G01 X55.50864 Y14.96534
G01 X55.46351 Y15.10428
G01 X55.39043 Y15.23082
G01 X55.29266 Y15.33940
G01 X55.17448 Y15.42528
G01 X55.04100 Y15.48472
G01 X54.89805 Y15.51510
G01 X54.75197 Y15.51510
G01 X54.60902 Y15.48472
G01 X54.47557 Y15.42528
G01 X54.35736 Y15.33940
G01 X54.25960 Y15.23082
G01 X54.18652 Y15.10428
G01 X54.14138 Y14.96529
G01 X54.12612 Y14.82000
G01 X54.14138 Y14.67474
G01 X54.18652 Y14.53575
G01 X54.25960 Y14.40921
G01 X54.35736 Y14.30062
G01 X54.47557 Y14.21474
G01 X54.60902 Y14.15531
G01 X54.75197 Y14.12493
G01 X54.89805 Y14.12493
G01 X55.04100 Y14.15531
G01 X55.17448 Y14.21474
G01 X55.29266 Y14.30062
G01 X55.39043 Y14.40921
G01 X55.46351 Y14.53575
G01 X55.50864 Y14.67469
G01 X55.52281 Y14.82000
G01 X55.72391 Y14.82000
G01 X55.70427 Y15.00689
G01 X55.64618 Y15.18563
G01 X55.58662 Y15.28881
G01 X55.55223 Y15.34837
G01 X55.42652 Y15.48802
G01 X55.27448 Y15.59848
G01 X55.10277 Y15.67491
G01 X54.91895 Y15.71398
G01 X54.73107 Y15.71398
G01 X54.54725 Y15.67491
G01 X54.40943 Y15.61357
G01 X54.37555 Y15.59848
G01 X54.22350 Y15.48802
G01 X54.09780 Y15.34837
G01 X54.00384 Y15.18563
G01 X53.94575 Y15.00689
G01 X53.92612 Y14.82000
G01 X53.94575 Y14.63313
G01 X54.00382 Y14.45439
G01 X54.09780 Y14.29165
G01 X54.22353 Y14.15201
G01 X54.37557 Y14.04154
G01 X54.46140 Y14.00331
G01 X54.54723 Y13.96511
G01 X54.73107 Y13.92605
G01 X54.91895 Y13.92605
G01 X55.10280 Y13.96511
G01 X55.27445 Y14.04154
G01 X55.42650 Y14.15201
G01 X55.55223 Y14.29165
G01 X55.64621 Y14.45439
G01 X55.70427 Y14.63313
G01 X55.72391 Y14.82000
G01 X55.32172 Y14.82003
G01 X55.31194 Y14.71650
G01 X55.27979 Y14.61754
G01 X55.22774 Y14.52742
G01 X55.15810 Y14.45007
G01 X55.07392 Y14.38891
G01 X54.97882 Y14.34657
G01 X54.87704 Y14.32493
G01 X54.77298 Y14.32493
G01 X54.67118 Y14.34657
G01 X54.57611 Y14.38891
G01 X54.49193 Y14.45007
G01 X54.42228 Y14.52742
G01 X54.37024 Y14.61754
G01 X54.33808 Y14.71652
G01 X54.32721 Y14.82000
G01 X54.33808 Y14.92351
G01 X54.37024 Y15.02249
G01 X54.42228 Y15.11261
G01 X54.49193 Y15.18995
G01 X54.57611 Y15.25111
G01 X54.67118 Y15.29346
G01 X54.77298 Y15.31510
G01 X54.87704 Y15.31510
G01 X54.97882 Y15.29346
G01 X55.07392 Y15.25111
G01 X55.15810 Y15.18995
G01 X55.22774 Y15.11261
G01 X55.27979 Y15.02249
G01 X55.31194 Y14.92353
G01 X55.32172 Y14.82003
G04 P0 ( dwell for no time -- G64 should not smooth over this point )
G00 Z0.50000 ( retract )

G00 X55.72391 Y12.28000 ( rapid move to begin. )
G01 F100.00000
( Mill infeed pass 1/1 )
G01 Z-0.15000
G04 P0 ( dwell for no time -- G64 should not smooth over this point )
G01 F200.00000
G01 X55.72391 Y12.28000
G01 X55.70427 Y12.09313
G01 X55.64621 Y11.91439
G01 X55.55223 Y11.75168
G01 X55.42650 Y11.61198
G01 X55.27445 Y11.50154
G01 X55.10280 Y11.42511
G01 X54.91895 Y11.38605
G01 X54.73107 Y11.38605
G01 X54.54723 Y11.42511
G01 X54.37557 Y11.50154
G01 X54.22353 Y11.61198
G01 X54.09780 Y11.75168
G01 X54.00382 Y11.91439
G01 X53.94575 Y12.09313
G01 X53.92612 Y12.28003
G01 X53.94575 Y12.46689
G01 X54.00382 Y12.64563
G01 X54.09777 Y12.80835
G01 X54.22353 Y12.94805
G01 X54.37555 Y13.05848
G01 X54.54725 Y13.13491
G01 X54.73107 Y13.17398
G01 X54.91895 Y13.17398
G01 X55.01088 Y13.15445
G01 X55.10277 Y13.13491
G01 X55.27448 Y13.05848
G01 X55.42650 Y12.94805
G01 X55.55225 Y12.80835
G01 X55.64621 Y12.64563
G01 X55.68631 Y12.52219
G01 X55.70427 Y12.46689
G01 X55.72391 Y12.28000
G01 X55.52281 Y12.28003
G01 X55.50864 Y12.13469
G01 X55.46351 Y11.99575
G01 X55.39045 Y11.86921
G01 X55.29266 Y11.76062
G01 X55.17445 Y11.67474
G01 X55.04100 Y11.61531
G01 X54.89808 Y11.58495
G01 X54.75192 Y11.58495
G01 X54.60902 Y11.61531
G01 X54.47557 Y11.67474
G01 X54.35736 Y11.76062
G01 X54.25960 Y11.86921
G01 X54.18652 Y11.99575
G01 X54.14138 Y12.13474
G01 X54.12612 Y12.28003
G01 X54.14138 Y12.42529
G01 X54.18655 Y12.56428
G01 X54.25960 Y12.69082
G01 X54.35736 Y12.79940
G01 X54.47557 Y12.88528
G01 X54.60905 Y12.94472
G01 X54.75195 Y12.97510
G01 X54.89808 Y12.97510
G01 X55.04098 Y12.94472
G01 X55.17448 Y12.88528
G01 X55.29266 Y12.79940
G01 X55.39043 Y12.69082
G01 X55.46348 Y12.56428
G01 X55.50864 Y12.42534
G01 X55.52281 Y12.28003
G01 X55.32172 Y12.28003
G01 X55.31194 Y12.17650
G01 X55.27979 Y12.07754
G01 X55.22774 Y11.98742
G01 X55.15810 Y11.91007
G01 X55.07392 Y11.84891
G01 X54.97882 Y11.80657
G01 X54.87704 Y11.78493
G01 X54.77298 Y11.78493
G01 X54.67118 Y11.80657
G01 X54.57611 Y11.84891
G01 X54.49193 Y11.91007
G01 X54.42228 Y11.98742
G01 X54.37024 Y12.07754
G01 X54.33808 Y12.17652
G01 X54.32721 Y12.28000
G01 X54.33808 Y12.38351
G01 X54.37024 Y12.48249
G01 X54.42228 Y12.57263
G01 X54.49190 Y12.64995
G01 X54.57611 Y12.71111
G01 X54.67118 Y12.75346
G01 X54.77298 Y12.77510
G01 X54.87704 Y12.77510
G01 X54.97885 Y12.75346
G01 X55.07392 Y12.71111
G01 X55.15810 Y12.64995
G01 X55.22774 Y12.57263
G01 X55.27979 Y12.48249
G01 X55.31194 Y12.38353
G01 X55.32172 Y12.28003
G01 X55.12061 Y12.28003
G01 X55.11415 Y12.21853
G01 X55.11852 Y12.21764
G01 X55.11415 Y12.21853
G01 X55.09508 Y12.15978
G01 X55.06625 Y12.10492
G01 X55.02436 Y12.05839
G01 X54.97283 Y12.02402
G01 X54.91636 Y11.99887
G01 X54.91774 Y11.99463
G01 X54.91636 Y11.99887
G01 X54.85589 Y11.98602
G01 X54.79414 Y11.98602
G01 X54.79366 Y11.98158
G01 X54.79414 Y11.98602
G01 X54.73366 Y11.99887
G01 X54.67720 Y12.02402
G01 X54.67496 Y12.02016
G01 X54.67720 Y12.02402
G01 X54.62724 Y12.06032
G01 X54.58586 Y12.10626
G01 X54.58225 Y12.10367
G01 X54.58586 Y12.10626
G01 X54.55495 Y12.15978
G01 X54.53587 Y12.21853
G01 X54.53150 Y12.21764
G01 X54.53587 Y12.21853
G01 X54.52942 Y12.28003
G01 X54.53587 Y12.34149
G01 X54.53150 Y12.34241
G01 X54.53587 Y12.34149
G01 X54.55497 Y12.40024
G01 X54.58378 Y12.45511
G01 X54.62564 Y12.50162
G01 X54.67722 Y12.53601
G01 X54.73366 Y12.56115
G01 X54.73229 Y12.56539
G01 X54.73366 Y12.56115
G01 X54.79411 Y12.57401
G01 X54.85591 Y12.57401
G01 X54.85639 Y12.57845
G01 X54.85591 Y12.57401
G01 X54.91636 Y12.56115
G01 X54.97280 Y12.53601
G01 X54.97504 Y12.53989
G01 X54.97280 Y12.53601
G01 X55.02282 Y12.49968
G01 X55.06417 Y12.45376
G01 X55.06777 Y12.45638
G01 X55.06417 Y12.45376
G01 X55.09505 Y12.40024
G01 X55.11415 Y12.34149
G01 X55.11852 Y12.34241
G01 X55.11415 Y12.34149
G01 X55.12061 Y12.28003
G01 X54.93120 Y12.25668
G01 X54.91746 Y12.26039
G01 X54.91746 Y12.29966
G01 X54.91136 Y12.31843
G01 X54.92403 Y12.32491
G01 X54.91136 Y12.31843
G01 X54.88825 Y12.35023
G01 X54.85421 Y12.36989
G01 X54.86008 Y12.38790
G01 X54.85421 Y12.36989
G01 X54.81514 Y12.37401
G01 X54.77776 Y12.36186
G01 X54.76831 Y12.37825
G01 X54.77776 Y12.36186
G01 X54.74855 Y12.33555
G01 X54.73257 Y12.29966
G01 X54.71883 Y12.30334
G01 X54.73257 Y12.29966
G01 X54.73257 Y12.26039
G01 X54.73869 Y12.24157
G01 X54.72599 Y12.23509
G01 X54.73869 Y12.24157
G01 X54.76175 Y12.20979
G01 X54.79582 Y12.19013
G01 X54.78997 Y12.17213
G01 X54.79582 Y12.19013
G01 X54.83491 Y12.18602
G01 X54.87227 Y12.19816
G01 X54.88174 Y12.18180
G01 X54.87227 Y12.19816
G01 X54.90145 Y12.22445
G01 X54.91746 Y12.26039
G04 P0 ( dwell for no time -- G64 should not smooth over this point )
G00 Z0.50000 ( retract )

G00 X49.07391 Y12.26501 ( rapid move to begin. )
G01 F100.00000
( Mill infeed pass 1/1 )
G01 Z-0.15000
G04 P0 ( dwell for no time -- G64 should not smooth over this point )
G01 F200.00000
G01 X49.07391 Y12.26501
G01 X49.06083 Y12.14050
G01 X49.02214 Y12.02143
G01 X48.95953 Y11.91300
G01 X48.87576 Y11.81996
G01 X48.77449 Y11.74637
G01 X48.66009 Y11.69542
G01 X48.53761 Y11.66938
G01 X48.41241 Y11.66938
G01 X48.28994 Y11.69542
G01 X48.17556 Y11.74635
G01 X48.07426 Y11.81996
G01 X47.99049 Y11.91297
G01 X47.92788 Y12.02143
G01 X47.88920 Y12.14048
G01 X47.87612 Y12.26501
G01 X47.88920 Y12.38952
G01 X47.92788 Y12.50860
G01 X47.99049 Y12.61706
G01 X48.07429 Y12.71010
G01 X48.17556 Y12.78368
G01 X48.28994 Y12.83461
G01 X48.41241 Y12.86064
G01 X48.53761 Y12.86064
G01 X48.66009 Y12.83461
G01 X48.77449 Y12.78366
G01 X48.87576 Y12.71007
G01 X48.95953 Y12.61703
G01 X49.02214 Y12.50863
G01 X49.06083 Y12.38952
G01 X49.07391 Y12.26501
G01 X48.87281 Y12.26501
G01 X48.86413 Y12.18231
G01 X48.86850 Y12.18137
G01 X48.86413 Y12.18231
G01 X48.83842 Y12.10322
G01 X48.79893 Y12.02984
G01 X48.74274 Y11.96745
G01 X48.67391 Y11.92051
G01 X48.59794 Y11.88668
G01 X48.59931 Y11.88244
G01 X48.59794 Y11.88668
G01 X48.51661 Y11.86938
G01 X48.43342 Y11.86938
G01 X48.43296 Y11.86496
G01 X48.43342 Y11.86938
G01 X48.35209 Y11.88668
G01 X48.27609 Y11.92051
G01 X48.27386 Y11.91665
G01 X48.27609 Y11.92051
G01 X48.20886 Y11.96941
G01 X48.15318 Y12.03121
G01 X48.14958 Y12.02857
G01 X48.15318 Y12.03121
G01 X48.11160 Y12.10322
G01 X48.08590 Y12.18234
G01 X48.08153 Y12.18140
G01 X48.08590 Y12.18234
G01 X48.07721 Y12.26501
G01 X48.08590 Y12.34769
G01 X48.08153 Y12.34863
G01 X48.08590 Y12.34769
G01 X48.11160 Y12.42681
G01 X48.15318 Y12.49885
G01 X48.14958 Y12.50146
G01 X48.15318 Y12.49885
G01 X48.20883 Y12.56064
G01 X48.27609 Y12.60951
G01 X48.27386 Y12.61338
G01 X48.27609 Y12.60951
G01 X48.35211 Y12.64335
G01 X48.43301 Y12.66311
G01 X48.51701 Y12.66311
G01 X48.59791 Y12.64335
G01 X48.67391 Y12.60951
G01 X48.67614 Y12.61338
G01 X48.67391 Y12.60951
G01 X48.74119 Y12.56062
G01 X48.79684 Y12.49885
G01 X48.80045 Y12.50146
G01 X48.79684 Y12.49885
G01 X48.83842 Y12.42681
G01 X48.86413 Y12.34772
G01 X48.86850 Y12.34866
G01 X48.86413 Y12.34772
G01 X48.87281 Y12.26501
G01 X48.67172 Y12.26501
G01 X48.66740 Y12.30593
G01 X48.65470 Y12.34500
G01 X48.66100 Y12.34820
G01 X48.65470 Y12.34500
G01 X48.63416 Y12.38063
G01 X48.60662 Y12.41119
G01 X48.57335 Y12.43537
G01 X48.57721 Y12.44129
G01 X48.57335 Y12.43537
G01 X48.53578 Y12.45209
G01 X48.49560 Y12.46064
G01 X48.49606 Y12.46509
G01 X48.49560 Y12.46064
G01 X48.45443 Y12.46064
G01 X48.41424 Y12.45209
G01 X48.41285 Y12.45635
G01 X48.41424 Y12.45209
G01 X48.37665 Y12.43537
G01 X48.34340 Y12.41119
G01 X48.34041 Y12.41452
G01 X48.34340 Y12.41119
G01 X48.31587 Y12.38063
G01 X48.29532 Y12.34502
G01 X48.29123 Y12.34683
G01 X48.29532 Y12.34502
G01 X48.28262 Y12.30593
G01 X48.27830 Y12.26501
G01 X48.27383 Y12.26501
G01 X48.27830 Y12.26501
G01 X48.28262 Y12.22409
G01 X48.29532 Y12.18503
G01 X48.28902 Y12.18180
G01 X48.29532 Y12.18503
G01 X48.31587 Y12.14939
G01 X48.34340 Y12.11886
G01 X48.37665 Y12.09466
G01 X48.37282 Y12.08874
G01 X48.37665 Y12.09466
G01 X48.41424 Y12.07794
G01 X48.45443 Y12.06938
G01 X48.45397 Y12.06496
G01 X48.45443 Y12.06938
G01 X48.49560 Y12.06938
G01 X48.53578 Y12.07794
G01 X48.53718 Y12.07368
G01 X48.53578 Y12.07794
G01 X48.57335 Y12.09466
G01 X48.60662 Y12.11886
G01 X48.60962 Y12.11551
G01 X48.60662 Y12.11886
G01 X48.63416 Y12.14939
G01 X48.65470 Y12.18503
G01 X48.65879 Y12.18320
G01 X48.65470 Y12.18503
G01 X48.66740 Y12.22409
G01 X48.67172 Y12.26501
G04 P0 ( dwell for no time -- G64 should not smooth over this point )
G00 Z0.50000 ( retract )

G00 X49.07391 Y14.80501 ( rapid move to begin. )
G01 F100.00000
( Mill infeed pass 1/1 )
G01 Z-0.15000
G04 P0 ( dwell for no time -- G64 should not smooth over this point )
G01 F200.00000
G01 X49.07391 Y14.80501
G01 X49.06083 Y14.68050
G01 X49.02214 Y14.56143
G01 X48.95953 Y14.45300
G01 X48.87574 Y14.35993
G01 X48.77449 Y14.28637
G01 X48.66009 Y14.23542
G01 X48.53761 Y14.20938
G01 X48.41241 Y14.20938
G01 X48.28994 Y14.23542
G01 X48.17556 Y14.28635
G01 X48.07429 Y14.35993
G01 X47.99049 Y14.45297
G01 X47.92788 Y14.56143
G01 X47.88920 Y14.68048
G01 X47.87612 Y14.80501
G01 X47.88920 Y14.92952
G01 X47.91821 Y15.01883
G01 X47.92788 Y15.04860
G01 X47.99049 Y15.15706
G01 X48.07429 Y15.25010
G01 X48.17556 Y15.32368
G01 X48.28994 Y15.37461
G01 X48.41241 Y15.40064
G01 X48.53761 Y15.40064
G01 X48.66006 Y15.37461
G01 X48.77447 Y15.32368
G01 X48.87576 Y15.25007
G01 X48.95953 Y15.15703
G01 X49.02214 Y15.04860
G01 X49.06083 Y14.92952
G01 X49.07391 Y14.80501
G01 X48.87281 Y14.80501
G01 X48.86659 Y14.72191
G01 X48.84063 Y14.64207
G01 X48.79684 Y14.57118
G01 X48.74119 Y14.50938
G01 X48.74419 Y14.50608
G01 X48.74119 Y14.50938
G01 X48.67391 Y14.46051
G01 X48.59791 Y14.42668
G01 X48.59931 Y14.42241
G01 X48.59791 Y14.42668
G01 X48.51663 Y14.40938
G01 X48.43339 Y14.40938
G01 X48.43294 Y14.40494
G01 X48.43339 Y14.40938
G01 X48.35211 Y14.42668
G01 X48.27609 Y14.46051
G01 X48.27386 Y14.45665
G01 X48.27609 Y14.46051
G01 X48.20883 Y14.50938
G01 X48.15318 Y14.57118
G01 X48.14958 Y14.56857
G01 X48.15318 Y14.57118
G01 X48.11160 Y14.64322
G01 X48.08590 Y14.72234
G01 X48.08153 Y14.72140
G01 X48.08590 Y14.72234
G01 X48.07721 Y14.80501
G01 X48.08590 Y14.88769
G01 X48.08153 Y14.88863
G01 X48.08590 Y14.88769
G01 X48.11160 Y14.96681
G01 X48.15110 Y15.04019
G01 X48.20728 Y15.10260
G01 X48.27609 Y15.14951
G01 X48.35209 Y15.18335
G01 X48.35072 Y15.18759
G01 X48.35209 Y15.18335
G01 X48.43342 Y15.20064
G01 X48.51661 Y15.20064
G01 X48.51706 Y15.20509
G01 X48.51661 Y15.20064
G01 X48.59794 Y15.18335
G01 X48.67391 Y15.14951
G01 X48.67614 Y15.15340
G01 X48.67391 Y15.14951
G01 X48.74119 Y15.10064
G01 X48.79684 Y15.03882
G01 X48.80045 Y15.04146
G01 X48.79684 Y15.03882
G01 X48.83842 Y14.96681
G01 X48.86413 Y14.88772
G01 X48.86850 Y14.88866
G01 X48.86413 Y14.88772
G01 X48.87281 Y14.80501
G01 X48.67172 Y14.80501
G01 X48.66740 Y14.84593
G01 X48.65470 Y14.88500
G01 X48.65879 Y14.88683
G01 X48.65470 Y14.88500
G01 X48.63416 Y14.92063
G01 X48.60662 Y14.95119
G01 X48.60962 Y14.95452
G01 X48.60662 Y14.95119
G01 X48.57335 Y14.97537
G01 X48.53581 Y14.99209
G01 X48.53764 Y14.99889
G01 X48.53581 Y14.99209
G01 X48.49557 Y15.00064
G01 X48.45445 Y15.00064
G01 X48.41422 Y14.99209
G01 X48.41239 Y14.99889
G01 X48.41422 Y14.99209
G01 X48.37665 Y14.97537
G01 X48.34340 Y14.95119
G01 X48.34041 Y14.95452
G01 X48.34340 Y14.95119
G01 X48.31587 Y14.92063
G01 X48.29532 Y14.88502
G01 X48.29123 Y14.88683
G01 X48.29532 Y14.88502
G01 X48.28262 Y14.84593
G01 X48.27830 Y14.80501
G01 X48.27383 Y14.80501
G01 X48.27830 Y14.80501
G01 X48.28262 Y14.76409
G01 X48.29532 Y14.72500
G01 X48.29123 Y14.72318
G01 X48.29532 Y14.72500
G01 X48.31587 Y14.68939
G01 X48.34340 Y14.65884
G01 X48.34041 Y14.65551
G01 X48.34340 Y14.65884
G01 X48.37665 Y14.63466
G01 X48.41424 Y14.61794
G01 X48.41285 Y14.61368
G01 X48.41424 Y14.61794
G01 X48.45445 Y14.60938
G01 X48.49557 Y14.60938
G01 X48.49603 Y14.60494
G01 X48.49557 Y14.60938
G01 X48.53578 Y14.61794
G01 X48.57335 Y14.63466
G01 X48.57721 Y14.62874
G01 X48.57335 Y14.63466
G01 X48.60662 Y14.65884
G01 X48.63416 Y14.68939
G01 X48.65470 Y14.72503
G01 X48.66100 Y14.72180
G01 X48.65470 Y14.72503
G01 X48.66740 Y14.76409
G01 X48.67172 Y14.80501
G04 P0 ( dwell for no time -- G64 should not smooth over this point )
G00 Z0.50000 ( retract )

G00 X49.07391 Y17.34501 ( rapid move to begin. )
G01 F100.00000
( Mill infeed pass 1/1 )
G01 Z-0.15000
G04 P0 ( dwell for no time -- G64 should not smooth over this point )
G01 F200.00000
G01 X49.07391 Y17.34501
G01 X49.06083 Y17.22050
G01 X49.02214 Y17.10140
G01 X48.95956 Y16.99300
G01 X48.87576 Y16.89993
G01 X48.77449 Y16.82637
G01 X48.66009 Y16.77542
G01 X48.53761 Y16.74938
G01 X48.41241 Y16.74938
G01 X48.28994 Y16.77542
G01 X48.17556 Y16.82635
G01 X48.07429 Y16.89993
G01 X47.99049 Y16.99300
G01 X47.92788 Y17.10140
G01 X47.88920 Y17.22048
G01 X47.87612 Y17.34501
G01 X47.88920 Y17.46955
G01 X47.91498 Y17.54893
G01 X47.92788 Y17.58860
G01 X47.99049 Y17.69706
G01 X48.07426 Y17.79007
G01 X48.17556 Y17.86368
G01 X48.28994 Y17.91458
G01 X48.41241 Y17.94064
G01 X48.53761 Y17.94064
G01 X48.66006 Y17.91461
G01 X48.77447 Y17.86368
G01 X48.87576 Y17.79007
G01 X48.95953 Y17.69703
G01 X49.02212 Y17.58863
G01 X49.06083 Y17.46952
G01 X49.07391 Y17.34501
G01 X48.87281 Y17.34501
G01 X48.86413 Y17.26231
G01 X48.86850 Y17.26137
G01 X48.86413 Y17.26231
G01 X48.83842 Y17.18322
G01 X48.79684 Y17.11118
G01 X48.80045 Y17.10857
G01 X48.79684 Y17.11118
G01 X48.74119 Y17.04938
G01 X48.67391 Y17.00051
G01 X48.67614 Y16.99663
G01 X48.67391 Y17.00051
G01 X48.59794 Y16.96668
G01 X48.51658 Y16.94938
G01 X48.51706 Y16.94494
G01 X48.51658 Y16.94938
G01 X48.43345 Y16.94938
G01 X48.35143 Y16.96427
G01 X48.27475 Y16.99843
G01 X48.20883 Y17.04938
G01 X48.15318 Y17.11118
G01 X48.14958 Y17.10857
G01 X48.15318 Y17.11118
G01 X48.11160 Y17.18322
G01 X48.08590 Y17.26234
G01 X48.08153 Y17.26140
G01 X48.08590 Y17.26234
G01 X48.07721 Y17.34501
G01 X48.08590 Y17.42769
G01 X48.08153 Y17.42863
G01 X48.08590 Y17.42769
G01 X48.11160 Y17.50681
G01 X48.15110 Y17.58019
G01 X48.20726 Y17.64258
G01 X48.27612 Y17.68951
G01 X48.35206 Y17.72335
G01 X48.35069 Y17.72759
G01 X48.35206 Y17.72335
G01 X48.43345 Y17.74064
G01 X48.51658 Y17.74064
G01 X48.51706 Y17.74509
G01 X48.51658 Y17.74064
G01 X48.59796 Y17.72335
G01 X48.67391 Y17.68951
G01 X48.67614 Y17.69340
G01 X48.67391 Y17.68951
G01 X48.74119 Y17.64064
G01 X48.79684 Y17.57882
G01 X48.80045 Y17.58146
G01 X48.79684 Y17.57882
G01 X48.83842 Y17.50681
G01 X48.86413 Y17.42772
G01 X48.86850 Y17.42866
G01 X48.86413 Y17.42772
G01 X48.87281 Y17.34501
G01 X48.67172 Y17.34501
G01 X48.66740 Y17.38591
G01 X48.65470 Y17.42502
G01 X48.65879 Y17.42683
G01 X48.65470 Y17.42502
G01 X48.63416 Y17.46063
G01 X48.60662 Y17.49119
G01 X48.60962 Y17.49452
G01 X48.60662 Y17.49119
G01 X48.57337 Y17.51535
G01 X48.53581 Y17.53209
G01 X48.53764 Y17.53889
G01 X48.53581 Y17.53209
G01 X48.49557 Y17.54064
G01 X48.45445 Y17.54064
G01 X48.41422 Y17.53209
G01 X48.41239 Y17.53889
G01 X48.41422 Y17.53209
G01 X48.37665 Y17.51535
G01 X48.34340 Y17.49119
G01 X48.34041 Y17.49452
G01 X48.34340 Y17.49119
G01 X48.31587 Y17.46063
G01 X48.29532 Y17.42502
G01 X48.29123 Y17.42685
G01 X48.29532 Y17.42502
G01 X48.28262 Y17.38591
G01 X48.27830 Y17.34501
G01 X48.27383 Y17.34501
G01 X48.27830 Y17.34501
G01 X48.28262 Y17.30409
G01 X48.29532 Y17.26500
G01 X48.29123 Y17.26318
G01 X48.29532 Y17.26500
G01 X48.31587 Y17.22939
G01 X48.34340 Y17.19884
G01 X48.34041 Y17.19551
G01 X48.34340 Y17.19884
G01 X48.37665 Y17.17466
G01 X48.41424 Y17.15794
G01 X48.41285 Y17.15368
G01 X48.41424 Y17.15794
G01 X48.45445 Y17.14938
G01 X48.49557 Y17.14938
G01 X48.49603 Y17.14494
G01 X48.49557 Y17.14938
G01 X48.53578 Y17.15794
G01 X48.57335 Y17.17466
G01 X48.57721 Y17.16874
G01 X48.57335 Y17.17466
G01 X48.60662 Y17.19884
G01 X48.63416 Y17.22939
G01 X48.65470 Y17.26503
G01 X48.66100 Y17.26180
G01 X48.65470 Y17.26503
G01 X48.66740 Y17.30409
G01 X48.67172 Y17.34501
G04 P0 ( dwell for no time -- G64 should not smooth over this point )
G00 Z0.50000 ( retract )

G00 X49.07391 Y19.88501 ( rapid move to begin. )
G01 F100.00000
( Mill infeed pass 1/1 )
G01 Z-0.15000
G04 P0 ( dwell for no time -- G64 should not smooth over this point )
G01 F200.00000
G01 X49.07391 Y19.88501
G01 X49.06083 Y19.76050
G01 X49.02214 Y19.64140
G01 X48.95956 Y19.53300
G01 X48.87576 Y19.43996
G01 X48.77447 Y19.36635
G01 X48.66009 Y19.31542
G01 X48.53761 Y19.28938
G01 X48.41241 Y19.28938
G01 X48.28994 Y19.31542
G01 X48.17556 Y19.36635
G01 X48.07426 Y19.43996
G01 X47.99049 Y19.53300
G01 X47.92788 Y19.64140
G01 X47.88920 Y19.76048
G01 X47.87612 Y19.88501
G01 X47.88920 Y20.00955
G01 X47.92788 Y20.12860
G01 X47.99049 Y20.23703
G01 X48.07426 Y20.33007
G01 X48.17556 Y20.40368
G01 X48.28994 Y20.45458
G01 X48.41241 Y20.48064
G01 X48.53761 Y20.48064
G01 X48.66006 Y20.45461
G01 X48.77447 Y20.40368
G01 X48.87576 Y20.33007
G01 X48.95953 Y20.23703
G01 X49.02214 Y20.12863
G01 X49.06083 Y20.00952
G01 X49.07391 Y19.88501
G01 X48.87281 Y19.88501
G01 X48.86413 Y19.80229
G01 X48.86850 Y19.80137
G01 X48.86413 Y19.80229
G01 X48.83842 Y19.72322
G01 X48.79684 Y19.65121
G01 X48.80045 Y19.64857
G01 X48.79684 Y19.65121
G01 X48.74119 Y19.58938
G01 X48.67391 Y19.54051
G01 X48.67614 Y19.53663
G01 X48.67391 Y19.54051
G01 X48.59794 Y19.50668
G01 X48.51658 Y19.48938
G01 X48.51706 Y19.48494
G01 X48.51658 Y19.48938
G01 X48.43345 Y19.48938
G01 X48.35209 Y19.50668
G01 X48.35069 Y19.50244
G01 X48.35209 Y19.50668
G01 X48.27612 Y19.54051
G01 X48.20726 Y19.58745
G01 X48.15110 Y19.64984
G01 X48.11160 Y19.72322
G01 X48.08590 Y19.80234
G01 X48.08153 Y19.80140
G01 X48.08590 Y19.80234
G01 X48.07721 Y19.88501
G01 X48.08590 Y19.96769
G01 X48.08153 Y19.96863
G01 X48.08590 Y19.96769
G01 X48.11160 Y20.04681
G01 X48.15318 Y20.11882
G01 X48.14958 Y20.12146
G01 X48.15318 Y20.11882
G01 X48.20883 Y20.18064
G01 X48.27612 Y20.22951
G01 X48.27388 Y20.23338
G01 X48.27612 Y20.22951
G01 X48.35209 Y20.26335
G01 X48.43345 Y20.28064
G01 X48.43296 Y20.28509
G01 X48.43345 Y20.28064
G01 X48.51658 Y20.28064
G01 X48.59794 Y20.26335
G01 X48.59933 Y20.26759
G01 X48.59794 Y20.26335
G01 X48.67391 Y20.22951
G01 X48.74277 Y20.18258
G01 X48.79893 Y20.12019
G01 X48.83842 Y20.04681
G01 X48.86413 Y19.96772
G01 X48.86850 Y19.96866
G01 X48.86413 Y19.96772
G01 X48.87281 Y19.88501
G01 X48.67172 Y19.88501
G01 X48.66740 Y19.84412
G01 X48.65470 Y19.80500
G01 X48.65879 Y19.80320
G01 X48.65470 Y19.80500
G01 X48.63416 Y19.76942
G01 X48.60662 Y19.73881
G01 X48.60959 Y19.73548
G01 X48.60662 Y19.73881
G01 X48.57337 Y19.71466
G01 X48.53581 Y19.69794
G01 X48.53764 Y19.69114
G01 X48.53581 Y19.69794
G01 X48.49557 Y19.68938
G01 X48.45445 Y19.68938
G01 X48.41422 Y19.69794
G01 X48.41239 Y19.69114
G01 X48.41422 Y19.69794
G01 X48.37665 Y19.71468
G01 X48.34340 Y19.73881
G01 X48.34043 Y19.73548
G01 X48.34340 Y19.73881
G01 X48.31587 Y19.76939
G01 X48.29532 Y19.80498
G01 X48.28874 Y19.80246
G01 X48.29532 Y19.80498
G01 X48.28262 Y19.84412
G01 X48.27830 Y19.88501
G01 X48.28262 Y19.92591
G01 X48.27564 Y19.92703
G01 X48.28262 Y19.92591
G01 X48.29532 Y19.96502
G01 X48.31587 Y20.00063
G01 X48.31226 Y20.00325
G01 X48.31587 Y20.00063
G01 X48.34340 Y20.03119
G01 X48.37668 Y20.05537
G01 X48.37444 Y20.05923
G01 X48.37668 Y20.05537
G01 X48.41422 Y20.07209
G01 X48.45445 Y20.08064
G01 X48.45399 Y20.08509
G01 X48.45445 Y20.08064
G01 X48.49557 Y20.08064
G01 X48.53581 Y20.07209
G01 X48.53718 Y20.07633
G01 X48.53581 Y20.07209
G01 X48.57335 Y20.05537
G01 X48.60662 Y20.03119
G01 X48.60962 Y20.03452
G01 X48.60662 Y20.03119
G01 X48.63416 Y20.00061
G01 X48.65470 Y19.96500
G01 X48.65879 Y19.96683
G01 X48.65470 Y19.96500
G01 X48.66740 Y19.92591
G01 X48.67172 Y19.88501
G04 P0 ( dwell for no time -- G64 should not smooth over this point )
G00 Z0.50000 ( retract )

G00 X49.07391 Y22.42501 ( rapid move to begin. )
G01 F100.00000
( Mill infeed pass 1/1 )
G01 Z-0.15000
G04 P0 ( dwell for no time -- G64 should not smooth over this point )
G01 F200.00000
G01 X49.07391 Y22.42501
G01 X49.06083 Y22.30050
G01 X49.02214 Y22.18140
G01 X48.95953 Y22.07300
G01 X48.87576 Y21.97996
G01 X48.77447 Y21.90635
G01 X48.66006 Y21.85542
G01 X48.53761 Y21.82938
G01 X48.41241 Y21.82938
G01 X48.28994 Y21.85542
G01 X48.17556 Y21.90635
G01 X48.07426 Y21.97996
G01 X47.99049 Y22.07300
G01 X47.92788 Y22.18143
G01 X47.88920 Y22.30048
G01 X47.87612 Y22.42501
G01 X47.88920 Y22.54955
G01 X47.89956 Y22.58145
G01 X47.92788 Y22.66860
G01 X47.99049 Y22.77706
G01 X48.07426 Y22.87007
G01 X48.17558 Y22.94368
G01 X48.28994 Y22.99458
G01 X48.41241 Y23.02064
G01 X48.53761 Y23.02064
G01 X48.66006 Y22.99461
G01 X48.77444 Y22.94368
G01 X48.87574 Y22.87010
G01 X48.95953 Y22.77703
G01 X49.02214 Y22.66863
G01 X49.06083 Y22.54952
G01 X49.07391 Y22.42501
G01 X48.87281 Y22.42501
G01 X48.86413 Y22.34231
G01 X48.86850 Y22.34137
G01 X48.86413 Y22.34231
G01 X48.83842 Y22.26322
G01 X48.79893 Y22.18984
G01 X48.74277 Y22.12745
G01 X48.67391 Y22.08051
G01 X48.59796 Y22.04668
G01 X48.59933 Y22.04244
G01 X48.59796 Y22.04668
G01 X48.51658 Y22.02938
G01 X48.43345 Y22.02938
G01 X48.43296 Y22.02494
G01 X48.43345 Y22.02938
G01 X48.35206 Y22.04668
G01 X48.27612 Y22.08051
G01 X48.27388 Y22.07663
G01 X48.27612 Y22.08051
G01 X48.20883 Y22.12938
G01 X48.15318 Y22.19121
G01 X48.14958 Y22.18857
G01 X48.15318 Y22.19121
G01 X48.11160 Y22.26322
G01 X48.08590 Y22.34234
G01 X48.08153 Y22.34140
G01 X48.08590 Y22.34234
G01 X48.07721 Y22.42501
G01 X48.08343 Y22.50810
G01 X48.10939 Y22.58796
G01 X48.15318 Y22.65885
G01 X48.20883 Y22.72064
G01 X48.20584 Y22.72395
G01 X48.20883 Y22.72064
G01 X48.27612 Y22.76951
G01 X48.35209 Y22.80335
G01 X48.35069 Y22.80759
G01 X48.35209 Y22.80335
G01 X48.43345 Y22.82064
G01 X48.51658 Y22.82064
G01 X48.51706 Y22.82509
G01 X48.51658 Y22.82064
G01 X48.59794 Y22.80335
G01 X48.67391 Y22.76951
G01 X48.67614 Y22.77340
G01 X48.67391 Y22.76951
G01 X48.74119 Y22.72062
G01 X48.79684 Y22.65885
G01 X48.80045 Y22.66146
G01 X48.79684 Y22.65885
G01 X48.83842 Y22.58681
G01 X48.86413 Y22.50772
G01 X48.86850 Y22.50866
G01 X48.86413 Y22.50772
G01 X48.87281 Y22.42501
G01 X48.67172 Y22.42501
G01 X48.66740 Y22.38409
G01 X48.65470 Y22.34503
G01 X48.65879 Y22.34320
G01 X48.65470 Y22.34503
G01 X48.63416 Y22.30939
G01 X48.60662 Y22.27884
G01 X48.60962 Y22.27551
G01 X48.60662 Y22.27884
G01 X48.57335 Y22.25466
G01 X48.53581 Y22.23794
G01 X48.53720 Y22.23370
G01 X48.53581 Y22.23794
G01 X48.49557 Y22.22938
G01 X48.45445 Y22.22938
G01 X48.45336 Y22.22242
G01 X48.45445 Y22.22938
G01 X48.41422 Y22.23794
G01 X48.37665 Y22.25466
G01 X48.34340 Y22.27884
G01 X48.33896 Y22.27335
G01 X48.34340 Y22.27884
G01 X48.31587 Y22.30939
G01 X48.29532 Y22.34500
G01 X48.29123 Y22.34320
G01 X48.29532 Y22.34500
G01 X48.28262 Y22.38409
G01 X48.27830 Y22.42501
G01 X48.27383 Y22.42501
G01 X48.27830 Y22.42501
G01 X48.28262 Y22.46593
G01 X48.29532 Y22.50502
G01 X48.29123 Y22.50685
G01 X48.29532 Y22.50502
G01 X48.31587 Y22.54063
G01 X48.34340 Y22.57119
G01 X48.34041 Y22.57452
G01 X48.34340 Y22.57119
G01 X48.37665 Y22.59537
G01 X48.41424 Y22.61209
G01 X48.41285 Y22.61635
G01 X48.41424 Y22.61209
G01 X48.45445 Y22.62064
G01 X48.49557 Y22.62064
G01 X48.49667 Y22.62760
G01 X48.49557 Y22.62064
G01 X48.53578 Y22.61209
G01 X48.57335 Y22.59537
G01 X48.60662 Y22.57119
G01 X48.61107 Y22.57668
G01 X48.60662 Y22.57119
G01 X48.63416 Y22.54061
G01 X48.65470 Y22.50500
G01 X48.65879 Y22.50683
G01 X48.65470 Y22.50500
G01 X48.66740 Y22.46593
G01 X48.67172 Y22.42501
G04 P0 ( dwell for no time -- G64 should not smooth over this point )
G00 Z0.50000 ( retract )

G00 X49.07391 Y24.96501 ( rapid move to begin. )
G01 F100.00000
( Mill infeed pass 1/1 )
G01 Z-0.15000
G04 P0 ( dwell for no time -- G64 should not smooth over this point )
G01 F200.00000
G01 X49.07391 Y24.96501
G01 X49.06083 Y25.08952
G01 X49.02214 Y25.20863
G01 X48.95953 Y25.31703
G01 X48.87574 Y25.41010
G01 X48.77447 Y25.48368
G01 X48.66009 Y25.53458
G01 X48.53761 Y25.56064
G01 X48.41241 Y25.56064
G01 X48.28994 Y25.53458
G01 X48.17556 Y25.48368
G01 X48.07426 Y25.41007
G01 X47.99049 Y25.31706
G01 X47.92788 Y25.20860
G01 X47.88920 Y25.08952
G01 X47.87612 Y24.96501
G01 X47.88920 Y24.84048
G01 X47.92788 Y24.72143
G01 X47.99049 Y24.61297
G01 X48.07426 Y24.51996
G01 X48.17556 Y24.44635
G01 X48.28994 Y24.39542
G01 X48.41241 Y24.36938
G01 X48.53761 Y24.36938
G01 X48.66006 Y24.39542
G01 X48.77447 Y24.44635
G01 X48.87576 Y24.51996
G01 X48.95953 Y24.61300
G01 X49.02214 Y24.72143
G01 X49.06083 Y24.84050
G01 X49.07391 Y24.96501
G01 X48.87281 Y24.96501
G01 X48.86413 Y25.04772
G01 X48.83842 Y25.12681
G01 X48.84251 Y25.12862
G01 X48.83842 Y25.12681
G01 X48.79684 Y25.19885
G01 X48.74119 Y25.26062
G01 X48.74419 Y25.26395
G01 X48.74119 Y25.26062
G01 X48.67391 Y25.30951
G01 X48.59791 Y25.34335
G01 X48.59931 Y25.34759
G01 X48.59791 Y25.34335
G01 X48.51663 Y25.36064
G01 X48.43339 Y25.36064
G01 X48.43294 Y25.36509
G01 X48.43339 Y25.36064
G01 X48.35211 Y25.34335
G01 X48.27609 Y25.30951
G01 X48.27386 Y25.31338
G01 X48.27609 Y25.30951
G01 X48.20883 Y25.26064
G01 X48.15318 Y25.19885
G01 X48.14958 Y25.20146
G01 X48.15318 Y25.19885
G01 X48.11160 Y25.12681
G01 X48.08590 Y25.04769
G01 X48.08153 Y25.04863
G01 X48.08590 Y25.04769
G01 X48.07721 Y24.96501
G01 X48.08590 Y24.88234
G01 X48.08153 Y24.88140
G01 X48.08590 Y24.88234
G01 X48.11160 Y24.80322
G01 X48.15110 Y24.72984
G01 X48.20728 Y24.66743
G01 X48.27609 Y24.62051
G01 X48.35209 Y24.58668
G01 X48.35072 Y24.58244
G01 X48.35209 Y24.58668
G01 X48.43342 Y24.56938
G01 X48.51661 Y24.56938
G01 X48.51706 Y24.56494
G01 X48.51661 Y24.56938
G01 X48.59794 Y24.58668
G01 X48.67391 Y24.62051
G01 X48.67614 Y24.61663
G01 X48.67391 Y24.62051
G01 X48.74119 Y24.66938
G01 X48.79684 Y24.73121
G01 X48.80045 Y24.72857
G01 X48.79684 Y24.73121
G01 X48.83842 Y24.80322
G01 X48.86652 Y24.88165
G01 X48.87530 Y24.96514
G01 X48.67172 Y24.96501
G01 X48.66740 Y24.92409
G01 X48.65470 Y24.88503
G01 X48.65879 Y24.88320
G01 X48.65470 Y24.88503
G01 X48.63416 Y24.84939
G01 X48.60662 Y24.81884
G01 X48.60962 Y24.81551
G01 X48.60662 Y24.81884
G01 X48.57335 Y24.79466
G01 X48.53578 Y24.77794
G01 X48.53718 Y24.77368
G01 X48.53578 Y24.77794
G01 X48.49560 Y24.76938
G01 X48.45443 Y24.76938
G01 X48.45397 Y24.76494
G01 X48.45443 Y24.76938
G01 X48.41424 Y24.77794
G01 X48.37665 Y24.79466
G01 X48.37282 Y24.78874
G01 X48.37665 Y24.79466
G01 X48.34340 Y24.81884
G01 X48.31587 Y24.84939
G01 X48.29532 Y24.88500
G01 X48.28902 Y24.88180
G01 X48.29532 Y24.88500
G01 X48.28262 Y24.92409
G01 X48.27830 Y24.96501
G01 X48.27383 Y24.96501
G01 X48.27830 Y24.96501
G01 X48.28262 Y25.00593
G01 X48.29532 Y25.04502
G01 X48.29123 Y25.04683
G01 X48.29532 Y25.04502
G01 X48.31587 Y25.08063
G01 X48.34340 Y25.11119
G01 X48.34041 Y25.11452
G01 X48.34340 Y25.11119
G01 X48.37665 Y25.13537
G01 X48.41424 Y25.15209
G01 X48.41285 Y25.15635
G01 X48.41424 Y25.15209
G01 X48.45443 Y25.16064
G01 X48.49560 Y25.16064
G01 X48.49606 Y25.16509
G01 X48.49560 Y25.16064
G01 X48.53578 Y25.15209
G01 X48.57335 Y25.13537
G01 X48.57721 Y25.14129
G01 X48.57335 Y25.13537
G01 X48.60662 Y25.11119
G01 X48.63416 Y25.08063
G01 X48.65470 Y25.04500
G01 X48.66100 Y25.04820
G01 X48.65470 Y25.04500
G01 X48.66740 Y25.00593
G01 X48.67172 Y24.96501
G04 P0 ( dwell for no time -- G64 should not smooth over this point )
G00 Z0.50000 ( retract )

G00 X49.07391 Y27.50501 ( rapid move to begin. )
G01 F100.00000
( Mill infeed pass 1/1 )
G01 Z-0.15000
G04 P0 ( dwell for no time -- G64 should not smooth over this point )
G01 F200.00000
G01 X49.07391 Y27.50501
G01 X49.06083 Y27.38050
G01 X49.02214 Y27.26143
G01 X48.95953 Y27.15300
G01 X48.87574 Y27.05993
G01 X48.77447 Y26.98635
G01 X48.66009 Y26.93542
G01 X48.53761 Y26.90938
G01 X48.41241 Y26.90938
G01 X48.28994 Y26.93542
G01 X48.17556 Y26.98635
G01 X48.07426 Y27.05996
G01 X47.99049 Y27.15297
G01 X47.92788 Y27.26143
G01 X47.88920 Y27.38048
G01 X47.87612 Y27.50501
G01 X47.88920 Y27.62952
G01 X47.92788 Y27.74860
G01 X47.99049 Y27.85703
G01 X48.07426 Y27.95007
G01 X48.17556 Y28.02368
G01 X48.24681 Y28.05541
G01 X48.28994 Y28.07461
G01 X48.41239 Y28.10062
G01 X48.53764 Y28.10062
G01 X48.66009 Y28.07461
G01 X48.77449 Y28.02366
G01 X48.87576 Y27.95007
G01 X48.95953 Y27.85703
G01 X49.02214 Y27.74860
G01 X49.06083 Y27.62952
G01 X49.07391 Y27.50501
G01 X48.87281 Y27.50501
G01 X48.86659 Y27.42191
G01 X48.84063 Y27.34207
G01 X48.79684 Y27.27118
G01 X48.74119 Y27.20938
G01 X48.74419 Y27.20608
G01 X48.74119 Y27.20938
G01 X48.67391 Y27.16051
G01 X48.59791 Y27.12668
G01 X48.59931 Y27.12241
G01 X48.59791 Y27.12668
G01 X48.51663 Y27.10938
G01 X48.43339 Y27.10938
G01 X48.43294 Y27.10494
G01 X48.43339 Y27.10938
G01 X48.35211 Y27.12668
G01 X48.27609 Y27.16051
G01 X48.27386 Y27.15665
G01 X48.27609 Y27.16051
G01 X48.20883 Y27.20938
G01 X48.15318 Y27.27118
G01 X48.14958 Y27.26857
G01 X48.15318 Y27.27118
G01 X48.11160 Y27.34322
G01 X48.08590 Y27.42234
G01 X48.08153 Y27.42140
G01 X48.08590 Y27.42234
G01 X48.07721 Y27.50501
G01 X48.08590 Y27.58769
G01 X48.08153 Y27.58863
G01 X48.08590 Y27.58769
G01 X48.11160 Y27.66681
G01 X48.15110 Y27.74019
G01 X48.20728 Y27.80260
G01 X48.27609 Y27.84951
G01 X48.35209 Y27.88335
G01 X48.35072 Y27.88759
G01 X48.35209 Y27.88335
G01 X48.43342 Y27.90064
G01 X48.51661 Y27.90064
G01 X48.51706 Y27.90509
G01 X48.51661 Y27.90064
G01 X48.59794 Y27.88335
G01 X48.67391 Y27.84951
G01 X48.67614 Y27.85340
G01 X48.67391 Y27.84951
G01 X48.74119 Y27.80064
G01 X48.79684 Y27.73882
G01 X48.80045 Y27.74146
G01 X48.79684 Y27.73882
G01 X48.83842 Y27.66681
G01 X48.86413 Y27.58772
G01 X48.86850 Y27.58866
G01 X48.86413 Y27.58772
G01 X48.87281 Y27.50501
G01 X48.67172 Y27.50501
G01 X48.66740 Y27.54593
G01 X48.65470 Y27.58500
G01 X48.65879 Y27.58683
G01 X48.65470 Y27.58500
G01 X48.63416 Y27.62063
G01 X48.60662 Y27.65119
G01 X48.60962 Y27.65452
G01 X48.60662 Y27.65119
G01 X48.57335 Y27.67537
G01 X48.53581 Y27.69209
G01 X48.53764 Y27.69889
G01 X48.53581 Y27.69209
G01 X48.49557 Y27.70064
G01 X48.45445 Y27.70064
G01 X48.41422 Y27.69209
G01 X48.41239 Y27.69889
G01 X48.41422 Y27.69209
G01 X48.37665 Y27.67537
G01 X48.34340 Y27.65119
G01 X48.34041 Y27.65452
G01 X48.34340 Y27.65119
G01 X48.31587 Y27.62063
G01 X48.29532 Y27.58502
G01 X48.29123 Y27.58683
G01 X48.29532 Y27.58502
G01 X48.28262 Y27.54593
G01 X48.27830 Y27.50501
G01 X48.27383 Y27.50501
G01 X48.27830 Y27.50501
G01 X48.28262 Y27.46409
G01 X48.29532 Y27.42500
G01 X48.29123 Y27.42318
G01 X48.29532 Y27.42500
G01 X48.31587 Y27.38939
G01 X48.34340 Y27.35884
G01 X48.34041 Y27.35551
G01 X48.34340 Y27.35884
G01 X48.37665 Y27.33466
G01 X48.41424 Y27.31794
G01 X48.41285 Y27.31368
G01 X48.41424 Y27.31794
G01 X48.45445 Y27.30938
G01 X48.49557 Y27.30938
G01 X48.49603 Y27.30494
G01 X48.49557 Y27.30938
G01 X48.53578 Y27.31794
G01 X48.57335 Y27.33466
G01 X48.57721 Y27.32874
G01 X48.57335 Y27.33466
G01 X48.60662 Y27.35884
G01 X48.63416 Y27.38939
G01 X48.65470 Y27.42503
G01 X48.66100 Y27.42180
G01 X48.65470 Y27.42503
G01 X48.66740 Y27.46409
G01 X48.67172 Y27.50501
G04 P0 ( dwell for no time -- G64 should not smooth over this point )
G00 Z0.50000 ( retract )

G00 X49.07391 Y30.04501 ( rapid move to begin. )
G01 F100.00000
( Mill infeed pass 1/1 )
G01 Z-0.15000
G04 P0 ( dwell for no time -- G64 should not smooth over this point )
G01 F200.00000
G01 X49.07391 Y30.04501
G01 X49.06083 Y29.92050
G01 X49.02212 Y29.80140
G01 X48.95953 Y29.69300
G01 X48.87574 Y29.59993
G01 X48.77447 Y29.52635
G01 X48.74315 Y29.51240
G01 X48.66006 Y29.47542
G01 X48.53761 Y29.44938
G01 X48.41241 Y29.44938
G01 X48.28994 Y29.47542
G01 X48.17556 Y29.52635
G01 X48.07426 Y29.59996
G01 X47.99049 Y29.69297
G01 X47.92788 Y29.80143
G01 X47.88920 Y29.92048
G01 X47.87612 Y30.04501
G01 X47.88920 Y30.16955
G01 X47.92788 Y30.28863
G01 X47.99049 Y30.39703
G01 X48.07426 Y30.49007
G01 X48.17556 Y30.56368
G01 X48.24681 Y30.59541
G01 X48.28994 Y30.61461
G01 X48.41239 Y30.64062
G01 X48.53764 Y30.64062
G01 X48.66009 Y30.61461
G01 X48.77449 Y30.56366
G01 X48.87576 Y30.49007
G01 X48.95956 Y30.39703
G01 X49.02214 Y30.28863
G01 X49.06083 Y30.16952
G01 X49.07391 Y30.04501
G01 X48.87281 Y30.04501
G01 X48.86413 Y29.96231
G01 X48.86850 Y29.96137
G01 X48.86413 Y29.96231
G01 X48.83842 Y29.88322
G01 X48.79684 Y29.81118
G01 X48.80045 Y29.80857
G01 X48.79684 Y29.81118
G01 X48.74119 Y29.74938
G01 X48.67391 Y29.70051
G01 X48.67614 Y29.69663
G01 X48.67391 Y29.70051
G01 X48.59794 Y29.66668
G01 X48.51658 Y29.64938
G01 X48.51706 Y29.64494
G01 X48.51658 Y29.64938
G01 X48.43345 Y29.64938
G01 X48.35143 Y29.66427
G01 X48.27475 Y29.69843
G01 X48.20883 Y29.74938
G01 X48.15318 Y29.81118
G01 X48.14958 Y29.80857
G01 X48.15318 Y29.81118
G01 X48.11160 Y29.88322
G01 X48.08590 Y29.96234
G01 X48.08153 Y29.96140
G01 X48.08590 Y29.96234
G01 X48.07721 Y30.04501
G01 X48.08590 Y30.12769
G01 X48.08153 Y30.12863
G01 X48.08590 Y30.12769
G01 X48.11160 Y30.20681
G01 X48.15110 Y30.28019
G01 X48.20726 Y30.34258
G01 X48.27612 Y30.38951
G01 X48.35206 Y30.42335
G01 X48.35069 Y30.42759
G01 X48.35206 Y30.42335
G01 X48.43345 Y30.44064
G01 X48.51658 Y30.44064
G01 X48.51706 Y30.44509
G01 X48.51658 Y30.44064
G01 X48.59796 Y30.42335
G01 X48.67391 Y30.38951
G01 X48.67614 Y30.39340
G01 X48.67391 Y30.38951
G01 X48.74119 Y30.34064
G01 X48.79684 Y30.27882
G01 X48.80045 Y30.28146
G01 X48.79684 Y30.27882
G01 X48.83842 Y30.20681
G01 X48.86413 Y30.12772
G01 X48.86850 Y30.12866
G01 X48.86413 Y30.12772
G01 X48.87281 Y30.04501
G01 X48.67172 Y30.04501
G01 X48.66740 Y30.08591
G01 X48.65470 Y30.12502
G01 X48.65879 Y30.12683
G01 X48.65470 Y30.12502
G01 X48.63416 Y30.16063
G01 X48.60662 Y30.19119
G01 X48.60962 Y30.19452
G01 X48.60662 Y30.19119
G01 X48.57337 Y30.21535
G01 X48.53581 Y30.23209
G01 X48.53764 Y30.23889
G01 X48.53581 Y30.23209
G01 X48.49557 Y30.24064
G01 X48.45445 Y30.24064
G01 X48.41422 Y30.23209
G01 X48.41239 Y30.23889
G01 X48.41422 Y30.23209
G01 X48.37665 Y30.21535
G01 X48.34340 Y30.19119
G01 X48.34041 Y30.19452
G01 X48.34340 Y30.19119
G01 X48.31587 Y30.16063
G01 X48.29532 Y30.12502
G01 X48.29123 Y30.12685
G01 X48.29532 Y30.12502
G01 X48.28262 Y30.08591
G01 X48.27830 Y30.04501
G01 X48.27383 Y30.04501
G01 X48.27830 Y30.04501
G01 X48.28262 Y30.00409
G01 X48.29532 Y29.96500
G01 X48.29123 Y29.96318
G01 X48.29532 Y29.96500
G01 X48.31587 Y29.92939
G01 X48.34340 Y29.89884
G01 X48.34041 Y29.89551
G01 X48.34340 Y29.89884
G01 X48.37665 Y29.87466
G01 X48.41424 Y29.85794
G01 X48.41285 Y29.85368
G01 X48.41424 Y29.85794
G01 X48.45445 Y29.84938
G01 X48.49557 Y29.84938
G01 X48.49603 Y29.84494
G01 X48.49557 Y29.84938
G01 X48.53578 Y29.85794
G01 X48.57335 Y29.87466
G01 X48.57721 Y29.86874
G01 X48.57335 Y29.87466
G01 X48.60662 Y29.89884
G01 X48.63416 Y29.92939
G01 X48.65470 Y29.96503
G01 X48.66100 Y29.96180
G01 X48.65470 Y29.96503
G01 X48.66740 Y30.00409
G01 X48.67172 Y30.04501
G04 P0 ( dwell for no time -- G64 should not smooth over this point )
G00 Z0.50000 ( retract )

G00 X49.07502 Y31.98502 ( rapid move to begin. )
G01 F100.00000
( Mill infeed pass 1/1 )
G01 Z-0.15000
G04 P0 ( dwell for no time -- G64 should not smooth over this point )
G01 F200.00000
G01 X49.07502 Y31.98502
G01 X49.07502 Y33.18501
G01 X47.87500 Y33.18501
G01 X47.87500 Y31.98502
G01 X49.07502 Y31.98502
G01 X48.87502 Y32.18501
G01 X48.87502 Y32.98501
G01 X48.93360 Y33.04359
G01 X48.87502 Y32.98501
G01 X48.07500 Y32.98501
G01 X48.01643 Y33.04359
G01 X48.07500 Y32.98501
G01 X48.07500 Y32.18501
G01 X48.01643 Y32.12644
G01 X48.07500 Y32.18501
G01 X48.87502 Y32.18501
G01 X48.67502 Y32.38501
G01 X48.67502 Y32.78501
G01 X48.73360 Y32.84361
G01 X48.67502 Y32.78501
G01 X48.27500 Y32.78501
G01 X48.21643 Y32.84361
G01 X48.27500 Y32.78501
G01 X48.27500 Y32.38501
G01 X48.21643 Y32.32642
G01 X48.27500 Y32.38501
G01 X48.67502 Y32.38501
G04 P0 ( dwell for no time -- G64 should not smooth over this point )
G00 Z0.50000 ( retract )

G00 X45.25502 Y29.44502 ( rapid move to begin. )
G01 F100.00000
( Mill infeed pass 1/1 )
G01 Z-0.15000
G04 P0 ( dwell for no time -- G64 should not smooth over this point )
G01 F200.00000
G01 X45.25502 Y29.44502
G01 X45.25502 Y30.64501
G01 X44.05502 Y30.64501
G01 X44.05502 Y29.44502
G01 X45.25502 Y29.44502
G01 X45.05502 Y29.64501
G01 X45.05502 Y30.44501
G01 X45.11359 Y30.50359
G01 X45.05502 Y30.44501
G01 X44.25502 Y30.44501
G01 X44.19642 Y30.50359
G01 X44.25502 Y30.44501
G01 X44.25502 Y29.64501
G01 X44.19642 Y29.58644
G01 X44.25502 Y29.64501
G01 X45.05502 Y29.64501
G01 X44.85502 Y29.84501
G01 X44.85502 Y30.24501
G01 X44.91359 Y30.30361
G01 X44.85502 Y30.24501
G01 X44.45502 Y30.24501
G01 X44.39642 Y30.30361
G01 X44.45502 Y30.24501
G01 X44.45502 Y29.84501
G01 X44.39642 Y29.78642
G01 X44.45502 Y29.84501
G01 X44.85502 Y29.84501
G04 P0 ( dwell for no time -- G64 should not smooth over this point )
G00 Z0.50000 ( retract )

G00 X45.25390 Y27.50501 ( rapid move to begin. )
G01 F100.00000
( Mill infeed pass 1/1 )
G01 Z-0.15000
G04 P0 ( dwell for no time -- G64 should not smooth over this point )
G01 F200.00000
G01 X45.25390 Y27.50501
G01 X45.24082 Y27.38050
G01 X45.20213 Y27.26143
G01 X45.13952 Y27.15297
G01 X45.05575 Y27.05996
G01 X44.95446 Y26.98635
G01 X44.84011 Y26.93544
G01 X44.71760 Y26.90938
G01 X44.59243 Y26.90938
G01 X44.46993 Y26.93544
G01 X44.35558 Y26.98635
G01 X44.25428 Y27.05996
G01 X44.17051 Y27.15297
G01 X44.10790 Y27.26140
G01 X44.06919 Y27.38050
G01 X44.05611 Y27.50501
G01 X44.06919 Y27.62952
G01 X44.10790 Y27.74860
G01 X44.17049 Y27.85703
G01 X44.25426 Y27.95007
G01 X44.35555 Y28.02368
G01 X44.46995 Y28.07461
G01 X44.59238 Y28.10062
G01 X44.71763 Y28.10062
G01 X44.84008 Y28.07461
G01 X44.95448 Y28.02366
G01 X45.05575 Y27.95007
G01 X45.13952 Y27.85703
G01 X45.20213 Y27.74860
G01 X45.24082 Y27.62952
G01 X45.25390 Y27.50501
G01 X45.05281 Y27.50501
G01 X45.04412 Y27.42231
G01 X45.04849 Y27.42137
G01 X45.04412 Y27.42231
G01 X45.01842 Y27.34322
G01 X44.97684 Y27.27118
G01 X44.98044 Y27.26857
G01 X44.97684 Y27.27118
G01 X44.92118 Y27.20938
G01 X44.85393 Y27.16051
G01 X44.85616 Y27.15665
G01 X44.85393 Y27.16051
G01 X44.77793 Y27.12668
G01 X44.69662 Y27.10938
G01 X44.69708 Y27.10494
G01 X44.69662 Y27.10938
G01 X44.61341 Y27.10938
G01 X44.53211 Y27.12668
G01 X44.53071 Y27.12241
G01 X44.53211 Y27.12668
G01 X44.45611 Y27.16051
G01 X44.38883 Y27.20938
G01 X44.38585 Y27.20608
G01 X44.38883 Y27.20938
G01 X44.33320 Y27.27118
G01 X44.28938 Y27.34207
G01 X44.26345 Y27.42191
G01 X44.25720 Y27.50501
G01 X44.26592 Y27.58772
G01 X44.26155 Y27.58866
G01 X44.26592 Y27.58772
G01 X44.29159 Y27.66681
G01 X44.33317 Y27.73882
G01 X44.32957 Y27.74146
G01 X44.33317 Y27.73882
G01 X44.38885 Y27.80064
G01 X44.45611 Y27.84951
G01 X44.45388 Y27.85338
G01 X44.45611 Y27.84951
G01 X44.53211 Y27.88335
G01 X44.61344 Y27.90064
G01 X44.61296 Y27.90509
G01 X44.61344 Y27.90064
G01 X44.69660 Y27.90064
G01 X44.77793 Y27.88335
G01 X44.77930 Y27.88759
G01 X44.77793 Y27.88335
G01 X44.85393 Y27.84951
G01 X44.92273 Y27.80260
G01 X44.97894 Y27.74019
G01 X45.01842 Y27.66681
G01 X45.04412 Y27.58772
G01 X45.04849 Y27.58866
G01 X45.04412 Y27.58772
G01 X45.05281 Y27.50501
G01 X44.85172 Y27.50501
G01 X44.84742 Y27.54593
G01 X44.85438 Y27.54703
G01 X44.84742 Y27.54593
G01 X44.83470 Y27.58502
G01 X44.81415 Y27.62063
G01 X44.81776 Y27.62325
G01 X44.81415 Y27.62063
G01 X44.78664 Y27.65119
G01 X44.75337 Y27.67537
G01 X44.75560 Y27.67923
G01 X44.75337 Y27.67537
G01 X44.71580 Y27.69209
G01 X44.67559 Y27.70064
G01 X44.67605 Y27.70509
G01 X44.67559 Y27.70064
G01 X44.63444 Y27.70064
G01 X44.59421 Y27.69209
G01 X44.59284 Y27.69633
G01 X44.59421 Y27.69209
G01 X44.55667 Y27.67537
G01 X44.52339 Y27.65119
G01 X44.52040 Y27.65449
G01 X44.52339 Y27.65119
G01 X44.49589 Y27.62063
G01 X44.47531 Y27.58500
G01 X44.47122 Y27.58683
G01 X44.47531 Y27.58500
G01 X44.46261 Y27.54593
G01 X44.45832 Y27.50501
G01 X44.45385 Y27.50501
G01 X44.45832 Y27.50501
G01 X44.46261 Y27.46409
G01 X44.47531 Y27.42503
G01 X44.46901 Y27.42180
G01 X44.47531 Y27.42503
G01 X44.49589 Y27.38939
G01 X44.52339 Y27.35884
G01 X44.55667 Y27.33466
G01 X44.55283 Y27.32874
G01 X44.55667 Y27.33466
G01 X44.59424 Y27.31794
G01 X44.63447 Y27.30938
G01 X44.63399 Y27.30494
G01 X44.63447 Y27.30938
G01 X44.67557 Y27.30938
G01 X44.71580 Y27.31794
G01 X44.71717 Y27.31368
G01 X44.71580 Y27.31794
G01 X44.75337 Y27.33466
G01 X44.78664 Y27.35884
G01 X44.78961 Y27.35551
G01 X44.78664 Y27.35884
G01 X44.81415 Y27.38939
G01 X44.83470 Y27.42500
G01 X44.84130 Y27.42246
G01 X44.83470 Y27.42500
G01 X44.84742 Y27.46409
G01 X44.85172 Y27.50501
G04 P0 ( dwell for no time -- G64 should not smooth over this point )
G00 Z0.50000 ( retract )

G00 X45.25390 Y24.96501 ( rapid move to begin. )
G01 F100.00000
( Mill infeed pass 1/1 )
G01 Z-0.15000
G04 P0 ( dwell for no time -- G64 should not smooth over this point )
G01 F200.00000
G01 X45.25390 Y24.96501
G01 X45.24082 Y25.08952
G01 X45.20213 Y25.20860
G01 X45.13952 Y25.31703
G01 X45.05575 Y25.41010
G01 X44.95446 Y25.48368
G01 X44.84008 Y25.53461
G01 X44.71760 Y25.56064
G01 X44.59243 Y25.56064
G01 X44.46993 Y25.53461
G01 X44.35558 Y25.48368
G01 X44.25428 Y25.41007
G01 X44.17049 Y25.31703
G01 X44.10790 Y25.20860
G01 X44.06919 Y25.08952
G01 X44.05611 Y24.96501
G01 X44.06919 Y24.84050
G01 X44.10790 Y24.72140
G01 X44.17051 Y24.61297
G01 X44.25426 Y24.51996
G01 X44.35558 Y24.44635
G01 X44.46995 Y24.39542
G01 X44.59243 Y24.36938
G01 X44.71760 Y24.36938
G01 X44.84008 Y24.39542
G01 X44.95446 Y24.44635
G01 X45.05575 Y24.51996
G01 X45.13952 Y24.61297
G01 X45.20213 Y24.72143
G01 X45.24082 Y24.84050
G01 X45.25390 Y24.96501
G01 X45.05281 Y24.96501
G01 X45.04412 Y24.88231
G01 X45.04849 Y24.88137
G01 X45.04412 Y24.88231
G01 X45.01842 Y24.80322
G01 X44.97684 Y24.73121
G01 X44.98047 Y24.72857
G01 X44.97684 Y24.73121
G01 X44.92118 Y24.66938
G01 X44.85393 Y24.62051
G01 X44.85616 Y24.61665
G01 X44.85393 Y24.62051
G01 X44.77793 Y24.58668
G01 X44.69660 Y24.56938
G01 X44.69705 Y24.56494
G01 X44.69660 Y24.56938
G01 X44.61344 Y24.56938
G01 X44.53211 Y24.58668
G01 X44.53071 Y24.58244
G01 X44.53211 Y24.58668
G01 X44.45611 Y24.62051
G01 X44.38728 Y24.66743
G01 X44.33109 Y24.72984
G01 X44.29159 Y24.80322
G01 X44.26592 Y24.88231
G01 X44.26155 Y24.88137
G01 X44.26592 Y24.88231
G01 X44.25720 Y24.96501
G01 X44.26592 Y25.04772
G01 X44.26155 Y25.04866
G01 X44.26592 Y25.04772
G01 X44.29159 Y25.12681
G01 X44.33320 Y25.19885
G01 X44.32957 Y25.20146
G01 X44.33320 Y25.19885
G01 X44.38883 Y25.26064
G01 X44.45611 Y25.30951
G01 X44.45388 Y25.31338
G01 X44.45611 Y25.30951
G01 X44.53211 Y25.34335
G01 X44.61301 Y25.36311
G01 X44.69700 Y25.36311
G01 X44.77793 Y25.34335
G01 X44.85393 Y25.30951
G01 X44.85616 Y25.31338
G01 X44.85393 Y25.30951
G01 X44.92118 Y25.26064
G01 X44.97684 Y25.19885
G01 X44.98044 Y25.20146
G01 X44.97684 Y25.19885
G01 X45.01842 Y25.12681
G01 X45.04412 Y25.04772
G01 X45.04849 Y25.04866
G01 X45.04412 Y25.04772
G01 X45.05281 Y24.96501
G01 X44.85172 Y24.96501
G01 X44.84742 Y24.92409
G01 X44.83470 Y24.88500
G01 X44.84130 Y24.88249
G01 X44.83470 Y24.88500
G01 X44.81415 Y24.84939
G01 X44.78664 Y24.81884
G01 X44.78961 Y24.81551
G01 X44.78664 Y24.81884
G01 X44.75337 Y24.79466
G01 X44.71580 Y24.77794
G01 X44.71717 Y24.77368
G01 X44.71580 Y24.77794
G01 X44.67559 Y24.76938
G01 X44.63442 Y24.76938
G01 X44.63396 Y24.76494
G01 X44.63442 Y24.76938
G01 X44.59424 Y24.77794
G01 X44.55667 Y24.79466
G01 X44.55283 Y24.78874
G01 X44.55667 Y24.79466
G01 X44.52339 Y24.81884
G01 X44.49589 Y24.84939
G01 X44.47531 Y24.88503
G01 X44.46901 Y24.88183
G01 X44.47531 Y24.88503
G01 X44.46261 Y24.92409
G01 X44.45832 Y24.96501
G01 X44.45385 Y24.96501
G01 X44.45832 Y24.96501
G01 X44.46261 Y25.00593
G01 X44.47531 Y25.04500
G01 X44.47122 Y25.04683
G01 X44.47531 Y25.04500
G01 X44.49589 Y25.08063
G01 X44.52339 Y25.11119
G01 X44.52040 Y25.11449
G01 X44.52339 Y25.11119
G01 X44.55667 Y25.13537
G01 X44.59424 Y25.15209
G01 X44.59286 Y25.15635
G01 X44.59424 Y25.15209
G01 X44.63442 Y25.16064
G01 X44.67559 Y25.16064
G01 X44.67605 Y25.16509
G01 X44.67559 Y25.16064
G01 X44.71580 Y25.15209
G01 X44.75337 Y25.13537
G01 X44.75560 Y25.13923
G01 X44.75337 Y25.13537
G01 X44.78664 Y25.11119
G01 X44.81415 Y25.08063
G01 X44.81776 Y25.08325
G01 X44.81415 Y25.08063
G01 X44.83470 Y25.04502
G01 X44.84742 Y25.00593
G01 X44.85438 Y25.00703
G01 X44.84742 Y25.00593
G01 X44.85172 Y24.96501
G04 P0 ( dwell for no time -- G64 should not smooth over this point )
G00 Z0.50000 ( retract )

G00 X45.25390 Y22.42501 ( rapid move to begin. )
G01 F100.00000
( Mill infeed pass 1/1 )
G01 Z-0.15000
G04 P0 ( dwell for no time -- G64 should not smooth over this point )
G01 F200.00000
G01 X45.25390 Y22.42501
G01 X45.24082 Y22.30050
G01 X45.20213 Y22.18140
G01 X45.13952 Y22.07300
G01 X45.05575 Y21.97996
G01 X44.95446 Y21.90635
G01 X44.84008 Y21.85542
G01 X44.71760 Y21.82938
G01 X44.59243 Y21.82938
G01 X44.46995 Y21.85542
G01 X44.35558 Y21.90635
G01 X44.25426 Y21.97996
G01 X44.17049 Y22.07300
G01 X44.10790 Y22.18140
G01 X44.06919 Y22.30050
G01 X44.05611 Y22.42501
G01 X44.06919 Y22.54952
G01 X44.10790 Y22.66860
G01 X44.17051 Y22.77706
G01 X44.21237 Y22.82357
G01 X44.25428 Y22.87007
G01 X44.35558 Y22.94368
G01 X44.46993 Y22.99461
G01 X44.59243 Y23.02064
G01 X44.71760 Y23.02064
G01 X44.84008 Y22.99461
G01 X44.95443 Y22.94368
G01 X45.05575 Y22.87007
G01 X45.13952 Y22.77706
G01 X45.20213 Y22.66860
G01 X45.24082 Y22.54952
G01 X45.25390 Y22.42501
G01 X45.05281 Y22.42501
G01 X45.04412 Y22.50772
G01 X45.01842 Y22.58681
G01 X45.02250 Y22.58864
G01 X45.01842 Y22.58681
G01 X44.97684 Y22.65885
G01 X44.92118 Y22.72064
G01 X44.92418 Y22.72395
G01 X44.92118 Y22.72064
G01 X44.85393 Y22.76951
G01 X44.77795 Y22.80335
G01 X44.77933 Y22.80759
G01 X44.77795 Y22.80335
G01 X44.69660 Y22.82064
G01 X44.61344 Y22.82064
G01 X44.61298 Y22.82509
G01 X44.61344 Y22.82064
G01 X44.53208 Y22.80335
G01 X44.45611 Y22.76951
G01 X44.45388 Y22.77338
G01 X44.45611 Y22.76951
G01 X44.38883 Y22.72064
G01 X44.33320 Y22.65885
G01 X44.32957 Y22.66146
G01 X44.33320 Y22.65885
G01 X44.29159 Y22.58681
G01 X44.26350 Y22.50838
G01 X44.25471 Y22.42489
G01 X44.26592 Y22.34231
G01 X44.29159 Y22.26322
G01 X44.28753 Y22.26139
G01 X44.29159 Y22.26322
G01 X44.33317 Y22.19121
G01 X44.38883 Y22.12938
G01 X44.38585 Y22.12606
G01 X44.38883 Y22.12938
G01 X44.45611 Y22.08051
G01 X44.53208 Y22.04668
G01 X44.53068 Y22.04244
G01 X44.53208 Y22.04668
G01 X44.61344 Y22.02938
G01 X44.69660 Y22.02938
G01 X44.69705 Y22.02494
G01 X44.69660 Y22.02938
G01 X44.77795 Y22.04668
G01 X44.85393 Y22.08051
G01 X44.85616 Y22.07663
G01 X44.85393 Y22.08051
G01 X44.92118 Y22.12938
G01 X44.97684 Y22.19121
G01 X44.98047 Y22.18857
G01 X44.97684 Y22.19121
G01 X45.01842 Y22.26322
G01 X45.04653 Y22.34165
G01 X45.05530 Y22.42514
G01 X44.85172 Y22.42501
G01 X44.84742 Y22.38409
G01 X44.83470 Y22.34500
G01 X44.83879 Y22.34320
G01 X44.83470 Y22.34500
G01 X44.81415 Y22.30939
G01 X44.78664 Y22.27884
G01 X44.78961 Y22.27551
G01 X44.78664 Y22.27884
G01 X44.75337 Y22.25466
G01 X44.71583 Y22.23794
G01 X44.71720 Y22.23370
G01 X44.71583 Y22.23794
G01 X44.67557 Y22.22938
G01 X44.63447 Y22.22938
G01 X44.63335 Y22.22242
G01 X44.63447 Y22.22938
G01 X44.59421 Y22.23794
G01 X44.55667 Y22.25466
G01 X44.52339 Y22.27884
G01 X44.51895 Y22.27335
G01 X44.52339 Y22.27884
G01 X44.49589 Y22.30939
G01 X44.47531 Y22.34503
G01 X44.47122 Y22.34320
G01 X44.47531 Y22.34503
G01 X44.46261 Y22.38409
G01 X44.45832 Y22.42501
G01 X44.45385 Y22.42501
G01 X44.45832 Y22.42501
G01 X44.46261 Y22.46593
G01 X44.47531 Y22.50500
G01 X44.47122 Y22.50683
G01 X44.47531 Y22.50500
G01 X44.49589 Y22.54063
G01 X44.52339 Y22.57119
G01 X44.52040 Y22.57449
G01 X44.52339 Y22.57119
G01 X44.55667 Y22.59537
G01 X44.59424 Y22.61209
G01 X44.59286 Y22.61635
G01 X44.59424 Y22.61209
G01 X44.63447 Y22.62064
G01 X44.67557 Y22.62064
G01 X44.67666 Y22.62760
G01 X44.67557 Y22.62064
G01 X44.71580 Y22.61209
G01 X44.75337 Y22.59537
G01 X44.78664 Y22.57119
G01 X44.79106 Y22.57668
G01 X44.78664 Y22.57119
G01 X44.81415 Y22.54063
G01 X44.83470 Y22.50502
G01 X44.83879 Y22.50685
G01 X44.83470 Y22.50502
G01 X44.84742 Y22.46593
G01 X44.85172 Y22.42501
G04 P0 ( dwell for no time -- G64 should not smooth over this point )
G00 Z0.50000 ( retract )

G00 X45.25390 Y19.88501 ( rapid move to begin. )
G01 F100.00000
( Mill infeed pass 1/1 )
G01 Z-0.15000
G04 P0 ( dwell for no time -- G64 should not smooth over this point )
G01 F200.00000
G01 X45.25390 Y19.88501
G01 X45.24082 Y19.76050
G01 X45.20213 Y19.64140
G01 X45.13952 Y19.53300
G01 X45.05575 Y19.43996
G01 X44.95446 Y19.36635
G01 X44.92573 Y19.35354
G01 X44.84008 Y19.31542
G01 X44.71760 Y19.28938
G01 X44.59243 Y19.28938
G01 X44.46995 Y19.31542
G01 X44.35558 Y19.36635
G01 X44.25428 Y19.43996
G01 X44.17049 Y19.53300
G01 X44.10790 Y19.64140
G01 X44.06919 Y19.76050
G01 X44.05611 Y19.88501
G01 X44.06919 Y20.00952
G01 X44.10790 Y20.12860
G01 X44.17051 Y20.23706
G01 X44.25426 Y20.33007
G01 X44.35558 Y20.40368
G01 X44.46995 Y20.45461
G01 X44.59243 Y20.48064
G01 X44.71760 Y20.48064
G01 X44.84008 Y20.45461
G01 X44.95446 Y20.40368
G01 X45.05575 Y20.33007
G01 X45.13952 Y20.23706
G01 X45.20213 Y20.12860
G01 X45.24082 Y20.00952
G01 X45.25390 Y19.88501
G01 X45.05281 Y19.88501
G01 X45.04412 Y19.80229
G01 X45.01842 Y19.72322
G01 X45.02250 Y19.72139
G01 X45.01842 Y19.72322
G01 X44.97684 Y19.65121
G01 X44.92118 Y19.58938
G01 X44.92418 Y19.58608
G01 X44.92118 Y19.58938
G01 X44.85393 Y19.54051
G01 X44.77884 Y19.50434
G01 X44.69672 Y19.48689
G01 X44.61344 Y19.48938
G01 X44.53208 Y19.50668
G01 X44.53071 Y19.50244
G01 X44.53208 Y19.50668
G01 X44.45611 Y19.54051
G01 X44.38883 Y19.58938
G01 X44.38585 Y19.58608
G01 X44.38883 Y19.58938
G01 X44.33317 Y19.65121
G01 X44.29159 Y19.72322
G01 X44.28753 Y19.72139
G01 X44.29159 Y19.72322
G01 X44.26592 Y19.80229
G01 X44.25720 Y19.88501
G01 X44.25273 Y19.88501
G01 X44.25720 Y19.88501
G01 X44.26592 Y19.96772
G01 X44.29159 Y20.04681
G01 X44.28753 Y20.04862
G01 X44.29159 Y20.04681
G01 X44.33317 Y20.11882
G01 X44.38883 Y20.18064
G01 X44.38585 Y20.18395
G01 X44.38883 Y20.18064
G01 X44.45611 Y20.22951
G01 X44.53119 Y20.26566
G01 X44.61331 Y20.28313
G01 X44.69660 Y20.28064
G01 X44.77795 Y20.26335
G01 X44.77933 Y20.26759
G01 X44.77795 Y20.26335
G01 X44.85393 Y20.22951
G01 X44.92118 Y20.18064
G01 X44.92418 Y20.18395
G01 X44.92118 Y20.18064
G01 X44.97684 Y20.11882
G01 X45.01842 Y20.04681
G01 X45.02250 Y20.04862
G01 X45.01842 Y20.04681
G01 X45.04412 Y19.96772
G01 X45.05281 Y19.88501
G01 X44.85172 Y19.88501
G01 X44.84742 Y19.84412
G01 X44.83470 Y19.80498
G01 X44.84130 Y19.80246
G01 X44.83470 Y19.80498
G01 X44.81415 Y19.76939
G01 X44.78662 Y19.73881
G01 X44.78961 Y19.73548
G01 X44.78662 Y19.73881
G01 X44.75339 Y19.71468
G01 X44.71580 Y19.69794
G01 X44.71720 Y19.69370
G01 X44.71580 Y19.69794
G01 X44.67557 Y19.68938
G01 X44.63447 Y19.68938
G01 X44.63399 Y19.68494
G01 X44.63447 Y19.68938
G01 X44.59421 Y19.69794
G01 X44.55664 Y19.71466
G01 X44.55441 Y19.71080
G01 X44.55664 Y19.71466
G01 X44.52339 Y19.73881
G01 X44.49589 Y19.76939
G01 X44.49225 Y19.76678
G01 X44.49589 Y19.76939
G01 X44.47531 Y19.80500
G01 X44.46261 Y19.84412
G01 X44.45824 Y19.84318
G01 X44.46261 Y19.84412
G01 X44.45832 Y19.88501
G01 X44.46261 Y19.92591
G01 X44.45824 Y19.92685
G01 X44.46261 Y19.92591
G01 X44.47531 Y19.96500
G01 X44.49589 Y20.00063
G01 X44.49040 Y20.00508
G01 X44.49589 Y20.00063
G01 X44.52339 Y20.03119
G01 X44.55667 Y20.05537
G01 X44.59421 Y20.07209
G01 X44.59170 Y20.07866
G01 X44.59421 Y20.07209
G01 X44.63447 Y20.08064
G01 X44.67557 Y20.08064
G01 X44.67602 Y20.08509
G01 X44.67557 Y20.08064
G01 X44.71580 Y20.07209
G01 X44.75337 Y20.05537
G01 X44.75560 Y20.05923
G01 X44.75337 Y20.05537
G01 X44.78664 Y20.03119
G01 X44.81415 Y20.00063
G01 X44.81778 Y20.00325
G01 X44.81415 Y20.00063
G01 X44.83470 Y19.96502
G01 X44.84742 Y19.92591
G01 X44.85438 Y19.92703
G01 X44.84742 Y19.92591
G01 X44.85172 Y19.88501
G04 P0 ( dwell for no time -- G64 should not smooth over this point )
G00 Z0.50000 ( retract )

G00 X45.25390 Y17.34501 ( rapid move to begin. )
G01 F100.00000
( Mill infeed pass 1/1 )
G01 Z-0.15000
G04 P0 ( dwell for no time -- G64 should not smooth over this point )
G01 F200.00000
G01 X45.25390 Y17.34501
G01 X45.24082 Y17.22050
G01 X45.20213 Y17.10140
G01 X45.13952 Y16.99297
G01 X45.05575 Y16.89993
G01 X44.95448 Y16.82635
G01 X44.84008 Y16.77542
G01 X44.71760 Y16.74938
G01 X44.59241 Y16.74938
G01 X44.46995 Y16.77542
G01 X44.35555 Y16.82635
G01 X44.25428 Y16.89993
G01 X44.17049 Y16.99300
G01 X44.10790 Y17.10140
G01 X44.06919 Y17.22050
G01 X44.05611 Y17.34501
G01 X44.06919 Y17.46952
G01 X44.10790 Y17.58863
G01 X44.17049 Y17.69703
G01 X44.25426 Y17.79007
G01 X44.35558 Y17.86368
G01 X44.46995 Y17.91461
G01 X44.59243 Y17.94064
G01 X44.71760 Y17.94064
G01 X44.84008 Y17.91461
G01 X44.95446 Y17.86368
G01 X45.05575 Y17.79007
G01 X45.13952 Y17.69703
G01 X45.20213 Y17.58863
G01 X45.24082 Y17.46952
G01 X45.25390 Y17.34501
G01 X45.05281 Y17.34501
G01 X45.04412 Y17.42772
G01 X45.01842 Y17.50681
G01 X45.02250 Y17.50862
G01 X45.01842 Y17.50681
G01 X44.97684 Y17.57882
G01 X44.92118 Y17.64064
G01 X44.92418 Y17.64397
G01 X44.92118 Y17.64064
G01 X44.85393 Y17.68951
G01 X44.77795 Y17.72335
G01 X44.77933 Y17.72759
G01 X44.77795 Y17.72335
G01 X44.69660 Y17.74064
G01 X44.61344 Y17.74064
G01 X44.61298 Y17.74509
G01 X44.61344 Y17.74064
G01 X44.53208 Y17.72335
G01 X44.45611 Y17.68951
G01 X44.45388 Y17.69338
G01 X44.45611 Y17.68951
G01 X44.38883 Y17.64064
G01 X44.33317 Y17.57882
G01 X44.32957 Y17.58146
G01 X44.33317 Y17.57882
G01 X44.29159 Y17.50681
G01 X44.26592 Y17.42772
G01 X44.26155 Y17.42866
G01 X44.26592 Y17.42772
G01 X44.25720 Y17.34501
G01 X44.26345 Y17.26191
G01 X44.28938 Y17.18207
G01 X44.33320 Y17.11118
G01 X44.38883 Y17.04938
G01 X44.38585 Y17.04608
G01 X44.38883 Y17.04938
G01 X44.45611 Y17.00051
G01 X44.53208 Y16.96668
G01 X44.53071 Y16.96244
G01 X44.53208 Y16.96668
G01 X44.61344 Y16.94938
G01 X44.69660 Y16.94938
G01 X44.69705 Y16.94494
G01 X44.69660 Y16.94938
G01 X44.77795 Y16.96668
G01 X44.85393 Y17.00051
G01 X44.85616 Y16.99663
G01 X44.85393 Y17.00051
G01 X44.92118 Y17.04938
G01 X44.97684 Y17.11118
G01 X44.98044 Y17.10857
G01 X44.97684 Y17.11118
G01 X45.01842 Y17.18322
G01 X45.04653 Y17.26165
G01 X45.05530 Y17.34514
G01 X44.85172 Y17.34501
G01 X44.84742 Y17.30409
G01 X44.85179 Y17.30318
G01 X44.84742 Y17.30409
G01 X44.83470 Y17.26500
G01 X44.81415 Y17.22939
G01 X44.81964 Y17.22495
G01 X44.81415 Y17.22939
G01 X44.78664 Y17.19884
G01 X44.75337 Y17.17466
G01 X44.71580 Y17.15794
G01 X44.71831 Y17.15134
G01 X44.71580 Y17.15794
G01 X44.67557 Y17.14938
G01 X44.63447 Y17.14938
G01 X44.63399 Y17.14494
G01 X44.63447 Y17.14938
G01 X44.59424 Y17.15794
G01 X44.55667 Y17.17466
G01 X44.55443 Y17.17080
G01 X44.55667 Y17.17466
G01 X44.52339 Y17.19884
G01 X44.49589 Y17.22939
G01 X44.49225 Y17.22678
G01 X44.49589 Y17.22939
G01 X44.47531 Y17.26503
G01 X44.46261 Y17.30409
G01 X44.45824 Y17.30318
G01 X44.46261 Y17.30409
G01 X44.45832 Y17.34501
G01 X44.46261 Y17.38591
G01 X44.45824 Y17.38685
G01 X44.46261 Y17.38591
G01 X44.47531 Y17.42502
G01 X44.49589 Y17.46063
G01 X44.49228 Y17.46328
G01 X44.49589 Y17.46063
G01 X44.52339 Y17.49119
G01 X44.55664 Y17.51535
G01 X44.55441 Y17.51923
G01 X44.55664 Y17.51535
G01 X44.59421 Y17.53209
G01 X44.63447 Y17.54064
G01 X44.63409 Y17.54768
G01 X44.63447 Y17.54064
G01 X44.67557 Y17.54064
G01 X44.71580 Y17.53209
G01 X44.75339 Y17.51535
G01 X44.75659 Y17.52165
G01 X44.75339 Y17.51535
G01 X44.78664 Y17.49119
G01 X44.81415 Y17.46063
G01 X44.81776 Y17.46325
G01 X44.81415 Y17.46063
G01 X44.83470 Y17.42502
G01 X44.84742 Y17.38591
G01 X44.85179 Y17.38685
G01 X44.84742 Y17.38591
G01 X44.85172 Y17.34501
G04 P0 ( dwell for no time -- G64 should not smooth over this point )
G00 Z0.50000 ( retract )

G00 X45.25390 Y14.80501 ( rapid move to begin. )
G01 F100.00000
( Mill infeed pass 1/1 )
G01 Z-0.15000
G04 P0 ( dwell for no time -- G64 should not smooth over this point )
G01 F200.00000
G01 X45.25390 Y14.80501
G01 X45.24082 Y14.68050
G01 X45.20213 Y14.56143
G01 X45.13952 Y14.45297
G01 X45.05575 Y14.35993
G01 X44.95448 Y14.28635
G01 X44.84008 Y14.23542
G01 X44.71760 Y14.20938
G01 X44.59241 Y14.20938
G01 X44.46995 Y14.23542
G01 X44.35555 Y14.28635
G01 X44.25428 Y14.35993
G01 X44.17049 Y14.45297
G01 X44.10790 Y14.56143
G01 X44.06919 Y14.68050
G01 X44.05611 Y14.80501
G01 X44.06919 Y14.92952
G01 X44.10790 Y15.04860
G01 X44.17049 Y15.15703
G01 X44.25426 Y15.25007
G01 X44.35558 Y15.32368
G01 X44.46995 Y15.37461
G01 X44.59243 Y15.40064
G01 X44.71760 Y15.40064
G01 X44.84006 Y15.37461
G01 X44.95446 Y15.32368
G01 X45.05575 Y15.25007
G01 X45.13952 Y15.15703
G01 X45.20213 Y15.04860
G01 X45.24082 Y14.92952
G01 X45.25390 Y14.80501
G01 X45.05281 Y14.80501
G01 X45.04412 Y14.72231
G01 X45.04849 Y14.72137
G01 X45.04412 Y14.72231
G01 X45.01842 Y14.64322
G01 X44.97684 Y14.57118
G01 X44.98044 Y14.56857
G01 X44.97684 Y14.57118
G01 X44.92118 Y14.50938
G01 X44.85393 Y14.46051
G01 X44.85616 Y14.45665
G01 X44.85393 Y14.46051
G01 X44.77793 Y14.42668
G01 X44.69662 Y14.40938
G01 X44.69708 Y14.40494
G01 X44.69662 Y14.40938
G01 X44.61341 Y14.40938
G01 X44.53211 Y14.42668
G01 X44.53071 Y14.42241
G01 X44.53211 Y14.42668
G01 X44.45611 Y14.46051
G01 X44.38883 Y14.50938
G01 X44.38585 Y14.50608
G01 X44.38883 Y14.50938
G01 X44.33320 Y14.57118
G01 X44.28938 Y14.64207
G01 X44.26345 Y14.72191
G01 X44.25720 Y14.80501
G01 X44.26592 Y14.88772
G01 X44.26155 Y14.88866
G01 X44.26592 Y14.88772
G01 X44.29159 Y14.96681
G01 X44.33317 Y15.03882
G01 X44.32957 Y15.04146
G01 X44.33317 Y15.03882
G01 X44.38885 Y15.10064
G01 X44.45611 Y15.14951
G01 X44.45388 Y15.15338
G01 X44.45611 Y15.14951
G01 X44.53211 Y15.18335
G01 X44.61344 Y15.20064
G01 X44.61296 Y15.20509
G01 X44.61344 Y15.20064
G01 X44.69660 Y15.20064
G01 X44.77793 Y15.18335
G01 X44.77930 Y15.18759
G01 X44.77793 Y15.18335
G01 X44.85393 Y15.14951
G01 X44.92273 Y15.10260
G01 X44.97894 Y15.04019
G01 X45.01842 Y14.96681
G01 X45.04412 Y14.88772
G01 X45.04849 Y14.88866
G01 X45.04412 Y14.88772
G01 X45.05281 Y14.80501
G01 X44.85172 Y14.80501
G01 X44.84742 Y14.84593
G01 X44.85438 Y14.84703
G01 X44.84742 Y14.84593
G01 X44.83470 Y14.88502
G01 X44.81415 Y14.92063
G01 X44.81776 Y14.92325
G01 X44.81415 Y14.92063
G01 X44.78664 Y14.95119
G01 X44.75337 Y14.97537
G01 X44.75560 Y14.97923
G01 X44.75337 Y14.97537
G01 X44.71580 Y14.99209
G01 X44.67559 Y15.00064
G01 X44.67605 Y15.00509
G01 X44.67559 Y15.00064
G01 X44.63444 Y15.00064
G01 X44.59421 Y14.99209
G01 X44.59284 Y14.99633
G01 X44.59421 Y14.99209
G01 X44.55667 Y14.97537
G01 X44.52339 Y14.95119
G01 X44.52040 Y14.95449
G01 X44.52339 Y14.95119
G01 X44.49589 Y14.92063
G01 X44.47531 Y14.88500
G01 X44.47122 Y14.88683
G01 X44.47531 Y14.88500
G01 X44.46261 Y14.84593
G01 X44.45832 Y14.80501
G01 X44.45385 Y14.80501
G01 X44.45832 Y14.80501
G01 X44.46261 Y14.76409
G01 X44.47531 Y14.72503
G01 X44.46901 Y14.72180
G01 X44.47531 Y14.72503
G01 X44.49589 Y14.68939
G01 X44.52339 Y14.65884
G01 X44.55667 Y14.63466
G01 X44.55283 Y14.62874
G01 X44.55667 Y14.63466
G01 X44.59424 Y14.61794
G01 X44.63447 Y14.60938
G01 X44.63399 Y14.60494
G01 X44.63447 Y14.60938
G01 X44.67557 Y14.60938
G01 X44.71580 Y14.61794
G01 X44.71717 Y14.61368
G01 X44.71580 Y14.61794
G01 X44.75337 Y14.63466
G01 X44.78664 Y14.65884
G01 X44.78961 Y14.65551
G01 X44.78664 Y14.65884
G01 X44.81415 Y14.68939
G01 X44.83470 Y14.72500
G01 X44.84130 Y14.72246
G01 X44.83470 Y14.72500
G01 X44.84742 Y14.76409
G01 X44.85172 Y14.80501
G04 P0 ( dwell for no time -- G64 should not smooth over this point )
G00 Z0.50000 ( retract )

G00 X45.25390 Y12.26501 ( rapid move to begin. )
G01 F100.00000
( Mill infeed pass 1/1 )
G01 Z-0.15000
G04 P0 ( dwell for no time -- G64 should not smooth over this point )
G01 F200.00000
G01 X45.25390 Y12.26501
G01 X45.24082 Y12.14050
G01 X45.20213 Y12.02143
G01 X45.13952 Y11.91297
G01 X45.05575 Y11.81996
G01 X44.95448 Y11.74635
G01 X44.84008 Y11.69542
G01 X44.71760 Y11.66938
G01 X44.59241 Y11.66938
G01 X44.46995 Y11.69542
G01 X44.35555 Y11.74635
G01 X44.25426 Y11.81996
G01 X44.17049 Y11.91297
G01 X44.10790 Y12.02143
G01 X44.06919 Y12.14050
G01 X44.05611 Y12.26501
G01 X44.06919 Y12.38952
G01 X44.10790 Y12.50863
G01 X44.17049 Y12.61703
G01 X44.25428 Y12.71010
G01 X44.35558 Y12.78368
G01 X44.46993 Y12.83458
G01 X44.59241 Y12.86064
G01 X44.71760 Y12.86064
G01 X44.84011 Y12.83458
G01 X44.95448 Y12.78366
G01 X45.05575 Y12.71010
G01 X45.13952 Y12.61703
G01 X45.20213 Y12.50860
G01 X45.24082 Y12.38952
G01 X45.25390 Y12.26501
G01 X45.05281 Y12.26501
G01 X45.04412 Y12.18231
G01 X45.04849 Y12.18137
G01 X45.04412 Y12.18231
G01 X45.01842 Y12.10322
G01 X44.97684 Y12.03121
G01 X44.98047 Y12.02857
G01 X44.97684 Y12.03121
G01 X44.92118 Y11.96941
G01 X44.85393 Y11.92051
G01 X44.85616 Y11.91665
G01 X44.85393 Y11.92051
G01 X44.77793 Y11.88668
G01 X44.69660 Y11.86938
G01 X44.69705 Y11.86496
G01 X44.69660 Y11.86938
G01 X44.61344 Y11.86938
G01 X44.53211 Y11.88668
G01 X44.53071 Y11.88244
G01 X44.53211 Y11.88668
G01 X44.45611 Y11.92051
G01 X44.38728 Y11.96745
G01 X44.33109 Y12.02984
G01 X44.29159 Y12.10322
G01 X44.26592 Y12.18231
G01 X44.26155 Y12.18137
G01 X44.26592 Y12.18231
G01 X44.25720 Y12.26501
G01 X44.26592 Y12.34772
G01 X44.26155 Y12.34866
G01 X44.26592 Y12.34772
G01 X44.29159 Y12.42681
G01 X44.33320 Y12.49885
G01 X44.32957 Y12.50146
G01 X44.33320 Y12.49885
G01 X44.38883 Y12.56064
G01 X44.45611 Y12.60951
G01 X44.45388 Y12.61338
G01 X44.45611 Y12.60951
G01 X44.53211 Y12.64335
G01 X44.61341 Y12.66064
G01 X44.61293 Y12.66509
G01 X44.61341 Y12.66064
G01 X44.69662 Y12.66064
G01 X44.77793 Y12.64335
G01 X44.77930 Y12.64759
G01 X44.77793 Y12.64335
G01 X44.85393 Y12.60951
G01 X44.92118 Y12.56064
G01 X44.92418 Y12.56395
G01 X44.92118 Y12.56064
G01 X44.97684 Y12.49885
G01 X45.02065 Y12.42793
G01 X45.04658 Y12.34810
G01 X45.05281 Y12.26501
G01 X44.85172 Y12.26501
G01 X44.84742 Y12.30593
G01 X44.85438 Y12.30703
G01 X44.84742 Y12.30593
G01 X44.83470 Y12.34502
G01 X44.81415 Y12.38063
G01 X44.81776 Y12.38325
G01 X44.81415 Y12.38063
G01 X44.78664 Y12.41119
G01 X44.75337 Y12.43537
G01 X44.75560 Y12.43923
G01 X44.75337 Y12.43537
G01 X44.71580 Y12.45209
G01 X44.67559 Y12.46064
G01 X44.67605 Y12.46509
G01 X44.67559 Y12.46064
G01 X44.63442 Y12.46064
G01 X44.59424 Y12.45209
G01 X44.59286 Y12.45635
G01 X44.59424 Y12.45209
G01 X44.55667 Y12.43537
G01 X44.52339 Y12.41119
G01 X44.52040 Y12.41449
G01 X44.52339 Y12.41119
G01 X44.49589 Y12.38063
G01 X44.47531 Y12.34500
G01 X44.47122 Y12.34683
G01 X44.47531 Y12.34500
G01 X44.46261 Y12.30593
G01 X44.45832 Y12.26501
G01 X44.45385 Y12.26501
G01 X44.45832 Y12.26501
G01 X44.46261 Y12.22409
G01 X44.47531 Y12.18503
G01 X44.46901 Y12.18183
G01 X44.47531 Y12.18503
G01 X44.49589 Y12.14939
G01 X44.52339 Y12.11886
G01 X44.55667 Y12.09466
G01 X44.55283 Y12.08874
G01 X44.55667 Y12.09466
G01 X44.59424 Y12.07794
G01 X44.63442 Y12.06938
G01 X44.63396 Y12.06496
G01 X44.63442 Y12.06938
G01 X44.67559 Y12.06938
G01 X44.71580 Y12.07794
G01 X44.71717 Y12.07368
G01 X44.71580 Y12.07794
G01 X44.75337 Y12.09466
G01 X44.78664 Y12.11886
G01 X44.78961 Y12.11551
G01 X44.78664 Y12.11886
G01 X44.81415 Y12.14939
G01 X44.83470 Y12.18503
G01 X44.84130 Y12.18249
G01 X44.83470 Y12.18503
G01 X44.84742 Y12.22409
G01 X44.85172 Y12.26501
G04 P0 ( dwell for no time -- G64 should not smooth over this point )
G00 Z0.50000 ( retract )

G00 X37.63390 Y12.26501 ( rapid move to begin. )
G01 F100.00000
( Mill infeed pass 1/1 )
G01 Z-0.15000
G04 P0 ( dwell for no time -- G64 should not smooth over this point )
G01 F200.00000
G01 X37.63390 Y12.26501
G01 X37.62082 Y12.14048
G01 X37.58213 Y12.02143
G01 X37.51955 Y11.91300
G01 X37.43575 Y11.81996
G01 X37.33448 Y11.74637
G01 X37.22008 Y11.69542
G01 X37.09760 Y11.66938
G01 X36.97241 Y11.66938
G01 X36.84995 Y11.69542
G01 X36.73555 Y11.74635
G01 X36.63426 Y11.81996
G01 X36.55049 Y11.91300
G01 X36.48788 Y12.02143
G01 X36.44919 Y12.14048
G01 X36.43611 Y12.26501
G01 X36.44919 Y12.38955
G01 X36.48790 Y12.50860
G01 X36.55049 Y12.61703
G01 X36.63428 Y12.71007
G01 X36.73555 Y12.78368
G01 X36.84995 Y12.83461
G01 X36.97241 Y12.86064
G01 X37.09760 Y12.86064
G01 X37.22008 Y12.83461
G01 X37.33448 Y12.78366
G01 X37.43575 Y12.71007
G01 X37.51955 Y12.61703
G01 X37.58213 Y12.50863
G01 X37.62082 Y12.38955
G01 X37.63390 Y12.26501
G01 X37.43281 Y12.26501
G01 X37.42412 Y12.18231
G01 X37.42849 Y12.18137
G01 X37.42412 Y12.18231
G01 X37.39842 Y12.10322
G01 X37.35684 Y12.03121
G01 X37.36047 Y12.02857
G01 X37.35684 Y12.03121
G01 X37.30118 Y11.96941
G01 X37.23390 Y11.92051
G01 X37.23613 Y11.91663
G01 X37.23390 Y11.92051
G01 X37.15793 Y11.88668
G01 X37.07660 Y11.86938
G01 X37.07705 Y11.86496
G01 X37.07660 Y11.86938
G01 X36.99344 Y11.86938
G01 X36.91208 Y11.88668
G01 X36.91071 Y11.88244
G01 X36.91208 Y11.88668
G01 X36.83611 Y11.92051
G01 X36.76728 Y11.96745
G01 X36.71109 Y12.02984
G01 X36.67159 Y12.10322
G01 X36.64589 Y12.18234
G01 X36.64152 Y12.18140
G01 X36.64589 Y12.18234
G01 X36.63720 Y12.26501
G01 X36.64589 Y12.34769
G01 X36.64152 Y12.34863
G01 X36.64589 Y12.34769
G01 X36.67159 Y12.42681
G01 X36.71320 Y12.49885
G01 X36.70957 Y12.50146
G01 X36.71320 Y12.49885
G01 X36.76883 Y12.56064
G01 X36.83611 Y12.60951
G01 X36.83388 Y12.61338
G01 X36.83611 Y12.60951
G01 X36.91211 Y12.64335
G01 X36.99341 Y12.66064
G01 X36.99293 Y12.66509
G01 X36.99341 Y12.66064
G01 X37.07662 Y12.66064
G01 X37.15856 Y12.64576
G01 X37.23527 Y12.61160
G01 X37.30121 Y12.56062
G01 X37.35684 Y12.49885
G01 X37.36044 Y12.50146
G01 X37.35684 Y12.49885
G01 X37.39842 Y12.42681
G01 X37.42412 Y12.34772
G01 X37.42849 Y12.34866
G01 X37.42412 Y12.34772
G01 X37.43281 Y12.26501
G01 X37.23172 Y12.26501
G01 X37.22742 Y12.30593
G01 X37.23179 Y12.30685
G01 X37.22742 Y12.30593
G01 X37.21472 Y12.34500
G01 X37.19415 Y12.38063
G01 X37.19776 Y12.38325
G01 X37.19415 Y12.38063
G01 X37.16664 Y12.41119
G01 X37.13337 Y12.43537
G01 X37.13560 Y12.43923
G01 X37.13337 Y12.43537
G01 X37.09580 Y12.45209
G01 X37.05559 Y12.46064
G01 X37.05597 Y12.46768
G01 X37.05559 Y12.46064
G01 X37.01444 Y12.46064
G01 X36.97424 Y12.45209
G01 X36.93667 Y12.43537
G01 X36.93347 Y12.44165
G01 X36.93667 Y12.43537
G01 X36.90339 Y12.41119
G01 X36.87589 Y12.38063
G01 X36.87225 Y12.38325
G01 X36.87589 Y12.38063
G01 X36.85531 Y12.34502
G01 X36.84261 Y12.30591
G01 X36.83824 Y12.30682
G01 X36.84261 Y12.30591
G01 X36.83832 Y12.26501
G01 X36.84261 Y12.22412
G01 X36.83824 Y12.22321
G01 X36.84261 Y12.22412
G01 X36.85531 Y12.18503
G01 X36.87589 Y12.14939
G01 X36.87225 Y12.14678
G01 X36.87589 Y12.14939
G01 X36.90339 Y12.11886
G01 X36.93667 Y12.09466
G01 X36.93443 Y12.09080
G01 X36.93667 Y12.09466
G01 X36.97424 Y12.07794
G01 X37.01444 Y12.06938
G01 X37.01406 Y12.06237
G01 X37.01444 Y12.06938
G01 X37.05559 Y12.06938
G01 X37.09580 Y12.07794
G01 X37.13337 Y12.09466
G01 X37.13657 Y12.08838
G01 X37.13337 Y12.09466
G01 X37.16664 Y12.11886
G01 X37.19415 Y12.14939
G01 X37.19776 Y12.14678
G01 X37.19415 Y12.14939
G01 X37.21472 Y12.18503
G01 X37.22742 Y12.22409
G01 X37.23179 Y12.22318
G01 X37.22742 Y12.22409
G01 X37.23172 Y12.26501
G04 P0 ( dwell for no time -- G64 should not smooth over this point )
G00 Z0.50000 ( retract )

G00 X37.63390 Y14.80501 ( rapid move to begin. )
G01 F100.00000
( Mill infeed pass 1/1 )
G01 Z-0.15000
G04 P0 ( dwell for no time -- G64 should not smooth over this point )
G01 F200.00000
G01 X37.63390 Y14.80501
G01 X37.62082 Y14.68048
G01 X37.58213 Y14.56143
G01 X37.51955 Y14.45300
G01 X37.43575 Y14.35993
G01 X37.33448 Y14.28637
G01 X37.22008 Y14.23542
G01 X37.09760 Y14.20938
G01 X36.97241 Y14.20938
G01 X36.84993 Y14.23542
G01 X36.73555 Y14.28635
G01 X36.63428 Y14.35996
G01 X36.55049 Y14.45300
G01 X36.48788 Y14.56143
G01 X36.44919 Y14.68048
G01 X36.43611 Y14.80501
G01 X36.44919 Y14.92955
G01 X36.48788 Y15.04860
G01 X36.55049 Y15.15703
G01 X36.63426 Y15.25007
G01 X36.73555 Y15.32368
G01 X36.84995 Y15.37461
G01 X36.97243 Y15.40064
G01 X37.09760 Y15.40064
G01 X37.22006 Y15.37461
G01 X37.33446 Y15.32368
G01 X37.43575 Y15.25007
G01 X37.51955 Y15.15703
G01 X37.58213 Y15.04860
G01 X37.62082 Y14.92955
G01 X37.63390 Y14.80501
G01 X37.43281 Y14.80501
G01 X37.42412 Y14.72231
G01 X37.42849 Y14.72137
G01 X37.42412 Y14.72231
G01 X37.39842 Y14.64322
G01 X37.35684 Y14.57118
G01 X37.36044 Y14.56857
G01 X37.35684 Y14.57118
G01 X37.30121 Y14.50938
G01 X37.23390 Y14.46051
G01 X37.23613 Y14.45663
G01 X37.23390 Y14.46051
G01 X37.15793 Y14.42668
G01 X37.07662 Y14.40938
G01 X37.07708 Y14.40494
G01 X37.07662 Y14.40938
G01 X36.99341 Y14.40938
G01 X36.91145 Y14.42427
G01 X36.83474 Y14.45843
G01 X36.76883 Y14.50938
G01 X36.71320 Y14.57118
G01 X36.70957 Y14.56857
G01 X36.71320 Y14.57118
G01 X36.67159 Y14.64322
G01 X36.64589 Y14.72234
G01 X36.64152 Y14.72140
G01 X36.64589 Y14.72234
G01 X36.63720 Y14.80501
G01 X36.64589 Y14.88769
G01 X36.64152 Y14.88863
G01 X36.64589 Y14.88769
G01 X36.67159 Y14.96681
G01 X36.71317 Y15.03882
G01 X36.70957 Y15.04146
G01 X36.71317 Y15.03882
G01 X36.76885 Y15.10064
G01 X36.83611 Y15.14951
G01 X36.83388 Y15.15338
G01 X36.83611 Y15.14951
G01 X36.91208 Y15.18335
G01 X36.99344 Y15.20064
G01 X36.99296 Y15.20509
G01 X36.99344 Y15.20064
G01 X37.07660 Y15.20064
G01 X37.15793 Y15.18335
G01 X37.15930 Y15.18759
G01 X37.15793 Y15.18335
G01 X37.23390 Y15.14951
G01 X37.30276 Y15.10260
G01 X37.35894 Y15.04019
G01 X37.39842 Y14.96681
G01 X37.42412 Y14.88772
G01 X37.42849 Y14.88866
G01 X37.42412 Y14.88772
G01 X37.43281 Y14.80501
G01 X37.23172 Y14.80501
G01 X37.22742 Y14.84593
G01 X37.23179 Y14.84685
G01 X37.22742 Y14.84593
G01 X37.21472 Y14.88500
G01 X37.19415 Y14.92063
G01 X37.19776 Y14.92325
G01 X37.19415 Y14.92063
G01 X37.16664 Y14.95119
G01 X37.13337 Y14.97537
G01 X37.13560 Y14.97923
G01 X37.13337 Y14.97537
G01 X37.09580 Y14.99209
G01 X37.05559 Y15.00064
G01 X37.05595 Y15.00768
G01 X37.05559 Y15.00064
G01 X37.01444 Y15.00064
G01 X36.97421 Y14.99209
G01 X36.93667 Y14.97537
G01 X36.93347 Y14.98165
G01 X36.93667 Y14.97537
G01 X36.90339 Y14.95119
G01 X36.87589 Y14.92063
G01 X36.87225 Y14.92325
G01 X36.87589 Y14.92063
G01 X36.85531 Y14.88502
G01 X36.84261 Y14.84591
G01 X36.83824 Y14.84682
G01 X36.84261 Y14.84591
G01 X36.83832 Y14.80501
G01 X36.84261 Y14.76412
G01 X36.83824 Y14.76321
G01 X36.84261 Y14.76412
G01 X36.85531 Y14.72500
G01 X36.87586 Y14.68939
G01 X36.87225 Y14.68678
G01 X36.87586 Y14.68939
G01 X36.90339 Y14.65884
G01 X36.93667 Y14.63466
G01 X36.93443 Y14.63080
G01 X36.93667 Y14.63466
G01 X36.97424 Y14.61794
G01 X37.01447 Y14.60938
G01 X37.01409 Y14.60235
G01 X37.01447 Y14.60938
G01 X37.05557 Y14.60938
G01 X37.09580 Y14.61794
G01 X37.13337 Y14.63466
G01 X37.13657 Y14.62838
G01 X37.13337 Y14.63466
G01 X37.16664 Y14.65884
G01 X37.19415 Y14.68939
G01 X37.19778 Y14.68678
G01 X37.19415 Y14.68939
