( pcb2gcode 2.4.0 )
( Software-independent Gcode )

G94 ( Millimeters per minute feed rate. )
G21 ( Units == Millimeters. )

G90 ( Absolute coordinates. )
G00 S1000 ( RPM spindle speed. )
G64 P0.01016 ( set maximum deviation from commanded toolpath )
G01 F200.00000 ( Feedrate. )


G00 Z0.50000 (Retract to tool change height)
T0
M5      (Spindle stop.)
G04 P1.00000 (Wait for spindle to stop)
(MSG, Change tool bit to mill diameter 0.40000mm)
M6      (Tool change.)
M0      (Temporary machine stop.)
M3 ( Spindle on clockwise. )
G04 P1.00000 (Wait for spindle to get up to speed)
G04 P0 ( dwell for no time -- G64 should not smooth over this point )
G00 Z0.50000 ( retract )

G00 X5.02998 Y29.16000 ( rapid move to begin. )
G01 F100.00000
( Mill infeed pass 1/1 )
G01 Z-0.15000
G04 P0 ( dwell for no time -- G64 should not smooth over this point )
G01 F200.00000
G01 X5.02998 Y29.16000
G01 X5.02998 Y30.96002
G01 X6.83000 Y30.96000
G01 X6.83000 Y29.16003
G01 X5.02998 Y29.16000
G01 X5.22998 Y29.36000
G01 X5.22998 Y30.76002
G01 X5.17140 Y30.81860
G01 X5.22998 Y30.76002
G01 X6.63000 Y30.76002
G01 X6.68857 Y30.81860
G01 X6.63000 Y30.76002
G01 X6.63000 Y29.36000
G01 X6.68857 Y29.30143
G01 X6.63000 Y29.36000
G01 X5.22998 Y29.36000
G01 X5.42998 Y29.56000
G01 X5.42998 Y30.56002
G01 X5.37140 Y30.61860
G01 X5.42998 Y30.56002
G01 X6.43000 Y30.56002
G01 X6.48857 Y30.61860
G01 X6.43000 Y30.56002
G01 X6.43000 Y29.56000
G01 X6.48857 Y29.50143
G01 X6.43000 Y29.56000
G01 X5.42998 Y29.56000
G01 X5.62998 Y29.76000
G01 X5.62998 Y30.36002
G01 X5.57140 Y30.41860
G01 X5.62998 Y30.36002
G01 X6.23000 Y30.36002
G01 X6.28857 Y30.41860
G01 X6.23000 Y30.36002
G01 X6.23000 Y29.76000
G01 X6.28857 Y29.70143
G01 X6.23000 Y29.76000
G01 X5.62998 Y29.76000
G01 X5.82997 Y29.96000
G01 X5.82997 Y30.16003
G01 X5.77140 Y30.21860
G01 X5.82997 Y30.16003
G01 X6.03000 Y30.16003
G01 X6.08857 Y30.21860
G01 X6.03000 Y30.16003
G01 X6.03000 Y29.96000
G01 X6.08857 Y29.90143
G01 X6.03000 Y29.96000
G01 X5.82997 Y29.96000
G04 P0 ( dwell for no time -- G64 should not smooth over this point )
G00 Z0.50000 ( retract )

G00 X5.84364 Y27.55846 ( rapid move to begin. )
G01 F100.00000
( Mill infeed pass 1/1 )
G01 Z-0.15000
G04 P0 ( dwell for no time -- G64 should not smooth over this point )
G01 F200.00000
G01 X5.84364 Y27.55846
G01 X5.86673 Y27.59023
G01 X5.90079 Y27.60989
G01 X5.89495 Y27.62790
G01 X5.90079 Y27.60989
G01 X5.93988 Y27.61401
G01 X5.97724 Y27.60186
G01 X5.98669 Y27.61825
G01 X5.97724 Y27.60186
G01 X6.00645 Y27.57555
G01 X6.02243 Y27.53966
G01 X6.03617 Y27.54334
G01 X6.02243 Y27.53966
G01 X6.02243 Y27.50037
G01 X6.01631 Y27.48157
G01 X6.02901 Y27.47512
G01 X6.01631 Y27.48157
G01 X5.99322 Y27.44979
G01 X5.95918 Y27.43013
G01 X5.96505 Y27.41213
G01 X5.95918 Y27.43013
G01 X5.92012 Y27.42602
G01 X5.88273 Y27.43816
G01 X5.87628 Y27.42549
G01 X5.88273 Y27.43816
G01 X5.85355 Y27.46445
G01 X5.84364 Y27.48160
G01 X5.83036 Y27.47649
G01 X5.84364 Y27.48160
G01 X5.83549 Y27.52003
G01 X5.84364 Y27.55846
G01 X5.82637 Y27.56615
G01 X5.63439 Y27.52000
G01 X5.64085 Y27.58149
G01 X5.63648 Y27.58241
G01 X5.64085 Y27.58149
G01 X5.65995 Y27.64024
G01 X5.69083 Y27.69376
G01 X5.68723 Y27.69638
G01 X5.69083 Y27.69376
G01 X5.73218 Y27.73968
G01 X5.78220 Y27.77601
G01 X5.77996 Y27.77989
G01 X5.78220 Y27.77601
G01 X5.83864 Y27.80115
G01 X5.89909 Y27.81401
G01 X5.89861 Y27.81845
G01 X5.89909 Y27.81401
G01 X5.96089 Y27.81401
G01 X6.02134 Y27.80115
G01 X6.02271 Y27.80539
G01 X6.02134 Y27.80115
G01 X6.07778 Y27.77601
G01 X6.12936 Y27.74162
G01 X6.17122 Y27.69511
G01 X6.20003 Y27.64024
G01 X6.21913 Y27.58149
G01 X6.22350 Y27.58241
G01 X6.21913 Y27.58149
G01 X6.22558 Y27.52003
G01 X6.21913 Y27.45853
G01 X6.22350 Y27.45762
G01 X6.21913 Y27.45853
G01 X6.20005 Y27.39978
G01 X6.16914 Y27.34626
G01 X6.17275 Y27.34365
G01 X6.16914 Y27.34626
G01 X6.12776 Y27.30032
G01 X6.07780 Y27.26402
G01 X6.08004 Y27.26016
G01 X6.07780 Y27.26402
G01 X6.02134 Y27.23887
G01 X5.96086 Y27.22602
G01 X5.96134 Y27.22158
G01 X5.96086 Y27.22602
G01 X5.89911 Y27.22602
G01 X5.83864 Y27.23887
G01 X5.83726 Y27.23463
G01 X5.83864 Y27.23887
G01 X5.78217 Y27.26402
G01 X5.73064 Y27.29839
G01 X5.68875 Y27.34492
G01 X5.65992 Y27.39978
G01 X5.64085 Y27.45853
G01 X5.63648 Y27.45762
G01 X5.64085 Y27.45853
G01 X5.63439 Y27.52000
G01 X5.23219 Y27.52000
G01 X5.24636 Y27.66534
G01 X5.29149 Y27.80428
G01 X5.36457 Y27.93082
G01 X5.46234 Y28.03940
G01 X5.58052 Y28.12528
G01 X5.71400 Y28.18472
G01 X5.85695 Y28.21510
G01 X6.00303 Y28.21510
G01 X6.14598 Y28.18472
G01 X6.27943 Y28.12528
G01 X6.39764 Y28.03940
G01 X6.49540 Y27.93082
G01 X6.56848 Y27.80428
G01 X6.61362 Y27.66529
G01 X6.62888 Y27.52000
G01 X6.61362 Y27.37474
G01 X6.56848 Y27.23575
G01 X6.49540 Y27.10921
G01 X6.39764 Y27.00062
G01 X6.27943 Y26.91474
G01 X6.14598 Y26.85531
G01 X6.00303 Y26.82493
G01 X5.85695 Y26.82493
G01 X5.71400 Y26.85531
G01 X5.58052 Y26.91474
G01 X5.46234 Y27.00062
G01 X5.36457 Y27.10921
G01 X5.29149 Y27.23575
G01 X5.24636 Y27.37469
G01 X5.23219 Y27.52000
G01 X5.03109 Y27.52003
G01 X5.05073 Y27.70689
G01 X5.10879 Y27.88563
G01 X5.20277 Y28.04837
G01 X5.31286 Y28.17065
G01 X5.32850 Y28.18802
G01 X5.48055 Y28.29848
G01 X5.65223 Y28.37491
G01 X5.83599 Y28.41398
G01 X6.02398 Y28.41398
G01 X6.04217 Y28.41012
G01 X6.20775 Y28.37491
G01 X6.37945 Y28.29848
G01 X6.53147 Y28.18802
G01 X6.54712 Y28.17065
G01 X6.65720 Y28.04837
G01 X6.75118 Y27.88563
G01 X6.80925 Y27.70689
G01 X6.82888 Y27.52000
G01 X6.80925 Y27.33311
G01 X6.75116 Y27.15439
G01 X6.65720 Y26.99165
G01 X6.53150 Y26.85201
G01 X6.37945 Y26.74154
G01 X6.20775 Y26.66511
G01 X6.02398 Y26.62605
G01 X5.83599 Y26.62605
G01 X5.65223 Y26.66511
G01 X5.48052 Y26.74154
G01 X5.42025 Y26.78533
G01 X5.32848 Y26.85201
G01 X5.20277 Y26.99165
G01 X5.10879 Y27.15439
G01 X5.05073 Y27.33313
G01 X5.03109 Y27.52003
G01 X5.43328 Y27.52003
G01 X5.44306 Y27.41650
G01 X5.47521 Y27.31754
G01 X5.52726 Y27.22742
G01 X5.59690 Y27.15007
G01 X5.68108 Y27.08891
G01 X5.77618 Y27.04657
G01 X5.87796 Y27.02493
G01 X5.98202 Y27.02493
G01 X6.08382 Y27.04657
G01 X6.17889 Y27.08891
G01 X6.26307 Y27.15007
G01 X6.33272 Y27.22742
G01 X6.38476 Y27.31754
G01 X6.41692 Y27.41652
G01 X6.42779 Y27.52000
G01 X6.41692 Y27.62351
G01 X6.38476 Y27.72249
G01 X6.33272 Y27.81261
G01 X6.26307 Y27.88995
G01 X6.17889 Y27.95111
G01 X6.08382 Y27.99346
G01 X5.98202 Y28.01510
G01 X5.87796 Y28.01510
G01 X5.77618 Y27.99346
G01 X5.68108 Y27.95111
G01 X5.59690 Y27.88995
G01 X5.52726 Y27.81261
G01 X5.47521 Y27.72249
G01 X5.44306 Y27.62353
G01 X5.43328 Y27.52003
G04 P0 ( dwell for no time -- G64 should not smooth over this point )
G00 Z0.50000 ( retract )

G00 X5.43328 Y24.98003 ( rapid move to begin. )
G01 F100.00000
( Mill infeed pass 1/1 )
G01 Z-0.15000
G04 P0 ( dwell for no time -- G64 should not smooth over this point )
G01 F200.00000
G01 X5.43328 Y24.98003
G01 X5.44306 Y25.08353
G01 X5.47521 Y25.18249
G01 X5.52726 Y25.27263
G01 X5.59690 Y25.34995
G01 X5.68108 Y25.41111
G01 X5.77615 Y25.45346
G01 X5.87796 Y25.47510
G01 X5.98202 Y25.47510
G01 X6.08382 Y25.45346
G01 X6.17889 Y25.41111
G01 X6.26310 Y25.34995
G01 X6.33272 Y25.27263
G01 X6.38476 Y25.18249
G01 X6.41692 Y25.08351
G01 X6.42779 Y24.98000
G01 X6.41692 Y24.87652
G01 X6.38476 Y24.77754
G01 X6.33272 Y24.68742
G01 X6.26307 Y24.61007
G01 X6.17889 Y24.54891
G01 X6.08382 Y24.50657
G01 X5.98202 Y24.48493
G01 X5.87796 Y24.48493
G01 X5.77618 Y24.50657
G01 X5.68108 Y24.54891
G01 X5.59690 Y24.61007
G01 X5.52726 Y24.68742
G01 X5.47521 Y24.77754
G01 X5.44306 Y24.87650
G01 X5.43328 Y24.98003
G01 X5.03109 Y24.98003
G01 X5.05073 Y24.79313
G01 X5.10879 Y24.61439
G01 X5.20277 Y24.45165
G01 X5.32850 Y24.31201
G01 X5.48052 Y24.20154
G01 X5.65220 Y24.12511
G01 X5.83602 Y24.08605
G01 X6.02395 Y24.08605
G01 X6.20777 Y24.12511
G01 X6.37945 Y24.20154
G01 X6.53147 Y24.31201
G01 X6.65720 Y24.45165
G01 X6.75118 Y24.61439
G01 X6.80925 Y24.79311
G01 X6.82888 Y24.98000
G01 X6.80925 Y25.16689
G01 X6.75118 Y25.34563
G01 X6.65720 Y25.50837
G01 X6.53147 Y25.64802
G01 X6.37945 Y25.75848
G01 X6.20775 Y25.83491
G01 X6.02393 Y25.87398
G01 X5.83605 Y25.87398
G01 X5.74412 Y25.85445
G01 X5.65223 Y25.83491
G01 X5.48055 Y25.75848
G01 X5.32850 Y25.64802
G01 X5.20277 Y25.50837
G01 X5.10879 Y25.34563
G01 X5.05073 Y25.16689
G01 X5.03109 Y24.98003
G01 X5.23219 Y24.98000
G01 X5.24636 Y24.83469
G01 X5.29149 Y24.69575
G01 X5.36455 Y24.56921
G01 X5.46234 Y24.46062
G01 X5.58055 Y24.37474
G01 X5.71400 Y24.31531
G01 X5.85692 Y24.28493
G01 X6.00308 Y24.28493
G01 X6.14598 Y24.31531
G01 X6.27943 Y24.37474
G01 X6.39764 Y24.46062
G01 X6.49540 Y24.56921
G01 X6.56848 Y24.69575
G01 X6.61362 Y24.83474
G01 X6.62888 Y24.98000
G01 X6.61362 Y25.12529
G01 X6.56845 Y25.26428
G01 X6.49540 Y25.39082
G01 X6.39764 Y25.49940
G01 X6.27943 Y25.58528
G01 X6.14595 Y25.64472
G01 X6.00305 Y25.67510
G01 X5.85692 Y25.67510
G01 X5.71402 Y25.64472
G01 X5.58052 Y25.58528
G01 X5.46234 Y25.49940
G01 X5.36457 Y25.39082
G01 X5.29152 Y25.26428
G01 X5.24636 Y25.12534
G01 X5.23219 Y24.98000
G01 X5.63439 Y24.98000
G01 X5.64085 Y24.91853
G01 X5.63648 Y24.91762
G01 X5.64085 Y24.91853
G01 X5.65995 Y24.85978
G01 X5.68875 Y24.80492
G01 X5.73061 Y24.75841
G01 X5.78220 Y24.72402
G01 X5.83864 Y24.69887
G01 X5.83726 Y24.69463
G01 X5.83864 Y24.69887
G01 X5.89909 Y24.68602
G01 X5.96089 Y24.68602
G01 X5.96137 Y24.68158
G01 X5.96089 Y24.68602
G01 X6.02134 Y24.69887
G01 X6.07778 Y24.72402
G01 X6.08001 Y24.72013
G01 X6.07778 Y24.72402
G01 X6.12779 Y24.76034
G01 X6.16914 Y24.80626
G01 X6.17275 Y24.80365
G01 X6.16914 Y24.80626
G01 X6.20003 Y24.85978
G01 X6.21913 Y24.91853
G01 X6.22350 Y24.91762
G01 X6.21913 Y24.91853
G01 X6.22558 Y24.98003
G01 X6.21913 Y25.04149
G01 X6.22350 Y25.04241
G01 X6.21913 Y25.04149
G01 X6.20005 Y25.10024
G01 X6.17122 Y25.15511
G01 X6.12934 Y25.20164
G01 X6.07780 Y25.23601
G01 X6.02134 Y25.26115
G01 X6.02271 Y25.26539
G01 X6.02134 Y25.26115
G01 X5.96086 Y25.27401
G01 X5.89911 Y25.27401
G01 X5.89863 Y25.27845
G01 X5.89911 Y25.27401
G01 X5.83864 Y25.26115
G01 X5.78217 Y25.23601
G01 X5.77994 Y25.23987
G01 X5.78217 Y25.23601
G01 X5.73221 Y25.19971
G01 X5.69083 Y25.15376
G01 X5.68723 Y25.15638
G01 X5.69083 Y25.15376
G01 X5.65992 Y25.10024
G01 X5.64085 Y25.04149
G01 X5.63648 Y25.04241
G01 X5.64085 Y25.04149
G01 X5.63439 Y24.98000
G01 X5.82380 Y24.95668
G01 X5.83754 Y24.96037
G01 X5.83754 Y24.99966
G01 X5.84364 Y25.01843
G01 X5.83097 Y25.02491
G01 X5.84364 Y25.01843
G01 X5.86675 Y25.05023
G01 X5.90079 Y25.06989
G01 X5.89492 Y25.08790
G01 X5.90079 Y25.06989
G01 X5.93986 Y25.07401
G01 X5.97724 Y25.06186
G01 X5.98669 Y25.07825
G01 X5.97724 Y25.06186
G01 X6.00645 Y25.03555
G01 X6.02243 Y24.99966
G01 X6.03617 Y25.00334
G01 X6.02243 Y24.99966
G01 X6.02243 Y24.96037
G01 X6.01631 Y24.94157
G01 X6.02901 Y24.93509
G01 X6.01631 Y24.94157
G01 X5.99325 Y24.90979
G01 X5.95918 Y24.89013
G01 X5.96503 Y24.87213
G01 X5.95918 Y24.89013
G01 X5.92009 Y24.88602
G01 X5.88273 Y24.89816
G01 X5.87326 Y24.88178
G01 X5.88273 Y24.89816
G01 X5.85355 Y24.92445
G01 X5.83754 Y24.96037
G04 P0 ( dwell for no time -- G64 should not smooth over this point )
G00 Z0.50000 ( retract )

G00 X5.43328 Y22.44003 ( rapid move to begin. )
G01 F100.00000
( Mill infeed pass 1/1 )
G01 Z-0.15000
G04 P0 ( dwell for no time -- G64 should not smooth over this point )
G01 F200.00000
G01 X5.43328 Y22.44003
G01 X5.44306 Y22.54353
G01 X5.47521 Y22.64249
G01 X5.52726 Y22.73263
G01 X5.59690 Y22.80995
G01 X5.68108 Y22.87111
G01 X5.77615 Y22.91346
G01 X5.87793 Y22.93510
G01 X5.98204 Y22.93510
G01 X6.08382 Y22.91346
G01 X6.17889 Y22.87111
G01 X6.26310 Y22.80995
G01 X6.33272 Y22.73263
G01 X6.38476 Y22.64249
G01 X6.41692 Y22.54351
G01 X6.42779 Y22.44000
G01 X6.41692 Y22.33652
G01 X6.38476 Y22.23754
G01 X6.33272 Y22.14742
G01 X6.26310 Y22.07007
G01 X6.17889 Y22.00891
G01 X6.08382 Y21.96657
G01 X5.98204 Y21.94493
G01 X5.87793 Y21.94493
G01 X5.77615 Y21.96657
G01 X5.68108 Y22.00891
G01 X5.59690 Y22.07007
G01 X5.52726 Y22.14742
G01 X5.47521 Y22.23754
G01 X5.44306 Y22.33650
G01 X5.43328 Y22.44003
G01 X5.03109 Y22.44000
G01 X5.05073 Y22.25313
G01 X5.10879 Y22.07439
G01 X5.20277 Y21.91165
G01 X5.32850 Y21.77201
G01 X5.48052 Y21.66154
G01 X5.65223 Y21.58511
G01 X5.83605 Y21.54605
G01 X6.02393 Y21.54605
G01 X6.20775 Y21.58511
G01 X6.37945 Y21.66154
G01 X6.53147 Y21.77201
G01 X6.65720 Y21.91165
G01 X6.75118 Y22.07439
G01 X6.80925 Y22.25313
G01 X6.82888 Y22.44000
G01 X6.80925 Y22.62689
G01 X6.75118 Y22.80563
G01 X6.65720 Y22.96837
G01 X6.53147 Y23.10805
G01 X6.37943 Y23.21848
G01 X6.20777 Y23.29491
G01 X6.02393 Y23.33398
G01 X5.83605 Y23.33398
G01 X5.65220 Y23.29491
G01 X5.48055 Y23.21848
G01 X5.32850 Y23.10805
G01 X5.20277 Y22.96837
G01 X5.10879 Y22.80563
G01 X5.05073 Y22.62689
G01 X5.03109 Y22.44000
G01 X5.23219 Y22.44003
G01 X5.24636 Y22.29471
G01 X5.29149 Y22.15575
G01 X5.36455 Y22.02921
G01 X5.46234 Y21.92062
G01 X5.58052 Y21.83474
G01 X5.71402 Y21.77531
G01 X5.85692 Y21.74493
G01 X6.00305 Y21.74493
G01 X6.14595 Y21.77531
G01 X6.27943 Y21.83474
G01 X6.39764 Y21.92062
G01 X6.49540 Y22.02921
G01 X6.56848 Y22.15575
G01 X6.61362 Y22.29474
G01 X6.62888 Y22.44003
G01 X6.61362 Y22.58529
G01 X6.56848 Y22.72428
G01 X6.49540 Y22.85082
G01 X6.39764 Y22.95940
G01 X6.27943 Y23.04528
G01 X6.14595 Y23.10472
G01 X6.00305 Y23.13510
G01 X5.85692 Y23.13510
G01 X5.71402 Y23.10472
G01 X5.58052 Y23.04528
G01 X5.46234 Y22.95940
G01 X5.36455 Y22.85082
G01 X5.29149 Y22.72428
G01 X5.24636 Y22.58534
G01 X5.23219 Y22.44003
G01 X5.63439 Y22.44000
G01 X5.64085 Y22.37853
G01 X5.63648 Y22.37762
G01 X5.64085 Y22.37853
G01 X5.65992 Y22.31978
G01 X5.69083 Y22.26626
G01 X5.68723 Y22.26365
G01 X5.69083 Y22.26626
G01 X5.73221 Y22.22032
G01 X5.78217 Y22.18402
G01 X5.77994 Y22.18016
G01 X5.78217 Y22.18402
G01 X5.83864 Y22.15887
G01 X5.89911 Y22.14602
G01 X5.89863 Y22.14158
G01 X5.89911 Y22.14602
G01 X5.96086 Y22.14602
G01 X6.02134 Y22.15887
G01 X6.02271 Y22.15463
G01 X6.02134 Y22.15887
G01 X6.07780 Y22.18402
G01 X6.12934 Y22.21839
G01 X6.17122 Y22.26492
G01 X6.20005 Y22.31978
G01 X6.21913 Y22.37853
G01 X6.22350 Y22.37762
G01 X6.21913 Y22.37853
G01 X6.22558 Y22.44003
G01 X6.21913 Y22.50149
G01 X6.22350 Y22.50241
G01 X6.21913 Y22.50149
G01 X6.20003 Y22.56024
G01 X6.16914 Y22.61376
G01 X6.17275 Y22.61638
G01 X6.16914 Y22.61376
G01 X6.12779 Y22.65968
G01 X6.07778 Y22.69601
G01 X6.08001 Y22.69989
G01 X6.07778 Y22.69601
G01 X6.02134 Y22.72115
G01 X5.96089 Y22.73401
G01 X5.96137 Y22.73845
G01 X5.96089 Y22.73401
G01 X5.89909 Y22.73401
G01 X5.83864 Y22.72115
G01 X5.83726 Y22.72539
G01 X5.83864 Y22.72115
G01 X5.78220 Y22.69601
G01 X5.73061 Y22.66162
G01 X5.68875 Y22.61511
G01 X5.65995 Y22.56024
G01 X5.64085 Y22.50149
G01 X5.63648 Y22.50241
G01 X5.64085 Y22.50149
G01 X5.63439 Y22.44000
G01 X5.83549 Y22.44003
G01 X5.84364 Y22.47846
G01 X5.85355 Y22.49558
G01 X5.84247 Y22.50454
G01 X5.85355 Y22.49558
G01 X5.88273 Y22.52186
G01 X5.92012 Y22.53401
G01 X5.91816 Y22.55283
G01 X5.92012 Y22.53401
G01 X5.95921 Y22.52989
G01 X5.99322 Y22.51023
G01 X6.00590 Y22.52430
G01 X5.99322 Y22.51023
G01 X6.01631 Y22.47846
G01 X6.02449 Y22.44000
G01 X6.04341 Y22.44000
G01 X6.02449 Y22.44000
G01 X6.01631 Y22.40157
G01 X5.99322 Y22.36979
G01 X6.00328 Y22.35971
G01 X5.99322 Y22.36979
G01 X5.97724 Y22.35816
G01 X5.93986 Y22.34602
G01 X5.94062 Y22.33182
G01 X5.93986 Y22.34602
G01 X5.90079 Y22.35013
G01 X5.86675 Y22.36979
G01 X5.85408 Y22.35572
G01 X5.86675 Y22.36979
G01 X5.84364 Y22.40160
G01 X5.83549 Y22.44003
G04 P0 ( dwell for no time -- G64 should not smooth over this point )
G00 Z0.50000 ( retract )

G00 X5.43328 Y19.90003 ( rapid move to begin. )
G01 F100.00000
( Mill infeed pass 1/1 )
G01 Z-0.15000
G04 P0 ( dwell for no time -- G64 should not smooth over this point )
G01 F200.00000
G01 X5.43328 Y19.90003
G01 X5.44306 Y20.00353
G01 X5.47524 Y20.10251
G01 X5.52726 Y20.19261
G01 X5.59690 Y20.26995
G01 X5.68108 Y20.33111
G01 X5.77615 Y20.37346
G01 X5.87793 Y20.39510
G01 X5.98204 Y20.39510
G01 X6.08382 Y20.37346
G01 X6.17889 Y20.33111
G01 X6.26310 Y20.26995
G01 X6.33272 Y20.19261
G01 X6.38474 Y20.10251
G01 X6.41692 Y20.00351
G01 X6.42779 Y19.90000
G01 X6.41692 Y19.79652
G01 X6.38476 Y19.69754
G01 X6.33272 Y19.60739
G01 X6.26310 Y19.53007
G01 X6.17889 Y19.46891
G01 X6.08382 Y19.42657
G01 X5.98204 Y19.40493
G01 X5.87793 Y19.40493
G01 X5.77615 Y19.42657
G01 X5.68108 Y19.46891
G01 X5.59690 Y19.53007
G01 X5.52726 Y19.60739
G01 X5.47521 Y19.69754
G01 X5.44306 Y19.79650
G01 X5.43328 Y19.90003
G01 X5.03109 Y19.90003
G01 X5.05073 Y20.08689
G01 X5.10879 Y20.26563
G01 X5.20277 Y20.42837
G01 X5.32850 Y20.56802
G01 X5.48055 Y20.67848
G01 X5.65220 Y20.75491
G01 X5.83605 Y20.79398
G01 X6.02393 Y20.79398
G01 X6.20777 Y20.75491
G01 X6.37943 Y20.67848
G01 X6.47425 Y20.60960
G01 X6.53147 Y20.56802
G01 X6.65720 Y20.42837
G01 X6.75118 Y20.26563
G01 X6.80925 Y20.08689
G01 X6.82888 Y19.90003
G01 X6.80925 Y19.71313
G01 X6.75116 Y19.53439
G01 X6.65720 Y19.37165
G01 X6.53147 Y19.23201
G01 X6.37945 Y19.12154
G01 X6.20775 Y19.04511
G01 X6.11585 Y19.02558
G01 X6.02393 Y19.00605
G01 X5.83605 Y19.00605
G01 X5.65223 Y19.04511
G01 X5.48052 Y19.12154
G01 X5.32850 Y19.23201
G01 X5.20277 Y19.37165
G01 X5.10882 Y19.53439
G01 X5.05073 Y19.71313
G01 X5.03109 Y19.90003
G01 X5.23219 Y19.90000
G01 X5.24636 Y19.75469
G01 X5.29149 Y19.61575
G01 X5.36455 Y19.48921
G01 X5.46234 Y19.38062
G01 X5.58052 Y19.29474
G01 X5.71402 Y19.23531
G01 X5.85692 Y19.20493
G01 X6.00305 Y19.20493
G01 X6.14595 Y19.23531
G01 X6.27943 Y19.29474
G01 X6.39764 Y19.38062
G01 X6.49540 Y19.48921
G01 X6.56848 Y19.61575
G01 X6.61362 Y19.75474
G01 X6.62888 Y19.90000
G01 X6.61362 Y20.04529
G01 X6.56848 Y20.18428
G01 X6.49540 Y20.31082
G01 X6.39764 Y20.41940
G01 X6.27943 Y20.50528
G01 X6.14598 Y20.56472
G01 X6.00305 Y20.59510
G01 X5.85692 Y20.59510
G01 X5.71400 Y20.56472
G01 X5.58055 Y20.50528
G01 X5.46234 Y20.41940
G01 X5.36455 Y20.31082
G01 X5.29149 Y20.18428
G01 X5.24636 Y20.04531
G01 X5.23219 Y19.90000
G01 X5.63439 Y19.90000
G01 X5.64085 Y19.83853
G01 X5.63648 Y19.83762
G01 X5.64085 Y19.83853
G01 X5.65995 Y19.77978
G01 X5.68875 Y19.72492
G01 X5.73061 Y19.67841
G01 X5.78220 Y19.64402
G01 X5.83864 Y19.61887
G01 X5.83726 Y19.61463
G01 X5.83864 Y19.61887
G01 X5.89909 Y19.60602
G01 X5.96089 Y19.60602
G01 X5.96137 Y19.60158
G01 X5.96089 Y19.60602
G01 X6.02134 Y19.61887
G01 X6.07778 Y19.64402
G01 X6.08001 Y19.64013
G01 X6.07778 Y19.64402
G01 X6.12779 Y19.68034
G01 X6.16914 Y19.72626
G01 X6.17275 Y19.72365
G01 X6.16914 Y19.72626
G01 X6.20003 Y19.77978
G01 X6.21913 Y19.83853
G01 X6.22350 Y19.83762
G01 X6.21913 Y19.83853
G01 X6.22558 Y19.90003
G01 X6.21913 Y19.96149
G01 X6.22350 Y19.96241
G01 X6.21913 Y19.96149
G01 X6.20005 Y20.02024
G01 X6.17122 Y20.07511
G01 X6.12934 Y20.12164
G01 X6.07780 Y20.15601
G01 X6.02134 Y20.18115
G01 X6.02271 Y20.18539
G01 X6.02134 Y20.18115
G01 X5.96086 Y20.19401
G01 X5.89911 Y20.19401
G01 X5.89863 Y20.19845
G01 X5.89911 Y20.19401
G01 X5.83864 Y20.18115
G01 X5.78217 Y20.15601
G01 X5.77994 Y20.15987
G01 X5.78217 Y20.15601
G01 X5.73221 Y20.11971
G01 X5.69083 Y20.07376
G01 X5.68723 Y20.07638
G01 X5.69083 Y20.07376
G01 X5.65992 Y20.02024
G01 X5.64085 Y19.96149
G01 X5.63648 Y19.96241
G01 X5.64085 Y19.96149
G01 X5.63439 Y19.90000
G01 X5.81903 Y19.87643
G01 X5.83754 Y19.88037
G01 X5.83754 Y19.91966
G01 X5.85352 Y19.95555
G01 X5.84158 Y19.96332
G01 X5.85352 Y19.95555
G01 X5.88273 Y19.98186
G01 X5.90079 Y19.98989
G01 X5.89711 Y20.00363
G01 X5.90079 Y19.98989
G01 X5.93986 Y19.99401
G01 X5.97724 Y19.98186
G01 X5.98669 Y19.99825
G01 X5.97724 Y19.98186
G01 X6.00645 Y19.95555
G01 X6.02243 Y19.91966
G01 X6.03617 Y19.92334
G01 X6.02243 Y19.91966
G01 X6.02243 Y19.88037
G01 X6.01631 Y19.86157
G01 X6.02901 Y19.85509
G01 X6.01631 Y19.86157
G01 X5.99325 Y19.82979
G01 X5.95918 Y19.81013
G01 X5.96503 Y19.79213
G01 X5.95918 Y19.81013
G01 X5.92009 Y19.80602
G01 X5.88273 Y19.81816
G01 X5.87326 Y19.80178
G01 X5.88273 Y19.81816
G01 X5.85355 Y19.84445
G01 X5.83754 Y19.88037
G04 P0 ( dwell for no time -- G64 should not smooth over this point )
G00 Z0.50000 ( retract )

G00 X5.84364 Y17.39843 ( rapid move to begin. )
G01 F100.00000
( Mill infeed pass 1/1 )
G01 Z-0.15000
G04 P0 ( dwell for no time -- G64 should not smooth over this point )
G01 F200.00000
G01 X5.84364 Y17.39843
G01 X5.86675 Y17.43023
G01 X5.90079 Y17.44989
G01 X5.89492 Y17.46790
G01 X5.90079 Y17.44989
G01 X5.93986 Y17.45401
G01 X5.97724 Y17.44186
G01 X5.98669 Y17.45825
G01 X5.97724 Y17.44186
G01 X6.00645 Y17.41555
G01 X6.02243 Y17.37966
G01 X6.03617 Y17.38334
G01 X6.02243 Y17.37966
G01 X6.02243 Y17.34037
G01 X6.01631 Y17.32157
G01 X6.02901 Y17.31509
G01 X6.01631 Y17.32157
G01 X5.99322 Y17.28979
G01 X5.95918 Y17.27013
G01 X5.96505 Y17.25213
G01 X5.95918 Y17.27013
G01 X5.92012 Y17.26602
G01 X5.88273 Y17.27816
G01 X5.87628 Y17.26549
G01 X5.88273 Y17.27816
G01 X5.85355 Y17.30445
G01 X5.84364 Y17.32157
G01 X5.83036 Y17.31649
G01 X5.84364 Y17.32157
G01 X5.83549 Y17.36003
G01 X5.84364 Y17.39843
G01 X5.82637 Y17.40615
G01 X5.63439 Y17.36000
G01 X5.64085 Y17.42149
G01 X5.63648 Y17.42241
G01 X5.64085 Y17.42149
G01 X5.65995 Y17.48024
G01 X5.69083 Y17.53376
G01 X5.68723 Y17.53638
G01 X5.69083 Y17.53376
G01 X5.73218 Y17.57968
G01 X5.78220 Y17.61601
G01 X5.77996 Y17.61989
G01 X5.78220 Y17.61601
G01 X5.83864 Y17.64115
G01 X5.89909 Y17.65401
G01 X5.89861 Y17.65845
G01 X5.89909 Y17.65401
G01 X5.96089 Y17.65401
G01 X6.02134 Y17.64115
G01 X6.02271 Y17.64539
G01 X6.02134 Y17.64115
G01 X6.07778 Y17.61601
G01 X6.12936 Y17.58162
G01 X6.17122 Y17.53511
G01 X6.20003 Y17.48024
G01 X6.21913 Y17.42149
G01 X6.22350 Y17.42241
G01 X6.21913 Y17.42149
G01 X6.22558 Y17.36003
G01 X6.21913 Y17.29853
G01 X6.22350 Y17.29762
G01 X6.21913 Y17.29853
G01 X6.20005 Y17.23978
G01 X6.16914 Y17.18626
G01 X6.17275 Y17.18365
G01 X6.16914 Y17.18626
G01 X6.12776 Y17.14032
G01 X6.07780 Y17.10402
G01 X6.08004 Y17.10016
G01 X6.07780 Y17.10402
G01 X6.02134 Y17.07887
G01 X5.96086 Y17.06602
G01 X5.96134 Y17.06158
G01 X5.96086 Y17.06602
G01 X5.89911 Y17.06602
G01 X5.83864 Y17.07887
G01 X5.83726 Y17.07463
G01 X5.83864 Y17.07887
G01 X5.78217 Y17.10402
G01 X5.73064 Y17.13839
G01 X5.68875 Y17.18492
G01 X5.65992 Y17.23978
G01 X5.64085 Y17.29853
G01 X5.63648 Y17.29762
G01 X5.64085 Y17.29853
G01 X5.63439 Y17.36000
G01 X5.23219 Y17.36000
G01 X5.24636 Y17.50534
G01 X5.29149 Y17.64428
G01 X5.36455 Y17.77082
G01 X5.46234 Y17.87940
G01 X5.58052 Y17.96528
G01 X5.71400 Y18.02472
G01 X5.85692 Y18.05510
G01 X6.00308 Y18.05510
G01 X6.14598 Y18.02472
G01 X6.27943 Y17.96528
G01 X6.39764 Y17.87940
G01 X6.49540 Y17.77082
G01 X6.56848 Y17.64428
G01 X6.61362 Y17.50529
G01 X6.62888 Y17.36000
G01 X6.61362 Y17.21474
G01 X6.56845 Y17.07575
G01 X6.49540 Y16.94921
G01 X6.39764 Y16.84062
G01 X6.27943 Y16.75474
G01 X6.14598 Y16.69531
G01 X6.00303 Y16.66493
G01 X5.85695 Y16.66493
G01 X5.71400 Y16.69531
G01 X5.58052 Y16.75474
G01 X5.46234 Y16.84062
G01 X5.36457 Y16.94921
G01 X5.29152 Y17.07575
G01 X5.24636 Y17.21469
G01 X5.23219 Y17.36000
G01 X5.03109 Y17.36000
G01 X5.05073 Y17.54689
G01 X5.10879 Y17.72563
G01 X5.20277 Y17.88837
G01 X5.32848 Y18.02802
G01 X5.48052 Y18.13848
G01 X5.65220 Y18.21491
G01 X5.83605 Y18.25398
G01 X6.02393 Y18.25398
G01 X6.20777 Y18.21491
G01 X6.37945 Y18.13848
G01 X6.53150 Y18.02802
G01 X6.65720 Y17.88837
G01 X6.75118 Y17.72563
G01 X6.80925 Y17.54689
G01 X6.82888 Y17.36003
G01 X6.80925 Y17.17313
G01 X6.75118 Y16.99439
G01 X6.65720 Y16.83165
G01 X6.53150 Y16.69201
G01 X6.37943 Y16.58154
G01 X6.20777 Y16.50511
G01 X6.02393 Y16.46605
G01 X5.83605 Y16.46605
G01 X5.65220 Y16.50511
G01 X5.48052 Y16.58154
G01 X5.32848 Y16.69201
G01 X5.20277 Y16.83165
G01 X5.10879 Y16.99439
G01 X5.05073 Y17.17313
G01 X5.03109 Y17.36000
G01 X5.43328 Y17.36003
G01 X5.44306 Y17.25650
G01 X5.47521 Y17.15754
G01 X5.52726 Y17.06742
G01 X5.59690 Y16.99005
G01 X5.68108 Y16.92891
G01 X5.77618 Y16.88657
G01 X5.87796 Y16.86493
G01 X5.98202 Y16.86493
G01 X6.08382 Y16.88657
G01 X6.17889 Y16.92891
G01 X6.26307 Y16.99005
G01 X6.33272 Y17.06742
G01 X6.38476 Y17.15754
G01 X6.41692 Y17.25652
G01 X6.42779 Y17.36000
G01 X6.41692 Y17.46351
G01 X6.38476 Y17.56249
G01 X6.33272 Y17.65261
G01 X6.26307 Y17.72995
G01 X6.17889 Y17.79111
G01 X6.08382 Y17.83346
G01 X5.98202 Y17.85510
G01 X5.87796 Y17.85510
G01 X5.77618 Y17.83346
G01 X5.68108 Y17.79111
G01 X5.59690 Y17.72995
G01 X5.52726 Y17.65261
G01 X5.47521 Y17.56249
G01 X5.44306 Y17.46353
G01 X5.43328 Y17.36003
G04 P0 ( dwell for no time -- G64 should not smooth over this point )
G00 Z0.50000 ( retract )

G00 X5.84364 Y14.85846 ( rapid move to begin. )
G01 F100.00000
( Mill infeed pass 1/1 )
G01 Z-0.15000
G04 P0 ( dwell for no time -- G64 should not smooth over this point )
G01 F200.00000
G01 X5.84364 Y14.85846
G01 X5.86673 Y14.89023
G01 X5.90079 Y14.90989
G01 X5.89495 Y14.92790
G01 X5.90079 Y14.90989
G01 X5.93988 Y14.91401
G01 X5.97724 Y14.90186
G01 X5.98669 Y14.91825
G01 X5.97724 Y14.90186
G01 X6.00645 Y14.87555
G01 X6.02243 Y14.83966
G01 X6.03617 Y14.84334
G01 X6.02243 Y14.83966
G01 X6.02243 Y14.80037
G01 X6.01631 Y14.78157
G01 X6.02901 Y14.77512
G01 X6.01631 Y14.78157
G01 X5.99322 Y14.74979
G01 X5.95918 Y14.73013
G01 X5.96505 Y14.71213
G01 X5.95918 Y14.73013
G01 X5.92012 Y14.72602
G01 X5.88273 Y14.73816
G01 X5.87628 Y14.72549
G01 X5.88273 Y14.73816
G01 X5.85355 Y14.76445
G01 X5.84364 Y14.78160
G01 X5.83036 Y14.77649
G01 X5.84364 Y14.78160
G01 X5.83549 Y14.82003
G01 X5.84364 Y14.85846
G01 X5.82637 Y14.86615
G01 X5.63439 Y14.82000
G01 X5.64085 Y14.88149
G01 X5.63648 Y14.88241
G01 X5.64085 Y14.88149
G01 X5.65992 Y14.94024
G01 X5.69083 Y14.99376
G01 X5.68723 Y14.99638
G01 X5.69083 Y14.99376
G01 X5.73221 Y15.03971
G01 X5.78217 Y15.07601
G01 X5.77994 Y15.07987
G01 X5.78217 Y15.07601
G01 X5.83864 Y15.10115
G01 X5.89911 Y15.11401
G01 X5.89863 Y15.11845
G01 X5.89911 Y15.11401
G01 X5.96086 Y15.11401
G01 X6.02134 Y15.10115
G01 X6.02271 Y15.10539
G01 X6.02134 Y15.10115
G01 X6.07780 Y15.07601
G01 X6.12934 Y15.04164
G01 X6.17122 Y14.99511
G01 X6.20005 Y14.94024
G01 X6.21913 Y14.88149
G01 X6.22350 Y14.88241
G01 X6.21913 Y14.88149
G01 X6.22558 Y14.82003
G01 X6.21913 Y14.75853
G01 X6.22350 Y14.75762
G01 X6.21913 Y14.75853
G01 X6.20003 Y14.69978
G01 X6.16914 Y14.64626
G01 X6.17275 Y14.64365
G01 X6.16914 Y14.64626
G01 X6.12779 Y14.60034
G01 X6.07778 Y14.56402
G01 X6.08001 Y14.56013
G01 X6.07778 Y14.56402
G01 X6.02134 Y14.53887
G01 X5.96089 Y14.52602
G01 X5.96137 Y14.52158
G01 X5.96089 Y14.52602
G01 X5.89909 Y14.52602
G01 X5.83864 Y14.53887
G01 X5.83726 Y14.53463
G01 X5.83864 Y14.53887
G01 X5.78220 Y14.56402
G01 X5.73061 Y14.59841
G01 X5.68875 Y14.64492
G01 X5.65995 Y14.69978
G01 X5.64085 Y14.75853
G01 X5.63648 Y14.75762
G01 X5.64085 Y14.75853
G01 X5.63439 Y14.82000
G01 X5.23219 Y14.82000
G01 X5.24636 Y14.96534
G01 X5.29149 Y15.10428
G01 X5.36457 Y15.23082
G01 X5.46234 Y15.33940
G01 X5.58052 Y15.42528
G01 X5.71400 Y15.48472
G01 X5.85695 Y15.51510
G01 X6.00303 Y15.51510
G01 X6.14598 Y15.48472
G01 X6.27943 Y15.42528
G01 X6.39764 Y15.33940
G01 X6.49540 Y15.23082
G01 X6.56848 Y15.10428
G01 X6.61362 Y14.96529
G01 X6.62888 Y14.82000
G01 X6.61362 Y14.67474
G01 X6.56848 Y14.53575
G01 X6.49540 Y14.40921
G01 X6.39764 Y14.30062
G01 X6.27943 Y14.21474
G01 X6.14598 Y14.15531
G01 X6.00303 Y14.12493
G01 X5.85695 Y14.12493
G01 X5.71400 Y14.15531
G01 X5.58052 Y14.21474
G01 X5.46234 Y14.30062
G01 X5.36457 Y14.40921
G01 X5.29149 Y14.53575
G01 X5.24636 Y14.67469
G01 X5.23219 Y14.82000
G01 X5.03109 Y14.82000
G01 X5.05073 Y15.00689
G01 X5.10882 Y15.18563
G01 X5.16838 Y15.28881
G01 X5.20277 Y15.34837
G01 X5.32848 Y15.48802
G01 X5.48052 Y15.59848
G01 X5.65223 Y15.67491
G01 X5.83605 Y15.71398
G01 X6.02393 Y15.71398
G01 X6.20775 Y15.67491
G01 X6.34557 Y15.61357
G01 X6.37945 Y15.59848
G01 X6.53150 Y15.48802
G01 X6.65720 Y15.34837
G01 X6.75116 Y15.18563
G01 X6.80925 Y15.00689
G01 X6.82888 Y14.82000
G01 X6.80925 Y14.63313
G01 X6.75118 Y14.45439
G01 X6.65720 Y14.29165
G01 X6.53147 Y14.15201
G01 X6.37943 Y14.04154
G01 X6.29360 Y14.00331
G01 X6.20777 Y13.96511
G01 X6.02393 Y13.92605
G01 X5.83605 Y13.92605
G01 X5.65220 Y13.96511
G01 X5.48055 Y14.04154
G01 X5.32850 Y14.15201
G01 X5.20277 Y14.29165
G01 X5.10879 Y14.45439
G01 X5.05073 Y14.63313
G01 X5.03109 Y14.82000
G01 X5.43328 Y14.82003
G01 X5.44306 Y14.71650
G01 X5.47521 Y14.61754
G01 X5.52726 Y14.52742
G01 X5.59690 Y14.45007
G01 X5.68108 Y14.38891
G01 X5.77618 Y14.34657
G01 X5.87796 Y14.32493
G01 X5.98202 Y14.32493
G01 X6.08382 Y14.34657
G01 X6.17889 Y14.38891
G01 X6.26307 Y14.45007
G01 X6.33272 Y14.52742
G01 X6.38476 Y14.61754
G01 X6.41692 Y14.71652
G01 X6.42779 Y14.82000
G01 X6.41692 Y14.92351
G01 X6.38476 Y15.02249
G01 X6.33272 Y15.11261
G01 X6.26307 Y15.18995
G01 X6.17889 Y15.25111
G01 X6.08382 Y15.29346
G01 X5.98202 Y15.31510
G01 X5.87796 Y15.31510
G01 X5.77618 Y15.29346
G01 X5.68108 Y15.25111
G01 X5.59690 Y15.18995
G01 X5.52726 Y15.11261
G01 X5.47521 Y15.02249
G01 X5.44306 Y14.92353
G01 X5.43328 Y14.82003
G04 P0 ( dwell for no time -- G64 should not smooth over this point )
G00 Z0.50000 ( retract )

G00 X5.03109 Y12.28000 ( rapid move to begin. )
G01 F100.00000
( Mill infeed pass 1/1 )
G01 Z-0.15000
G04 P0 ( dwell for no time -- G64 should not smooth over this point )
G01 F200.00000
G01 X5.03109 Y12.28000
G01 X5.05073 Y12.09313
G01 X5.10879 Y11.91439
G01 X5.20277 Y11.75168
G01 X5.32850 Y11.61198
G01 X5.48055 Y11.50154
G01 X5.65220 Y11.42511
G01 X5.83605 Y11.38605
G01 X6.02393 Y11.38605
G01 X6.20777 Y11.42511
G01 X6.37943 Y11.50154
G01 X6.53147 Y11.61198
G01 X6.65720 Y11.75168
G01 X6.75118 Y11.91439
G01 X6.80925 Y12.09313
G01 X6.82888 Y12.28003
G01 X6.80925 Y12.46689
G01 X6.75118 Y12.64563
G01 X6.65723 Y12.80835
G01 X6.53147 Y12.94805
G01 X6.37945 Y13.05848
G01 X6.20775 Y13.13491
G01 X6.02393 Y13.17398
G01 X5.83605 Y13.17398
G01 X5.74412 Y13.15445
G01 X5.65223 Y13.13491
G01 X5.48052 Y13.05848
G01 X5.32850 Y12.94805
G01 X5.20275 Y12.80835
G01 X5.10879 Y12.64563
G01 X5.06869 Y12.52219
G01 X5.05073 Y12.46689
G01 X5.03109 Y12.28000
G01 X5.23219 Y12.28003
G01 X5.24636 Y12.13469
G01 X5.29149 Y11.99575
G01 X5.36455 Y11.86921
G01 X5.46234 Y11.76062
G01 X5.58055 Y11.67474
G01 X5.71400 Y11.61531
G01 X5.85692 Y11.58495
G01 X6.00308 Y11.58495
G01 X6.14598 Y11.61531
G01 X6.27943 Y11.67474
G01 X6.39764 Y11.76062
G01 X6.49540 Y11.86921
G01 X6.56848 Y11.99575
G01 X6.61362 Y12.13474
G01 X6.62888 Y12.28003
G01 X6.61362 Y12.42529
G01 X6.56845 Y12.56428
G01 X6.49540 Y12.69082
G01 X6.39764 Y12.79940
G01 X6.27943 Y12.88528
G01 X6.14595 Y12.94472
G01 X6.00305 Y12.97510
G01 X5.85692 Y12.97510
G01 X5.71402 Y12.94472
G01 X5.58052 Y12.88528
G01 X5.46234 Y12.79940
G01 X5.36457 Y12.69082
G01 X5.29152 Y12.56428
G01 X5.24636 Y12.42534
G01 X5.23219 Y12.28003
G01 X5.43328 Y12.28003
G01 X5.44306 Y12.17650
G01 X5.47521 Y12.07754
G01 X5.52726 Y11.98742
G01 X5.59690 Y11.91007
G01 X5.68108 Y11.84891
G01 X5.77618 Y11.80657
G01 X5.87796 Y11.78493
G01 X5.98202 Y11.78493
G01 X6.08382 Y11.80657
G01 X6.17889 Y11.84891
G01 X6.26307 Y11.91007
G01 X6.33272 Y11.98742
G01 X6.38476 Y12.07754
G01 X6.41692 Y12.17652
G01 X6.42779 Y12.28000
G01 X6.41692 Y12.38351
G01 X6.38476 Y12.48249
G01 X6.33272 Y12.57263
G01 X6.26310 Y12.64995
G01 X6.17889 Y12.71111
G01 X6.08382 Y12.75346
G01 X5.98202 Y12.77510
G01 X5.87796 Y12.77510
G01 X5.77615 Y12.75346
G01 X5.68108 Y12.71111
G01 X5.59690 Y12.64995
G01 X5.52726 Y12.57263
G01 X5.47521 Y12.48249
G01 X5.44306 Y12.38353
G01 X5.43328 Y12.28003
G01 X5.63439 Y12.28003
G01 X5.64085 Y12.21853
G01 X5.63648 Y12.21764
G01 X5.64085 Y12.21853
G01 X5.65992 Y12.15978
G01 X5.68875 Y12.10492
G01 X5.73064 Y12.05839
G01 X5.78217 Y12.02402
G01 X5.83864 Y11.99887
G01 X5.83726 Y11.99463
G01 X5.83864 Y11.99887
G01 X5.89911 Y11.98602
G01 X5.96086 Y11.98602
G01 X5.96134 Y11.98158
G01 X5.96086 Y11.98602
G01 X6.02134 Y11.99887
G01 X6.07780 Y12.02402
G01 X6.08004 Y12.02016
G01 X6.07780 Y12.02402
G01 X6.12776 Y12.06032
G01 X6.16914 Y12.10626
G01 X6.17275 Y12.10367
G01 X6.16914 Y12.10626
G01 X6.20005 Y12.15978
G01 X6.21913 Y12.21853
G01 X6.22350 Y12.21764
G01 X6.21913 Y12.21853
G01 X6.22558 Y12.28003
G01 X6.21913 Y12.34149
G01 X6.22350 Y12.34241
G01 X6.21913 Y12.34149
G01 X6.20003 Y12.40024
G01 X6.17122 Y12.45511
G01 X6.12936 Y12.50162
G01 X6.07778 Y12.53601
G01 X6.02134 Y12.56115
G01 X6.02271 Y12.56539
G01 X6.02134 Y12.56115
G01 X5.96089 Y12.57401
G01 X5.89909 Y12.57401
G01 X5.89861 Y12.57845
G01 X5.89909 Y12.57401
G01 X5.83864 Y12.56115
G01 X5.78220 Y12.53601
G01 X5.77996 Y12.53989
G01 X5.78220 Y12.53601
G01 X5.73218 Y12.49968
G01 X5.69083 Y12.45376
G01 X5.68723 Y12.45638
G01 X5.69083 Y12.45376
G01 X5.65995 Y12.40024
G01 X5.64085 Y12.34149
G01 X5.63648 Y12.34241
G01 X5.64085 Y12.34149
G01 X5.63439 Y12.28003
G01 X5.82380 Y12.25668
G01 X5.83754 Y12.26039
G01 X5.83754 Y12.29966
G01 X5.84364 Y12.31843
G01 X5.83097 Y12.32491
G01 X5.84364 Y12.31843
G01 X5.86675 Y12.35023
G01 X5.90079 Y12.36989
G01 X5.89492 Y12.38790
G01 X5.90079 Y12.36989
G01 X5.93986 Y12.37401
G01 X5.97724 Y12.36186
G01 X5.98669 Y12.37825
G01 X5.97724 Y12.36186
G01 X6.00645 Y12.33555
G01 X6.02243 Y12.29966
G01 X6.03617 Y12.30334
G01 X6.02243 Y12.29966
G01 X6.02243 Y12.26039
G01 X6.01631 Y12.24157
G01 X6.02901 Y12.23509
G01 X6.01631 Y12.24157
G01 X5.99325 Y12.20979
G01 X5.95918 Y12.19013
G01 X5.96503 Y12.17213
G01 X5.95918 Y12.19013
G01 X5.92009 Y12.18602
G01 X5.88273 Y12.19816
G01 X5.87326 Y12.18180
G01 X5.88273 Y12.19816
G01 X5.85355 Y12.22445
G01 X5.83754 Y12.26039
G04 P0 ( dwell for no time -- G64 should not smooth over this point )
G00 Z0.50000 ( retract )

G00 X11.68109 Y12.26501 ( rapid move to begin. )
G01 F100.00000
( Mill infeed pass 1/1 )
G01 Z-0.15000
G04 P0 ( dwell for no time -- G64 should not smooth over this point )
G01 F200.00000
G01 X11.68109 Y12.26501
G01 X11.69417 Y12.14050
G01 X11.73286 Y12.02143
G01 X11.79547 Y11.91300
G01 X11.87924 Y11.81996
G01 X11.98051 Y11.74637
G01 X12.09491 Y11.69542
G01 X12.21739 Y11.66938
G01 X12.34259 Y11.66938
G01 X12.46506 Y11.69542
G01 X12.57944 Y11.74635
G01 X12.68074 Y11.81996
G01 X12.76451 Y11.91297
G01 X12.82712 Y12.02143
G01 X12.86580 Y12.14048
G01 X12.87888 Y12.26501
G01 X12.86580 Y12.38952
G01 X12.82712 Y12.50860
G01 X12.76451 Y12.61706
G01 X12.68071 Y12.71010
G01 X12.57944 Y12.78368
G01 X12.46506 Y12.83461
G01 X12.34259 Y12.86064
G01 X12.21739 Y12.86064
G01 X12.09491 Y12.83461
G01 X11.98051 Y12.78366
G01 X11.87924 Y12.71007
G01 X11.79547 Y12.61703
G01 X11.73286 Y12.50863
G01 X11.69417 Y12.38952
G01 X11.68109 Y12.26501
G01 X11.88219 Y12.26501
G01 X11.89087 Y12.18231
G01 X11.88650 Y12.18137
G01 X11.89087 Y12.18231
G01 X11.91658 Y12.10322
G01 X11.95607 Y12.02984
G01 X12.01226 Y11.96745
G01 X12.08109 Y11.92051
G01 X12.15706 Y11.88668
G01 X12.15569 Y11.88244
G01 X12.15706 Y11.88668
G01 X12.23839 Y11.86938
G01 X12.32158 Y11.86938
G01 X12.32204 Y11.86496
G01 X12.32158 Y11.86938
G01 X12.40291 Y11.88668
G01 X12.47891 Y11.92051
G01 X12.48114 Y11.91665
G01 X12.47891 Y11.92051
G01 X12.54614 Y11.96941
G01 X12.60182 Y12.03121
G01 X12.60542 Y12.02857
G01 X12.60182 Y12.03121
G01 X12.64340 Y12.10322
G01 X12.66910 Y12.18234
G01 X12.67347 Y12.18140
G01 X12.66910 Y12.18234
G01 X12.67779 Y12.26501
G01 X12.66910 Y12.34769
G01 X12.67347 Y12.34863
G01 X12.66910 Y12.34769
G01 X12.64340 Y12.42681
G01 X12.60182 Y12.49885
G01 X12.60542 Y12.50146
G01 X12.60182 Y12.49885
G01 X12.54617 Y12.56064
G01 X12.47891 Y12.60951
G01 X12.48114 Y12.61338
G01 X12.47891 Y12.60951
G01 X12.40289 Y12.64335
G01 X12.32199 Y12.66311
G01 X12.23799 Y12.66311
G01 X12.15709 Y12.64335
G01 X12.08109 Y12.60951
G01 X12.07886 Y12.61338
G01 X12.08109 Y12.60951
G01 X12.01381 Y12.56062
G01 X11.95816 Y12.49885
G01 X11.95455 Y12.50146
G01 X11.95816 Y12.49885
G01 X11.91658 Y12.42681
G01 X11.89087 Y12.34772
G01 X11.88650 Y12.34866
G01 X11.89087 Y12.34772
G01 X11.88219 Y12.26501
G01 X12.08328 Y12.26501
G01 X12.08760 Y12.30593
G01 X12.10030 Y12.34500
G01 X12.09400 Y12.34820
G01 X12.10030 Y12.34500
G01 X12.12084 Y12.38063
G01 X12.14838 Y12.41119
G01 X12.18165 Y12.43537
G01 X12.17779 Y12.44129
G01 X12.18165 Y12.43537
G01 X12.21922 Y12.45209
G01 X12.25940 Y12.46064
G01 X12.25894 Y12.46509
G01 X12.25940 Y12.46064
G01 X12.30057 Y12.46064
G01 X12.34076 Y12.45209
G01 X12.34215 Y12.45635
G01 X12.34076 Y12.45209
G01 X12.37835 Y12.43537
G01 X12.41160 Y12.41119
G01 X12.41459 Y12.41452
G01 X12.41160 Y12.41119
G01 X12.43913 Y12.38063
G01 X12.45968 Y12.34502
G01 X12.46377 Y12.34683
G01 X12.45968 Y12.34502
G01 X12.47238 Y12.30593
G01 X12.47670 Y12.26501
G01 X12.48117 Y12.26501
G01 X12.47670 Y12.26501
G01 X12.47238 Y12.22409
G01 X12.45968 Y12.18503
G01 X12.46598 Y12.18180
G01 X12.45968 Y12.18503
G01 X12.43913 Y12.14939
G01 X12.41160 Y12.11886
G01 X12.37835 Y12.09466
G01 X12.38218 Y12.08874
G01 X12.37835 Y12.09466
G01 X12.34076 Y12.07794
G01 X12.30057 Y12.06938
G01 X12.30103 Y12.06496
G01 X12.30057 Y12.06938
G01 X12.25940 Y12.06938
G01 X12.21922 Y12.07794
G01 X12.21782 Y12.07368
G01 X12.21922 Y12.07794
G01 X12.18165 Y12.09466
G01 X12.14838 Y12.11886
G01 X12.14538 Y12.11551
G01 X12.14838 Y12.11886
G01 X12.12084 Y12.14939
G01 X12.10030 Y12.18503
G01 X12.09621 Y12.18320
G01 X12.10030 Y12.18503
G01 X12.08760 Y12.22409
G01 X12.08328 Y12.26501
G04 P0 ( dwell for no time -- G64 should not smooth over this point )
G00 Z0.50000 ( retract )

G00 X11.68109 Y14.80501 ( rapid move to begin. )
G01 F100.00000
( Mill infeed pass 1/1 )
G01 Z-0.15000
G04 P0 ( dwell for no time -- G64 should not smooth over this point )
G01 F200.00000
G01 X11.68109 Y14.80501
G01 X11.69417 Y14.68050
G01 X11.73286 Y14.56143
G01 X11.79547 Y14.45300
G01 X11.87926 Y14.35993
G01 X11.98051 Y14.28637
G01 X12.09491 Y14.23542
G01 X12.21739 Y14.20938
G01 X12.34259 Y14.20938
G01 X12.46506 Y14.23542
G01 X12.57944 Y14.28635
G01 X12.68071 Y14.35993
G01 X12.76451 Y14.45297
G01 X12.82712 Y14.56143
G01 X12.86580 Y14.68048
G01 X12.87888 Y14.80501
G01 X12.86580 Y14.92952
G01 X12.83679 Y15.01883
G01 X12.82712 Y15.04860
G01 X12.76451 Y15.15706
G01 X12.68071 Y15.25010
G01 X12.57944 Y15.32368
G01 X12.46506 Y15.37461
G01 X12.34259 Y15.40064
G01 X12.21739 Y15.40064
G01 X12.09494 Y15.37461
G01 X11.98053 Y15.32368
G01 X11.87924 Y15.25007
G01 X11.79547 Y15.15703
G01 X11.73286 Y15.04860
G01 X11.69417 Y14.92952
G01 X11.68109 Y14.80501
G01 X11.88219 Y14.80501
G01 X11.88841 Y14.72191
G01 X11.91437 Y14.64207
G01 X11.95816 Y14.57118
G01 X12.01381 Y14.50938
G01 X12.01081 Y14.50608
G01 X12.01381 Y14.50938
G01 X12.08109 Y14.46051
G01 X12.15709 Y14.42668
G01 X12.15569 Y14.42241
G01 X12.15709 Y14.42668
G01 X12.23837 Y14.40938
G01 X12.32161 Y14.40938
G01 X12.32206 Y14.40494
G01 X12.32161 Y14.40938
G01 X12.40289 Y14.42668
G01 X12.47891 Y14.46051
G01 X12.48114 Y14.45665
G01 X12.47891 Y14.46051
G01 X12.54617 Y14.50938
G01 X12.60182 Y14.57118
G01 X12.60542 Y14.56857
G01 X12.60182 Y14.57118
G01 X12.64340 Y14.64322
G01 X12.66910 Y14.72234
G01 X12.67347 Y14.72140
G01 X12.66910 Y14.72234
G01 X12.67779 Y14.80501
G01 X12.66910 Y14.88769
G01 X12.67347 Y14.88863
G01 X12.66910 Y14.88769
G01 X12.64340 Y14.96681
G01 X12.60390 Y15.04019
G01 X12.54772 Y15.10260
G01 X12.47891 Y15.14951
G01 X12.40291 Y15.18335
G01 X12.40428 Y15.18759
G01 X12.40291 Y15.18335
G01 X12.32158 Y15.20064
G01 X12.23839 Y15.20064
G01 X12.23794 Y15.20509
G01 X12.23839 Y15.20064
G01 X12.15706 Y15.18335
G01 X12.08109 Y15.14951
G01 X12.07886 Y15.15340
G01 X12.08109 Y15.14951
G01 X12.01381 Y15.10064
G01 X11.95816 Y15.03882
G01 X11.95455 Y15.04146
G01 X11.95816 Y15.03882
G01 X11.91658 Y14.96681
G01 X11.89087 Y14.88772
G01 X11.88650 Y14.88866
G01 X11.89087 Y14.88772
G01 X11.88219 Y14.80501
G01 X12.08328 Y14.80501
G01 X12.08760 Y14.84593
G01 X12.10030 Y14.88500
G01 X12.09621 Y14.88683
G01 X12.10030 Y14.88500
G01 X12.12084 Y14.92063
G01 X12.14838 Y14.95119
G01 X12.14538 Y14.95452
G01 X12.14838 Y14.95119
G01 X12.18165 Y14.97537
G01 X12.21919 Y14.99209
G01 X12.21736 Y14.99889
G01 X12.21919 Y14.99209
G01 X12.25943 Y15.00064
G01 X12.30055 Y15.00064
G01 X12.34078 Y14.99209
G01 X12.34261 Y14.99889
G01 X12.34078 Y14.99209
G01 X12.37835 Y14.97537
G01 X12.41160 Y14.95119
G01 X12.41459 Y14.95452
G01 X12.41160 Y14.95119
G01 X12.43913 Y14.92063
G01 X12.45968 Y14.88502
G01 X12.46377 Y14.88683
G01 X12.45968 Y14.88502
G01 X12.47238 Y14.84593
G01 X12.47670 Y14.80501
G01 X12.48117 Y14.80501
G01 X12.47670 Y14.80501
G01 X12.47238 Y14.76409
G01 X12.45968 Y14.72500
G01 X12.46377 Y14.72318
G01 X12.45968 Y14.72500
G01 X12.43913 Y14.68939
G01 X12.41160 Y14.65884
G01 X12.41459 Y14.65551
G01 X12.41160 Y14.65884
G01 X12.37835 Y14.63466
G01 X12.34076 Y14.61794
G01 X12.34215 Y14.61368
G01 X12.34076 Y14.61794
G01 X12.30055 Y14.60938
G01 X12.25943 Y14.60938
G01 X12.25897 Y14.60494
G01 X12.25943 Y14.60938
G01 X12.21922 Y14.61794
G01 X12.18165 Y14.63466
G01 X12.17779 Y14.62874
G01 X12.18165 Y14.63466
G01 X12.14838 Y14.65884
G01 X12.12084 Y14.68939
G01 X12.10030 Y14.72503
G01 X12.09400 Y14.72180
G01 X12.10030 Y14.72503
G01 X12.08760 Y14.76409
G01 X12.08328 Y14.80501
G04 P0 ( dwell for no time -- G64 should not smooth over this point )
G00 Z0.50000 ( retract )

G00 X11.68109 Y17.34501 ( rapid move to begin. )
G01 F100.00000
( Mill infeed pass 1/1 )
G01 Z-0.15000
G04 P0 ( dwell for no time -- G64 should not smooth over this point )
G01 F200.00000
G01 X11.68109 Y17.34501
G01 X11.69417 Y17.22050
G01 X11.73286 Y17.10140
G01 X11.79544 Y16.99300
G01 X11.87924 Y16.89993
G01 X11.98051 Y16.82637
G01 X12.09491 Y16.77542
G01 X12.21739 Y16.74938
G01 X12.34259 Y16.74938
G01 X12.46506 Y16.77542
G01 X12.57944 Y16.82635
G01 X12.68071 Y16.89993
G01 X12.76451 Y16.99300
G01 X12.82712 Y17.10140
G01 X12.86580 Y17.22048
G01 X12.87888 Y17.34501
G01 X12.86580 Y17.46955
G01 X12.84002 Y17.54893
G01 X12.82712 Y17.58860
G01 X12.76451 Y17.69706
G01 X12.68074 Y17.79007
G01 X12.57944 Y17.86368
G01 X12.46506 Y17.91458
G01 X12.34259 Y17.94064
G01 X12.21739 Y17.94064
G01 X12.09494 Y17.91461
G01 X11.98053 Y17.86368
G01 X11.87924 Y17.79007
G01 X11.79547 Y17.69703
G01 X11.73288 Y17.58863
G01 X11.69417 Y17.46952
G01 X11.68109 Y17.34501
G01 X11.88219 Y17.34501
G01 X11.89087 Y17.26231
G01 X11.88650 Y17.26137
G01 X11.89087 Y17.26231
G01 X11.91658 Y17.18322
G01 X11.95816 Y17.11118
G01 X11.95455 Y17.10857
G01 X11.95816 Y17.11118
G01 X12.01381 Y17.04938
G01 X12.08109 Y17.00051
G01 X12.07886 Y16.99663
G01 X12.08109 Y17.00051
G01 X12.15706 Y16.96668
G01 X12.23842 Y16.94938
G01 X12.23794 Y16.94494
G01 X12.23842 Y16.94938
G01 X12.32155 Y16.94938
G01 X12.40357 Y16.96427
G01 X12.48025 Y16.99843
G01 X12.54617 Y17.04938
G01 X12.60182 Y17.11118
G01 X12.60542 Y17.10857
G01 X12.60182 Y17.11118
G01 X12.64340 Y17.18322
G01 X12.66910 Y17.26234
G01 X12.67347 Y17.26140
G01 X12.66910 Y17.26234
G01 X12.67779 Y17.34501
G01 X12.66910 Y17.42769
G01 X12.67347 Y17.42863
G01 X12.66910 Y17.42769
G01 X12.64340 Y17.50681
G01 X12.60390 Y17.58019
G01 X12.54774 Y17.64258
G01 X12.47888 Y17.68951
G01 X12.40294 Y17.72335
G01 X12.40431 Y17.72759
G01 X12.40294 Y17.72335
G01 X12.32155 Y17.74064
G01 X12.23842 Y17.74064
G01 X12.23794 Y17.74509
G01 X12.23842 Y17.74064
G01 X12.15704 Y17.72335
G01 X12.08109 Y17.68951
G01 X12.07886 Y17.69340
G01 X12.08109 Y17.68951
G01 X12.01381 Y17.64064
G01 X11.95816 Y17.57882
G01 X11.95455 Y17.58146
G01 X11.95816 Y17.57882
G01 X11.91658 Y17.50681
G01 X11.89087 Y17.42772
G01 X11.88650 Y17.42866
G01 X11.89087 Y17.42772
G01 X11.88219 Y17.34501
G01 X12.08328 Y17.34501
G01 X12.08760 Y17.38591
G01 X12.10030 Y17.42502
G01 X12.09621 Y17.42683
G01 X12.10030 Y17.42502
G01 X12.12084 Y17.46063
G01 X12.14838 Y17.49119
G01 X12.14538 Y17.49452
G01 X12.14838 Y17.49119
G01 X12.18163 Y17.51535
G01 X12.21919 Y17.53209
G01 X12.21736 Y17.53889
G01 X12.21919 Y17.53209
G01 X12.25943 Y17.54064
G01 X12.30055 Y17.54064
G01 X12.34078 Y17.53209
G01 X12.34261 Y17.53889
G01 X12.34078 Y17.53209
G01 X12.37835 Y17.51535
G01 X12.41160 Y17.49119
G01 X12.41459 Y17.49452
G01 X12.41160 Y17.49119
G01 X12.43913 Y17.46063
G01 X12.45968 Y17.42502
G01 X12.46377 Y17.42685
G01 X12.45968 Y17.42502
G01 X12.47238 Y17.38591
G01 X12.47670 Y17.34501
G01 X12.48117 Y17.34501
G01 X12.47670 Y17.34501
G01 X12.47238 Y17.30409
G01 X12.45968 Y17.26500
G01 X12.46377 Y17.26318
G01 X12.45968 Y17.26500
G01 X12.43913 Y17.22939
G01 X12.41160 Y17.19884
G01 X12.41459 Y17.19551
G01 X12.41160 Y17.19884
G01 X12.37835 Y17.17466
G01 X12.34076 Y17.15794
G01 X12.34215 Y17.15368
G01 X12.34076 Y17.15794
G01 X12.30055 Y17.14938
G01 X12.25943 Y17.14938
G01 X12.25897 Y17.14494
G01 X12.25943 Y17.14938
G01 X12.21922 Y17.15794
G01 X12.18165 Y17.17466
G01 X12.17779 Y17.16874
G01 X12.18165 Y17.17466
G01 X12.14838 Y17.19884
G01 X12.12084 Y17.22939
G01 X12.10030 Y17.26503
G01 X12.09400 Y17.26180
G01 X12.10030 Y17.26503
G01 X12.08760 Y17.30409
G01 X12.08328 Y17.34501
G04 P0 ( dwell for no time -- G64 should not smooth over this point )
G00 Z0.50000 ( retract )

G00 X11.68109 Y19.88501 ( rapid move to begin. )
G01 F100.00000
( Mill infeed pass 1/1 )
G01 Z-0.15000
G04 P0 ( dwell for no time -- G64 should not smooth over this point )
G01 F200.00000
G01 X11.68109 Y19.88501
G01 X11.69417 Y19.76050
G01 X11.73286 Y19.64140
G01 X11.79544 Y19.53300
G01 X11.87924 Y19.43996
G01 X11.98053 Y19.36635
G01 X12.09491 Y19.31542
G01 X12.21739 Y19.28938
G01 X12.34259 Y19.28938
G01 X12.46506 Y19.31542
G01 X12.57944 Y19.36635
G01 X12.68074 Y19.43996
G01 X12.76451 Y19.53300
G01 X12.82712 Y19.64140
G01 X12.86580 Y19.76048
G01 X12.87888 Y19.88501
G01 X12.86580 Y20.00955
G01 X12.82712 Y20.12860
G01 X12.76451 Y20.23703
G01 X12.68074 Y20.33007
G01 X12.57944 Y20.40368
G01 X12.46506 Y20.45458
G01 X12.34259 Y20.48064
G01 X12.21739 Y20.48064
G01 X12.09494 Y20.45461
G01 X11.98053 Y20.40368
G01 X11.87924 Y20.33007
G01 X11.79547 Y20.23703
G01 X11.73286 Y20.12863
G01 X11.69417 Y20.00952
G01 X11.68109 Y19.88501
G01 X11.88219 Y19.88501
G01 X11.89087 Y19.80229
G01 X11.88650 Y19.80137
G01 X11.89087 Y19.80229
G01 X11.91658 Y19.72322
G01 X11.95816 Y19.65121
G01 X11.95455 Y19.64857
G01 X11.95816 Y19.65121
G01 X12.01381 Y19.58938
G01 X12.08109 Y19.54051
G01 X12.07886 Y19.53663
G01 X12.08109 Y19.54051
G01 X12.15706 Y19.50668
G01 X12.23842 Y19.48938
G01 X12.23794 Y19.48494
G01 X12.23842 Y19.48938
G01 X12.32155 Y19.48938
G01 X12.40291 Y19.50668
G01 X12.40431 Y19.50244
G01 X12.40291 Y19.50668
G01 X12.47888 Y19.54051
G01 X12.54774 Y19.58745
G01 X12.60390 Y19.64984
G01 X12.64340 Y19.72322
G01 X12.66910 Y19.80234
G01 X12.67347 Y19.80140
G01 X12.66910 Y19.80234
G01 X12.67779 Y19.88501
G01 X12.66910 Y19.96769
G01 X12.67347 Y19.96863
G01 X12.66910 Y19.96769
G01 X12.64340 Y20.04681
G01 X12.60182 Y20.11882
G01 X12.60542 Y20.12146
G01 X12.60182 Y20.11882
G01 X12.54617 Y20.18064
G01 X12.47888 Y20.22951
G01 X12.48112 Y20.23338
G01 X12.47888 Y20.22951
G01 X12.40291 Y20.26335
G01 X12.32155 Y20.28064
G01 X12.32204 Y20.28509
G01 X12.32155 Y20.28064
G01 X12.23842 Y20.28064
G01 X12.15706 Y20.26335
G01 X12.15567 Y20.26759
G01 X12.15706 Y20.26335
G01 X12.08109 Y20.22951
G01 X12.01223 Y20.18258
G01 X11.95607 Y20.12019
G01 X11.91658 Y20.04681
G01 X11.89087 Y19.96772
G01 X11.88650 Y19.96866
G01 X11.89087 Y19.96772
G01 X11.88219 Y19.88501
G01 X12.08328 Y19.88501
G01 X12.08760 Y19.84412
G01 X12.10030 Y19.80500
G01 X12.09621 Y19.80320
G01 X12.10030 Y19.80500
G01 X12.12084 Y19.76942
G01 X12.14838 Y19.73881
G01 X12.14541 Y19.73548
G01 X12.14838 Y19.73881
G01 X12.18163 Y19.71466
G01 X12.21919 Y19.69794
G01 X12.21736 Y19.69114
G01 X12.21919 Y19.69794
G01 X12.25943 Y19.68938
G01 X12.30055 Y19.68938
G01 X12.34078 Y19.69794
G01 X12.34261 Y19.69114
G01 X12.34078 Y19.69794
G01 X12.37835 Y19.71468
G01 X12.41160 Y19.73881
G01 X12.41457 Y19.73548
G01 X12.41160 Y19.73881
G01 X12.43913 Y19.76939
G01 X12.45968 Y19.80498
G01 X12.46626 Y19.80246
G01 X12.45968 Y19.80498
G01 X12.47238 Y19.84412
G01 X12.47670 Y19.88501
G01 X12.47238 Y19.92591
G01 X12.47936 Y19.92703
G01 X12.47238 Y19.92591
G01 X12.45968 Y19.96502
G01 X12.43913 Y20.00063
G01 X12.44274 Y20.00325
G01 X12.43913 Y20.00063
G01 X12.41160 Y20.03119
G01 X12.37832 Y20.05537
G01 X12.38056 Y20.05923
G01 X12.37832 Y20.05537
G01 X12.34078 Y20.07209
G01 X12.30055 Y20.08064
G01 X12.30101 Y20.08509
G01 X12.30055 Y20.08064
G01 X12.25943 Y20.08064
G01 X12.21919 Y20.07209
G01 X12.21782 Y20.07633
G01 X12.21919 Y20.07209
G01 X12.18165 Y20.05537
G01 X12.14838 Y20.03119
G01 X12.14538 Y20.03452
G01 X12.14838 Y20.03119
G01 X12.12084 Y20.00061
G01 X12.10030 Y19.96500
G01 X12.09621 Y19.96683
G01 X12.10030 Y19.96500
G01 X12.08760 Y19.92591
G01 X12.08328 Y19.88501
G04 P0 ( dwell for no time -- G64 should not smooth over this point )
G00 Z0.50000 ( retract )

G00 X11.68109 Y22.42501 ( rapid move to begin. )
G01 F100.00000
( Mill infeed pass 1/1 )
G01 Z-0.15000
G04 P0 ( dwell for no time -- G64 should not smooth over this point )
G01 F200.00000
G01 X11.68109 Y22.42501
G01 X11.69417 Y22.30050
G01 X11.73286 Y22.18140
G01 X11.79547 Y22.07300
G01 X11.87924 Y21.97996
G01 X11.98053 Y21.90635
G01 X12.09494 Y21.85542
G01 X12.21739 Y21.82938
G01 X12.34259 Y21.82938
G01 X12.46506 Y21.85542
G01 X12.57944 Y21.90635
G01 X12.68074 Y21.97996
G01 X12.76451 Y22.07300
G01 X12.82712 Y22.18143
G01 X12.86580 Y22.30048
G01 X12.87888 Y22.42501
G01 X12.86580 Y22.54955
G01 X12.85544 Y22.58145
G01 X12.82712 Y22.66860
G01 X12.76451 Y22.77706
G01 X12.68074 Y22.87007
G01 X12.57942 Y22.94368
G01 X12.46506 Y22.99458
G01 X12.34259 Y23.02064
G01 X12.21739 Y23.02064
G01 X12.09494 Y22.99461
G01 X11.98056 Y22.94368
G01 X11.87926 Y22.87010
G01 X11.79547 Y22.77703
G01 X11.73286 Y22.66863
G01 X11.69417 Y22.54952
G01 X11.68109 Y22.42501
G01 X11.88219 Y22.42501
G01 X11.89087 Y22.34231
G01 X11.88650 Y22.34137
G01 X11.89087 Y22.34231
G01 X11.91658 Y22.26322
G01 X11.95607 Y22.18984
G01 X12.01223 Y22.12745
G01 X12.08109 Y22.08051
G01 X12.15704 Y22.04668
G01 X12.15567 Y22.04244
G01 X12.15704 Y22.04668
G01 X12.23842 Y22.02938
G01 X12.32155 Y22.02938
G01 X12.32204 Y22.02494
G01 X12.32155 Y22.02938
G01 X12.40294 Y22.04668
G01 X12.47888 Y22.08051
G01 X12.48112 Y22.07663
G01 X12.47888 Y22.08051
G01 X12.54617 Y22.12938
G01 X12.60182 Y22.19121
G01 X12.60542 Y22.18857
G01 X12.60182 Y22.19121
G01 X12.64340 Y22.26322
G01 X12.66910 Y22.34234
G01 X12.67347 Y22.34140
G01 X12.66910 Y22.34234
G01 X12.67779 Y22.42501
G01 X12.67157 Y22.50810
G01 X12.64561 Y22.58796
G01 X12.60182 Y22.65885
G01 X12.54617 Y22.72064
G01 X12.54916 Y22.72395
G01 X12.54617 Y22.72064
G01 X12.47888 Y22.76951
G01 X12.40291 Y22.80335
G01 X12.40431 Y22.80759
G01 X12.40291 Y22.80335
G01 X12.32155 Y22.82064
G01 X12.23842 Y22.82064
G01 X12.23794 Y22.82509
G01 X12.23842 Y22.82064
G01 X12.15706 Y22.80335
G01 X12.08109 Y22.76951
G01 X12.07886 Y22.77340
G01 X12.08109 Y22.76951
G01 X12.01381 Y22.72062
G01 X11.95816 Y22.65885
G01 X11.95455 Y22.66146
G01 X11.95816 Y22.65885
G01 X11.91658 Y22.58681
G01 X11.89087 Y22.50772
G01 X11.88650 Y22.50866
G01 X11.89087 Y22.50772
G01 X11.88219 Y22.42501
G01 X12.08328 Y22.42501
G01 X12.08760 Y22.38409
G01 X12.10030 Y22.34503
G01 X12.09621 Y22.34320
G01 X12.10030 Y22.34503
G01 X12.12084 Y22.30939
G01 X12.14838 Y22.27884
G01 X12.14538 Y22.27551
G01 X12.14838 Y22.27884
G01 X12.18165 Y22.25466
G01 X12.21919 Y22.23794
G01 X12.21780 Y22.23370
G01 X12.21919 Y22.23794
G01 X12.25943 Y22.22938
G01 X12.30055 Y22.22938
G01 X12.30164 Y22.22242
G01 X12.30055 Y22.22938
G01 X12.34078 Y22.23794
G01 X12.37835 Y22.25466
G01 X12.41160 Y22.27884
G01 X12.41604 Y22.27335
G01 X12.41160 Y22.27884
G01 X12.43913 Y22.30939
G01 X12.45968 Y22.34500
G01 X12.46377 Y22.34320
G01 X12.45968 Y22.34500
G01 X12.47238 Y22.38409
G01 X12.47670 Y22.42501
G01 X12.48117 Y22.42501
G01 X12.47670 Y22.42501
G01 X12.47238 Y22.46593
G01 X12.45968 Y22.50502
G01 X12.46377 Y22.50685
G01 X12.45968 Y22.50502
G01 X12.43913 Y22.54063
G01 X12.41160 Y22.57119
G01 X12.41459 Y22.57452
G01 X12.41160 Y22.57119
G01 X12.37835 Y22.59537
G01 X12.34076 Y22.61209
G01 X12.34215 Y22.61635
G01 X12.34076 Y22.61209
G01 X12.30055 Y22.62064
G01 X12.25943 Y22.62064
G01 X12.25833 Y22.62760
G01 X12.25943 Y22.62064
G01 X12.21922 Y22.61209
G01 X12.18165 Y22.59537
G01 X12.14838 Y22.57119
G01 X12.14393 Y22.57668
G01 X12.14838 Y22.57119
G01 X12.12084 Y22.54061
G01 X12.10030 Y22.50500
G01 X12.09621 Y22.50683
G01 X12.10030 Y22.50500
G01 X12.08760 Y22.46593
G01 X12.08328 Y22.42501
G04 P0 ( dwell for no time -- G64 should not smooth over this point )
G00 Z0.50000 ( retract )

G00 X11.68109 Y24.96501 ( rapid move to begin. )
G01 F100.00000
( Mill infeed pass 1/1 )
G01 Z-0.15000
G04 P0 ( dwell for no time -- G64 should not smooth over this point )
G01 F200.00000
G01 X11.68109 Y24.96501
G01 X11.69417 Y25.08952
G01 X11.73286 Y25.20863
G01 X11.79547 Y25.31703
G01 X11.87926 Y25.41010
G01 X11.98053 Y25.48368
G01 X12.09491 Y25.53458
G01 X12.21739 Y25.56064
G01 X12.34259 Y25.56064
G01 X12.46506 Y25.53458
G01 X12.57944 Y25.48368
G01 X12.68074 Y25.41007
G01 X12.76451 Y25.31706
G01 X12.82712 Y25.20860
G01 X12.86580 Y25.08952
G01 X12.87888 Y24.96501
G01 X12.86580 Y24.84048
G01 X12.82712 Y24.72143
G01 X12.76451 Y24.61297
G01 X12.68074 Y24.51996
G01 X12.57944 Y24.44635
G01 X12.46506 Y24.39542
G01 X12.34259 Y24.36938
G01 X12.21739 Y24.36938
G01 X12.09494 Y24.39542
G01 X11.98053 Y24.44635
G01 X11.87924 Y24.51996
G01 X11.79547 Y24.61300
G01 X11.73286 Y24.72143
G01 X11.69417 Y24.84050
G01 X11.68109 Y24.96501
G01 X11.88219 Y24.96501
G01 X11.89087 Y25.04772
G01 X11.91658 Y25.12681
G01 X11.91249 Y25.12862
G01 X11.91658 Y25.12681
G01 X11.95816 Y25.19885
G01 X12.01381 Y25.26062
G01 X12.01081 Y25.26395
G01 X12.01381 Y25.26062
G01 X12.08109 Y25.30951
G01 X12.15709 Y25.34335
G01 X12.15569 Y25.34759
G01 X12.15709 Y25.34335
G01 X12.23837 Y25.36064
G01 X12.32161 Y25.36064
G01 X12.32206 Y25.36509
G01 X12.32161 Y25.36064
G01 X12.40289 Y25.34335
G01 X12.47891 Y25.30951
G01 X12.48114 Y25.31338
G01 X12.47891 Y25.30951
G01 X12.54617 Y25.26064
G01 X12.60182 Y25.19885
G01 X12.60542 Y25.20146
G01 X12.60182 Y25.19885
G01 X12.64340 Y25.12681
G01 X12.66910 Y25.04769
G01 X12.67347 Y25.04863
G01 X12.66910 Y25.04769
G01 X12.67779 Y24.96501
G01 X12.66910 Y24.88234
G01 X12.67347 Y24.88140
G01 X12.66910 Y24.88234
G01 X12.64340 Y24.80322
G01 X12.60390 Y24.72984
G01 X12.54772 Y24.66743
G01 X12.47891 Y24.62051
G01 X12.40291 Y24.58668
G01 X12.40428 Y24.58244
G01 X12.40291 Y24.58668
G01 X12.32158 Y24.56938
G01 X12.23839 Y24.56938
G01 X12.23794 Y24.56494
G01 X12.23839 Y24.56938
G01 X12.15706 Y24.58668
G01 X12.08109 Y24.62051
G01 X12.07886 Y24.61663
G01 X12.08109 Y24.62051
G01 X12.01381 Y24.66938
G01 X11.95816 Y24.73121
G01 X11.95455 Y24.72857
G01 X11.95816 Y24.73121
G01 X11.91658 Y24.80322
G01 X11.88848 Y24.88165
G01 X11.87970 Y24.96514
G01 X12.08328 Y24.96501
G01 X12.08760 Y24.92409
G01 X12.10030 Y24.88503
G01 X12.09621 Y24.88320
G01 X12.10030 Y24.88503
G01 X12.12084 Y24.84939
G01 X12.14838 Y24.81884
G01 X12.14538 Y24.81551
G01 X12.14838 Y24.81884
G01 X12.18165 Y24.79466
G01 X12.21922 Y24.77794
G01 X12.21782 Y24.77368
G01 X12.21922 Y24.77794
G01 X12.25940 Y24.76938
G01 X12.30057 Y24.76938
G01 X12.30103 Y24.76494
G01 X12.30057 Y24.76938
G01 X12.34076 Y24.77794
G01 X12.37835 Y24.79466
G01 X12.38218 Y24.78874
G01 X12.37835 Y24.79466
G01 X12.41160 Y24.81884
G01 X12.43913 Y24.84939
G01 X12.45968 Y24.88500
G01 X12.46598 Y24.88180
G01 X12.45968 Y24.88500
G01 X12.47238 Y24.92409
G01 X12.47670 Y24.96501
G01 X12.48117 Y24.96501
G01 X12.47670 Y24.96501
G01 X12.47238 Y25.00593
G01 X12.45968 Y25.04502
G01 X12.46377 Y25.04683
G01 X12.45968 Y25.04502
G01 X12.43913 Y25.08063
G01 X12.41160 Y25.11119
G01 X12.41459 Y25.11452
G01 X12.41160 Y25.11119
G01 X12.37835 Y25.13537
G01 X12.34076 Y25.15209
G01 X12.34215 Y25.15635
G01 X12.34076 Y25.15209
G01 X12.30057 Y25.16064
G01 X12.25940 Y25.16064
G01 X12.25894 Y25.16509
G01 X12.25940 Y25.16064
G01 X12.21922 Y25.15209
G01 X12.18165 Y25.13537
G01 X12.17779 Y25.14129
G01 X12.18165 Y25.13537
G01 X12.14838 Y25.11119
G01 X12.12084 Y25.08063
G01 X12.10030 Y25.04500
G01 X12.09400 Y25.04820
G01 X12.10030 Y25.04500
G01 X12.08760 Y25.00593
G01 X12.08328 Y24.96501
G04 P0 ( dwell for no time -- G64 should not smooth over this point )
G00 Z0.50000 ( retract )

G00 X11.68109 Y27.50501 ( rapid move to begin. )
G01 F100.00000
( Mill infeed pass 1/1 )
G01 Z-0.15000
G04 P0 ( dwell for no time -- G64 should not smooth over this point )
G01 F200.00000
G01 X11.68109 Y27.50501
G01 X11.69417 Y27.38050
G01 X11.73286 Y27.26143
G01 X11.79547 Y27.15300
G01 X11.87926 Y27.05993
G01 X11.98053 Y26.98635
G01 X12.09491 Y26.93542
G01 X12.21739 Y26.90938
G01 X12.34259 Y26.90938
G01 X12.46506 Y26.93542
G01 X12.57944 Y26.98635
G01 X12.68074 Y27.05996
G01 X12.76451 Y27.15297
G01 X12.82712 Y27.26143
G01 X12.86580 Y27.38048
G01 X12.87888 Y27.50501
G01 X12.86580 Y27.62952
G01 X12.82712 Y27.74860
G01 X12.76451 Y27.85703
G01 X12.68074 Y27.95007
G01 X12.57944 Y28.02368
G01 X12.50819 Y28.05541
G01 X12.46506 Y28.07461
G01 X12.34261 Y28.10062
G01 X12.21736 Y28.10062
G01 X12.09491 Y28.07461
G01 X11.98051 Y28.02366
G01 X11.87924 Y27.95007
G01 X11.79547 Y27.85703
G01 X11.73286 Y27.74860
G01 X11.69417 Y27.62952
G01 X11.68109 Y27.50501
G01 X11.88219 Y27.50501
G01 X11.88841 Y27.42191
G01 X11.91437 Y27.34207
G01 X11.95816 Y27.27118
G01 X12.01381 Y27.20938
G01 X12.01081 Y27.20608
G01 X12.01381 Y27.20938
G01 X12.08109 Y27.16051
G01 X12.15709 Y27.12668
G01 X12.15569 Y27.12241
G01 X12.15709 Y27.12668
G01 X12.23837 Y27.10938
G01 X12.32161 Y27.10938
G01 X12.32206 Y27.10494
G01 X12.32161 Y27.10938
G01 X12.40289 Y27.12668
G01 X12.47891 Y27.16051
G01 X12.48114 Y27.15665
G01 X12.47891 Y27.16051
G01 X12.54617 Y27.20938
G01 X12.60182 Y27.27118
G01 X12.60542 Y27.26857
G01 X12.60182 Y27.27118
G01 X12.64340 Y27.34322
G01 X12.66910 Y27.42234
G01 X12.67347 Y27.42140
G01 X12.66910 Y27.42234
G01 X12.67779 Y27.50501
G01 X12.66910 Y27.58769
G01 X12.67347 Y27.58863
G01 X12.66910 Y27.58769
G01 X12.64340 Y27.66681
G01 X12.60390 Y27.74019
G01 X12.54772 Y27.80260
G01 X12.47891 Y27.84951
G01 X12.40291 Y27.88335
G01 X12.40428 Y27.88759
G01 X12.40291 Y27.88335
G01 X12.32158 Y27.90064
G01 X12.23839 Y27.90064
G01 X12.23794 Y27.90509
G01 X12.23839 Y27.90064
G01 X12.15706 Y27.88335
G01 X12.08109 Y27.84951
G01 X12.07886 Y27.85340
G01 X12.08109 Y27.84951
G01 X12.01381 Y27.80064
G01 X11.95816 Y27.73882
G01 X11.95455 Y27.74146
G01 X11.95816 Y27.73882
G01 X11.91658 Y27.66681
G01 X11.89087 Y27.58772
G01 X11.88650 Y27.58866
G01 X11.89087 Y27.58772
G01 X11.88219 Y27.50501
G01 X12.08328 Y27.50501
G01 X12.08760 Y27.54593
G01 X12.10030 Y27.58500
G01 X12.09621 Y27.58683
G01 X12.10030 Y27.58500
G01 X12.12084 Y27.62063
G01 X12.14838 Y27.65119
G01 X12.14538 Y27.65452
G01 X12.14838 Y27.65119
G01 X12.18165 Y27.67537
G01 X12.21919 Y27.69209
G01 X12.21736 Y27.69889
G01 X12.21919 Y27.69209
G01 X12.25943 Y27.70064
G01 X12.30055 Y27.70064
G01 X12.34078 Y27.69209
G01 X12.34261 Y27.69889
G01 X12.34078 Y27.69209
G01 X12.37835 Y27.67537
G01 X12.41160 Y27.65119
G01 X12.41459 Y27.65452
G01 X12.41160 Y27.65119
G01 X12.43913 Y27.62063
G01 X12.45968 Y27.58502
G01 X12.46377 Y27.58683
G01 X12.45968 Y27.58502
G01 X12.47238 Y27.54593
G01 X12.47670 Y27.50501
G01 X12.48117 Y27.50501
G01 X12.47670 Y27.50501
G01 X12.47238 Y27.46409
G01 X12.45968 Y27.42500
G01 X12.46377 Y27.42318
G01 X12.45968 Y27.42500
G01 X12.43913 Y27.38939
G01 X12.41160 Y27.35884
G01 X12.41459 Y27.35551
G01 X12.41160 Y27.35884
G01 X12.37835 Y27.33466
G01 X12.34076 Y27.31794
G01 X12.34215 Y27.31368
G01 X12.34076 Y27.31794
G01 X12.30055 Y27.30938
G01 X12.25943 Y27.30938
G01 X12.25897 Y27.30494
G01 X12.25943 Y27.30938
G01 X12.21922 Y27.31794
G01 X12.18165 Y27.33466
G01 X12.17779 Y27.32874
G01 X12.18165 Y27.33466
G01 X12.14838 Y27.35884
G01 X12.12084 Y27.38939
G01 X12.10030 Y27.42503
G01 X12.09400 Y27.42180
G01 X12.10030 Y27.42503
G01 X12.08760 Y27.46409
G01 X12.08328 Y27.50501
G04 P0 ( dwell for no time -- G64 should not smooth over this point )
G00 Z0.50000 ( retract )

G00 X11.68109 Y30.04501 ( rapid move to begin. )
G01 F100.00000
( Mill infeed pass 1/1 )
G01 Z-0.15000
G04 P0 ( dwell for no time -- G64 should not smooth over this point )
G01 F200.00000
G01 X11.68109 Y30.04501
G01 X11.69417 Y29.92050
G01 X11.73288 Y29.80140
G01 X11.79547 Y29.69300
G01 X11.87926 Y29.59993
G01 X11.98053 Y29.52635
G01 X12.01185 Y29.51240
G01 X12.09494 Y29.47542
G01 X12.21739 Y29.44938
G01 X12.34259 Y29.44938
G01 X12.46506 Y29.47542
G01 X12.57944 Y29.52635
G01 X12.68074 Y29.59996
G01 X12.76451 Y29.69297
G01 X12.82712 Y29.80143
G01 X12.86580 Y29.92048
G01 X12.87888 Y30.04501
G01 X12.86580 Y30.16955
G01 X12.82712 Y30.28863
G01 X12.76451 Y30.39703
G01 X12.68074 Y30.49007
G01 X12.57944 Y30.56368
G01 X12.50819 Y30.59541
G01 X12.46506 Y30.61461
G01 X12.34261 Y30.64062
G01 X12.21736 Y30.64062
G01 X12.09491 Y30.61461
G01 X11.98051 Y30.56366
G01 X11.87924 Y30.49007
G01 X11.79544 Y30.39703
G01 X11.73286 Y30.28863
G01 X11.69417 Y30.16952
G01 X11.68109 Y30.04501
G01 X11.88219 Y30.04501
G01 X11.89087 Y29.96231
G01 X11.88650 Y29.96137
G01 X11.89087 Y29.96231
G01 X11.91658 Y29.88322
G01 X11.95816 Y29.81118
G01 X11.95455 Y29.80857
G01 X11.95816 Y29.81118
G01 X12.01381 Y29.74938
G01 X12.08109 Y29.70051
G01 X12.07886 Y29.69663
G01 X12.08109 Y29.70051
G01 X12.15706 Y29.66668
G01 X12.23842 Y29.64938
G01 X12.23794 Y29.64494
G01 X12.23842 Y29.64938
G01 X12.32155 Y29.64938
G01 X12.40357 Y29.66427
G01 X12.48025 Y29.69843
G01 X12.54617 Y29.74938
G01 X12.60182 Y29.81118
G01 X12.60542 Y29.80857
G01 X12.60182 Y29.81118
G01 X12.64340 Y29.88322
G01 X12.66910 Y29.96234
G01 X12.67347 Y29.96140
G01 X12.66910 Y29.96234
G01 X12.67779 Y30.04501
G01 X12.66910 Y30.12769
G01 X12.67347 Y30.12863
G01 X12.66910 Y30.12769
G01 X12.64340 Y30.20681
G01 X12.60390 Y30.28019
G01 X12.54774 Y30.34258
G01 X12.47888 Y30.38951
G01 X12.40294 Y30.42335
G01 X12.40431 Y30.42759
G01 X12.40294 Y30.42335
G01 X12.32155 Y30.44064
G01 X12.23842 Y30.44064
G01 X12.23794 Y30.44509
G01 X12.23842 Y30.44064
G01 X12.15704 Y30.42335
G01 X12.08109 Y30.38951
G01 X12.07886 Y30.39340
G01 X12.08109 Y30.38951
G01 X12.01381 Y30.34064
G01 X11.95816 Y30.27882
G01 X11.95455 Y30.28146
G01 X11.95816 Y30.27882
G01 X11.91658 Y30.20681
G01 X11.89087 Y30.12772
G01 X11.88650 Y30.12866
G01 X11.89087 Y30.12772
G01 X11.88219 Y30.04501
G01 X12.08328 Y30.04501
G01 X12.08760 Y30.08591
G01 X12.10030 Y30.12502
G01 X12.09621 Y30.12683
G01 X12.10030 Y30.12502
G01 X12.12084 Y30.16063
G01 X12.14838 Y30.19119
G01 X12.14538 Y30.19452
G01 X12.14838 Y30.19119
G01 X12.18163 Y30.21535
G01 X12.21919 Y30.23209
G01 X12.21736 Y30.23889
G01 X12.21919 Y30.23209
G01 X12.25943 Y30.24064
G01 X12.30055 Y30.24064
G01 X12.34078 Y30.23209
G01 X12.34261 Y30.23889
G01 X12.34078 Y30.23209
G01 X12.37835 Y30.21535
G01 X12.41160 Y30.19119
G01 X12.41459 Y30.19452
G01 X12.41160 Y30.19119
G01 X12.43913 Y30.16063
G01 X12.45968 Y30.12502
G01 X12.46377 Y30.12685
G01 X12.45968 Y30.12502
G01 X12.47238 Y30.08591
G01 X12.47670 Y30.04501
G01 X12.48117 Y30.04501
G01 X12.47670 Y30.04501
G01 X12.47238 Y30.00409
G01 X12.45968 Y29.96500
G01 X12.46377 Y29.96318
G01 X12.45968 Y29.96500
G01 X12.43913 Y29.92939
G01 X12.41160 Y29.89884
G01 X12.41459 Y29.89551
G01 X12.41160 Y29.89884
G01 X12.37835 Y29.87466
G01 X12.34076 Y29.85794
G01 X12.34215 Y29.85368
G01 X12.34076 Y29.85794
G01 X12.30055 Y29.84938
G01 X12.25943 Y29.84938
G01 X12.25897 Y29.84494
G01 X12.25943 Y29.84938
G01 X12.21922 Y29.85794
G01 X12.18165 Y29.87466
G01 X12.17779 Y29.86874
G01 X12.18165 Y29.87466
G01 X12.14838 Y29.89884
G01 X12.12084 Y29.92939
G01 X12.10030 Y29.96503
G01 X12.09400 Y29.96180
G01 X12.10030 Y29.96503
G01 X12.08760 Y30.00409
G01 X12.08328 Y30.04501
G04 P0 ( dwell for no time -- G64 should not smooth over this point )
G00 Z0.50000 ( retract )

G00 X11.67998 Y31.98502 ( rapid move to begin. )
G01 F100.00000
( Mill infeed pass 1/1 )
G01 Z-0.15000
G04 P0 ( dwell for no time -- G64 should not smooth over this point )
G01 F200.00000
G01 X11.67998 Y31.98502
G01 X11.67998 Y33.18501
G01 X12.88000 Y33.18501
G01 X12.88000 Y31.98502
G01 X11.67998 Y31.98502
G01 X11.87998 Y32.18501
G01 X11.87998 Y32.98501
G01 X11.82140 Y33.04359
G01 X11.87998 Y32.98501
G01 X12.68000 Y32.98501
G01 X12.73857 Y33.04359
G01 X12.68000 Y32.98501
G01 X12.68000 Y32.18501
G01 X12.73857 Y32.12644
G01 X12.68000 Y32.18501
G01 X11.87998 Y32.18501
G01 X12.07998 Y32.38501
G01 X12.07998 Y32.78501
G01 X12.02140 Y32.84361
G01 X12.07998 Y32.78501
G01 X12.48000 Y32.78501
G01 X12.53857 Y32.84361
G01 X12.48000 Y32.78501
G01 X12.48000 Y32.38501
G01 X12.53857 Y32.32642
G01 X12.48000 Y32.38501
G01 X12.07998 Y32.38501
G04 P0 ( dwell for no time -- G64 should not smooth over this point )
G00 Z0.50000 ( retract )

G00 X15.49998 Y29.44502 ( rapid move to begin. )
G01 F100.00000
( Mill infeed pass 1/1 )
G01 Z-0.15000
G04 P0 ( dwell for no time -- G64 should not smooth over this point )
G01 F200.00000
G01 X15.49998 Y29.44502
G01 X15.49998 Y30.64501
G01 X16.69998 Y30.64501
G01 X16.69998 Y29.44502
G01 X15.49998 Y29.44502
G01 X15.69998 Y29.64501
G01 X15.69998 Y30.44501
G01 X15.64141 Y30.50359
G01 X15.69998 Y30.44501
G01 X16.49998 Y30.44501
G01 X16.55858 Y30.50359
G01 X16.49998 Y30.44501
G01 X16.49998 Y29.64501
G01 X16.55858 Y29.58644
G01 X16.49998 Y29.64501
G01 X15.69998 Y29.64501
G01 X15.89998 Y29.84501
G01 X15.89998 Y30.24501
G01 X15.84141 Y30.30361
G01 X15.89998 Y30.24501
G01 X16.29998 Y30.24501
G01 X16.35858 Y30.30361
G01 X16.29998 Y30.24501
G01 X16.29998 Y29.84501
G01 X16.35858 Y29.78642
G01 X16.29998 Y29.84501
G01 X15.89998 Y29.84501
G04 P0 ( dwell for no time -- G64 should not smooth over this point )
G00 Z0.50000 ( retract )

G00 X15.50110 Y27.50501 ( rapid move to begin. )
G01 F100.00000
( Mill infeed pass 1/1 )
G01 Z-0.15000
G04 P0 ( dwell for no time -- G64 should not smooth over this point )
G01 F200.00000
G01 X15.50110 Y27.50501
G01 X15.51418 Y27.38050
G01 X15.55287 Y27.26143
G01 X15.61548 Y27.15297
G01 X15.69925 Y27.05996
G01 X15.80054 Y26.98635
G01 X15.91489 Y26.93544
G01 X16.03740 Y26.90938
G01 X16.16257 Y26.90938
G01 X16.28507 Y26.93544
G01 X16.39942 Y26.98635
G01 X16.50072 Y27.05996
G01 X16.58449 Y27.15297
G01 X16.64710 Y27.26140
G01 X16.68581 Y27.38050
G01 X16.69889 Y27.50501
G01 X16.68581 Y27.62952
G01 X16.64710 Y27.74860
G01 X16.58451 Y27.85703
G01 X16.50074 Y27.95007
G01 X16.39945 Y28.02368
G01 X16.28505 Y28.07461
G01 X16.16262 Y28.10062
G01 X16.03737 Y28.10062
G01 X15.91492 Y28.07461
G01 X15.80052 Y28.02366
G01 X15.69925 Y27.95007
G01 X15.61548 Y27.85703
G01 X15.55287 Y27.74860
G01 X15.51418 Y27.62952
G01 X15.50110 Y27.50501
G01 X15.70219 Y27.50501
G01 X15.71088 Y27.42231
G01 X15.70651 Y27.42137
G01 X15.71088 Y27.42231
G01 X15.73658 Y27.34322
G01 X15.77816 Y27.27118
G01 X15.77456 Y27.26857
G01 X15.77816 Y27.27118
G01 X15.83382 Y27.20938
G01 X15.90107 Y27.16051
G01 X15.89884 Y27.15665
G01 X15.90107 Y27.16051
G01 X15.97707 Y27.12668
G01 X16.05838 Y27.10938
G01 X16.05792 Y27.10494
G01 X16.05838 Y27.10938
G01 X16.14159 Y27.10938
G01 X16.22289 Y27.12668
G01 X16.22429 Y27.12241
G01 X16.22289 Y27.12668
G01 X16.29889 Y27.16051
G01 X16.36617 Y27.20938
G01 X16.36915 Y27.20608
G01 X16.36617 Y27.20938
G01 X16.42180 Y27.27118
G01 X16.46562 Y27.34207
G01 X16.49155 Y27.42191
G01 X16.49780 Y27.50501
G01 X16.48908 Y27.58772
G01 X16.49345 Y27.58866
G01 X16.48908 Y27.58772
G01 X16.46341 Y27.66681
G01 X16.42183 Y27.73882
G01 X16.42543 Y27.74146
G01 X16.42183 Y27.73882
G01 X16.36615 Y27.80064
G01 X16.29889 Y27.84951
G01 X16.30112 Y27.85338
G01 X16.29889 Y27.84951
G01 X16.22289 Y27.88335
G01 X16.14156 Y27.90064
G01 X16.14204 Y27.90509
G01 X16.14156 Y27.90064
G01 X16.05840 Y27.90064
G01 X15.97707 Y27.88335
G01 X15.97570 Y27.88759
G01 X15.97707 Y27.88335
G01 X15.90107 Y27.84951
G01 X15.83227 Y27.80260
G01 X15.77606 Y27.74019
G01 X15.73658 Y27.66681
G01 X15.71088 Y27.58772
G01 X15.70651 Y27.58866
G01 X15.71088 Y27.58772
G01 X15.70219 Y27.50501
G01 X15.90328 Y27.50501
G01 X15.90758 Y27.54593
G01 X15.90062 Y27.54703
G01 X15.90758 Y27.54593
G01 X15.92030 Y27.58502
G01 X15.94085 Y27.62063
G01 X15.93724 Y27.62325
G01 X15.94085 Y27.62063
G01 X15.96836 Y27.65119
G01 X16.00163 Y27.67537
G01 X15.99940 Y27.67923
G01 X16.00163 Y27.67537
G01 X16.03920 Y27.69209
G01 X16.07941 Y27.70064
G01 X16.07895 Y27.70509
G01 X16.07941 Y27.70064
G01 X16.12056 Y27.70064
G01 X16.16079 Y27.69209
G01 X16.16216 Y27.69633
G01 X16.16079 Y27.69209
G01 X16.19833 Y27.67537
G01 X16.23161 Y27.65119
G01 X16.23460 Y27.65449
G01 X16.23161 Y27.65119
G01 X16.25911 Y27.62063
G01 X16.27969 Y27.58500
G01 X16.28378 Y27.58683
G01 X16.27969 Y27.58500
G01 X16.29239 Y27.54593
G01 X16.29668 Y27.50501
G01 X16.30115 Y27.50501
G01 X16.29668 Y27.50501
G01 X16.29239 Y27.46409
G01 X16.27969 Y27.42503
G01 X16.28599 Y27.42180
G01 X16.27969 Y27.42503
G01 X16.25911 Y27.38939
G01 X16.23161 Y27.35884
G01 X16.19833 Y27.33466
G01 X16.20217 Y27.32874
G01 X16.19833 Y27.33466
G01 X16.16076 Y27.31794
G01 X16.12053 Y27.30938
G01 X16.12101 Y27.30494
G01 X16.12053 Y27.30938
G01 X16.07943 Y27.30938
G01 X16.03920 Y27.31794
G01 X16.03783 Y27.31368
G01 X16.03920 Y27.31794
G01 X16.00163 Y27.33466
G01 X15.96836 Y27.35884
G01 X15.96539 Y27.35551
G01 X15.96836 Y27.35884
G01 X15.94085 Y27.38939
G01 X15.92030 Y27.42500
G01 X15.91370 Y27.42246
G01 X15.92030 Y27.42500
G01 X15.90758 Y27.46409
G01 X15.90328 Y27.50501
G04 P0 ( dwell for no time -- G64 should not smooth over this point )
G00 Z0.50000 ( retract )

G00 X15.50110 Y24.96501 ( rapid move to begin. )
G01 F100.00000
( Mill infeed pass 1/1 )
G01 Z-0.15000
G04 P0 ( dwell for no time -- G64 should not smooth over this point )
G01 F200.00000
G01 X15.50110 Y24.96501
G01 X15.51418 Y25.08952
G01 X15.55287 Y25.20860
G01 X15.61548 Y25.31703
G01 X15.69925 Y25.41010
G01 X15.80054 Y25.48368
G01 X15.91492 Y25.53461
G01 X16.03740 Y25.56064
G01 X16.16257 Y25.56064
G01 X16.28507 Y25.53461
G01 X16.39942 Y25.48368
G01 X16.50072 Y25.41007
G01 X16.58451 Y25.31703
G01 X16.64710 Y25.20860
G01 X16.68581 Y25.08952
G01 X16.69889 Y24.96501
G01 X16.68581 Y24.84050
G01 X16.64710 Y24.72140
G01 X16.58449 Y24.61297
G01 X16.50074 Y24.51996
G01 X16.39942 Y24.44635
G01 X16.28505 Y24.39542
G01 X16.16257 Y24.36938
G01 X16.03740 Y24.36938
G01 X15.91492 Y24.39542
G01 X15.80054 Y24.44635
G01 X15.69925 Y24.51996
G01 X15.61548 Y24.61297
G01 X15.55287 Y24.72143
G01 X15.51418 Y24.84050
G01 X15.50110 Y24.96501
G01 X15.70219 Y24.96501
G01 X15.71088 Y24.88231
G01 X15.70651 Y24.88137
G01 X15.71088 Y24.88231
G01 X15.73658 Y24.80322
G01 X15.77816 Y24.73121
G01 X15.77453 Y24.72857
G01 X15.77816 Y24.73121
G01 X15.83382 Y24.66938
G01 X15.90107 Y24.62051
G01 X15.89884 Y24.61665
G01 X15.90107 Y24.62051
G01 X15.97707 Y24.58668
G01 X16.05840 Y24.56938
G01 X16.05795 Y24.56494
G01 X16.05840 Y24.56938
G01 X16.14156 Y24.56938
G01 X16.22289 Y24.58668
G01 X16.22429 Y24.58244
G01 X16.22289 Y24.58668
G01 X16.29889 Y24.62051
G01 X16.36772 Y24.66743
G01 X16.42391 Y24.72984
G01 X16.46341 Y24.80322
G01 X16.48908 Y24.88231
G01 X16.49345 Y24.88137
G01 X16.48908 Y24.88231
G01 X16.49780 Y24.96501
G01 X16.48908 Y25.04772
G01 X16.49345 Y25.04866
G01 X16.48908 Y25.04772
G01 X16.46341 Y25.12681
G01 X16.42180 Y25.19885
G01 X16.42543 Y25.20146
G01 X16.42180 Y25.19885
G01 X16.36617 Y25.26064
G01 X16.29889 Y25.30951
G01 X16.30112 Y25.31338
G01 X16.29889 Y25.30951
G01 X16.22289 Y25.34335
G01 X16.14199 Y25.36311
G01 X16.05800 Y25.36311
G01 X15.97707 Y25.34335
G01 X15.90107 Y25.30951
G01 X15.89884 Y25.31338
G01 X15.90107 Y25.30951
G01 X15.83382 Y25.26064
G01 X15.77816 Y25.19885
G01 X15.77456 Y25.20146
G01 X15.77816 Y25.19885
G01 X15.73658 Y25.12681
G01 X15.71088 Y25.04772
G01 X15.70651 Y25.04866
G01 X15.71088 Y25.04772
G01 X15.70219 Y24.96501
G01 X15.90328 Y24.96501
G01 X15.90758 Y24.92409
G01 X15.92030 Y24.88500
G01 X15.91370 Y24.88249
G01 X15.92030 Y24.88500
G01 X15.94085 Y24.84939
G01 X15.96836 Y24.81884
G01 X15.96539 Y24.81551
G01 X15.96836 Y24.81884
G01 X16.00163 Y24.79466
G01 X16.03920 Y24.77794
G01 X16.03783 Y24.77368
G01 X16.03920 Y24.77794
G01 X16.07941 Y24.76938
G01 X16.12058 Y24.76938
G01 X16.12104 Y24.76494
G01 X16.12058 Y24.76938
G01 X16.16076 Y24.77794
G01 X16.19833 Y24.79466
G01 X16.20217 Y24.78874
G01 X16.19833 Y24.79466
G01 X16.23161 Y24.81884
G01 X16.25911 Y24.84939
G01 X16.27969 Y24.88503
G01 X16.28599 Y24.88183
G01 X16.27969 Y24.88503
G01 X16.29239 Y24.92409
G01 X16.29668 Y24.96501
G01 X16.30115 Y24.96501
G01 X16.29668 Y24.96501
G01 X16.29239 Y25.00593
G01 X16.27969 Y25.04500
G01 X16.28378 Y25.04683
G01 X16.27969 Y25.04500
G01 X16.25911 Y25.08063
G01 X16.23161 Y25.11119
G01 X16.23460 Y25.11449
G01 X16.23161 Y25.11119
G01 X16.19833 Y25.13537
G01 X16.16076 Y25.15209
G01 X16.16214 Y25.15635
G01 X16.16076 Y25.15209
G01 X16.12058 Y25.16064
G01 X16.07941 Y25.16064
G01 X16.07895 Y25.16509
G01 X16.07941 Y25.16064
G01 X16.03920 Y25.15209
G01 X16.00163 Y25.13537
G01 X15.99940 Y25.13923
G01 X16.00163 Y25.13537
G01 X15.96836 Y25.11119
G01 X15.94085 Y25.08063
G01 X15.93724 Y25.08325
G01 X15.94085 Y25.08063
G01 X15.92030 Y25.04502
G01 X15.90758 Y25.00593
G01 X15.90062 Y25.00703
G01 X15.90758 Y25.00593
G01 X15.90328 Y24.96501
G04 P0 ( dwell for no time -- G64 should not smooth over this point )
G00 Z0.50000 ( retract )

G00 X15.50110 Y22.42501 ( rapid move to begin. )
G01 F100.00000
( Mill infeed pass 1/1 )
G01 Z-0.15000
G04 P0 ( dwell for no time -- G64 should not smooth over this point )
G01 F200.00000
G01 X15.50110 Y22.42501
G01 X15.51418 Y22.30050
G01 X15.55287 Y22.18140
G01 X15.61548 Y22.07300
G01 X15.69925 Y21.97996
G01 X15.80054 Y21.90635
G01 X15.91492 Y21.85542
G01 X16.03740 Y21.82938
G01 X16.16257 Y21.82938
G01 X16.28505 Y21.85542
G01 X16.39942 Y21.90635
G01 X16.50074 Y21.97996
G01 X16.58451 Y22.07300
G01 X16.64710 Y22.18140
G01 X16.68581 Y22.30050
G01 X16.69889 Y22.42501
G01 X16.68581 Y22.54952
G01 X16.64710 Y22.66860
G01 X16.58449 Y22.77706
G01 X16.54263 Y22.82357
G01 X16.50072 Y22.87007
G01 X16.39942 Y22.94368
G01 X16.28507 Y22.99461
G01 X16.16257 Y23.02064
G01 X16.03740 Y23.02064
G01 X15.91492 Y22.99461
G01 X15.80057 Y22.94368
G01 X15.69925 Y22.87007
G01 X15.61548 Y22.77706
G01 X15.55287 Y22.66860
G01 X15.51418 Y22.54952
G01 X15.50110 Y22.42501
G01 X15.70219 Y22.42501
G01 X15.71088 Y22.50772
G01 X15.73658 Y22.58681
G01 X15.73250 Y22.58864
G01 X15.73658 Y22.58681
G01 X15.77816 Y22.65885
G01 X15.83382 Y22.72064
G01 X15.83082 Y22.72395
G01 X15.83382 Y22.72064
G01 X15.90107 Y22.76951
G01 X15.97705 Y22.80335
G01 X15.97567 Y22.80759
G01 X15.97705 Y22.80335
G01 X16.05840 Y22.82064
G01 X16.14156 Y22.82064
G01 X16.14202 Y22.82509
G01 X16.14156 Y22.82064
G01 X16.22292 Y22.80335
G01 X16.29889 Y22.76951
G01 X16.30112 Y22.77338
G01 X16.29889 Y22.76951
G01 X16.36617 Y22.72064
G01 X16.42180 Y22.65885
G01 X16.42543 Y22.66146
G01 X16.42180 Y22.65885
G01 X16.46341 Y22.58681
G01 X16.49150 Y22.50838
G01 X16.50029 Y22.42489
G01 X16.48908 Y22.34231
G01 X16.46341 Y22.26322
G01 X16.46747 Y22.26139
G01 X16.46341 Y22.26322
G01 X16.42183 Y22.19121
G01 X16.36617 Y22.12938
G01 X16.36915 Y22.12606
G01 X16.36617 Y22.12938
G01 X16.29889 Y22.08051
G01 X16.22292 Y22.04668
G01 X16.22432 Y22.04244
G01 X16.22292 Y22.04668
G01 X16.14156 Y22.02938
G01 X16.05840 Y22.02938
G01 X16.05795 Y22.02494
G01 X16.05840 Y22.02938
G01 X15.97705 Y22.04668
G01 X15.90107 Y22.08051
G01 X15.89884 Y22.07663
G01 X15.90107 Y22.08051
G01 X15.83382 Y22.12938
G01 X15.77816 Y22.19121
G01 X15.77453 Y22.18857
G01 X15.77816 Y22.19121
G01 X15.73658 Y22.26322
G01 X15.70847 Y22.34165
G01 X15.69970 Y22.42514
G01 X15.90328 Y22.42501
G01 X15.90758 Y22.38409
G01 X15.92030 Y22.34500
G01 X15.91621 Y22.34320
G01 X15.92030 Y22.34500
G01 X15.94085 Y22.30939
G01 X15.96836 Y22.27884
G01 X15.96539 Y22.27551
G01 X15.96836 Y22.27884
G01 X16.00163 Y22.25466
G01 X16.03917 Y22.23794
G01 X16.03780 Y22.23370
G01 X16.03917 Y22.23794
G01 X16.07943 Y22.22938
G01 X16.12053 Y22.22938
G01 X16.12165 Y22.22242
G01 X16.12053 Y22.22938
G01 X16.16079 Y22.23794
G01 X16.19833 Y22.25466
G01 X16.23161 Y22.27884
G01 X16.23605 Y22.27335
G01 X16.23161 Y22.27884
G01 X16.25911 Y22.30939
G01 X16.27969 Y22.34503
G01 X16.28378 Y22.34320
G01 X16.27969 Y22.34503
G01 X16.29239 Y22.38409
G01 X16.29668 Y22.42501
G01 X16.30115 Y22.42501
G01 X16.29668 Y22.42501
G01 X16.29239 Y22.46593
G01 X16.27969 Y22.50500
G01 X16.28378 Y22.50683
G01 X16.27969 Y22.50500
G01 X16.25911 Y22.54063
G01 X16.23161 Y22.57119
G01 X16.23460 Y22.57449
G01 X16.23161 Y22.57119
G01 X16.19833 Y22.59537
G01 X16.16076 Y22.61209
G01 X16.16214 Y22.61635
G01 X16.16076 Y22.61209
G01 X16.12053 Y22.62064
G01 X16.07943 Y22.62064
G01 X16.07834 Y22.62760
G01 X16.07943 Y22.62064
G01 X16.03920 Y22.61209
G01 X16.00163 Y22.59537
G01 X15.96836 Y22.57119
G01 X15.96394 Y22.57668
G01 X15.96836 Y22.57119
G01 X15.94085 Y22.54063
G01 X15.92030 Y22.50502
G01 X15.91621 Y22.50685
G01 X15.92030 Y22.50502
G01 X15.90758 Y22.46593
G01 X15.90328 Y22.42501
G04 P0 ( dwell for no time -- G64 should not smooth over this point )
G00 Z0.50000 ( retract )

G00 X15.50110 Y19.88501 ( rapid move to begin. )
G01 F100.00000
( Mill infeed pass 1/1 )
G01 Z-0.15000
G04 P0 ( dwell for no time -- G64 should not smooth over this point )
G01 F200.00000
G01 X15.50110 Y19.88501
G01 X15.51418 Y19.76050
G01 X15.55287 Y19.64140
G01 X15.61548 Y19.53300
G01 X15.69925 Y19.43996
G01 X15.80054 Y19.36635
G01 X15.82927 Y19.35354
G01 X15.91492 Y19.31542
G01 X16.03740 Y19.28938
G01 X16.16257 Y19.28938
G01 X16.28505 Y19.31542
G01 X16.39942 Y19.36635
G01 X16.50072 Y19.43996
G01 X16.58451 Y19.53300
G01 X16.64710 Y19.64140
G01 X16.68581 Y19.76050
G01 X16.69889 Y19.88501
G01 X16.68581 Y20.00952
G01 X16.64710 Y20.12860
G01 X16.58449 Y20.23706
G01 X16.50074 Y20.33007
G01 X16.39942 Y20.40368
G01 X16.28505 Y20.45461
G01 X16.16257 Y20.48064
G01 X16.03740 Y20.48064
G01 X15.91492 Y20.45461
G01 X15.80054 Y20.40368
G01 X15.69925 Y20.33007
G01 X15.61548 Y20.23706
G01 X15.55287 Y20.12860
G01 X15.51418 Y20.00952
G01 X15.50110 Y19.88501
G01 X15.70219 Y19.88501
G01 X15.71088 Y19.80229
G01 X15.73658 Y19.72322
G01 X15.73250 Y19.72139
G01 X15.73658 Y19.72322
G01 X15.77816 Y19.65121
G01 X15.83382 Y19.58938
G01 X15.83082 Y19.58608
G01 X15.83382 Y19.58938
G01 X15.90107 Y19.54051
G01 X15.97616 Y19.50434
G01 X16.05828 Y19.48689
G01 X16.14156 Y19.48938
G01 X16.22292 Y19.50668
G01 X16.22429 Y19.50244
G01 X16.22292 Y19.50668
G01 X16.29889 Y19.54051
G01 X16.36617 Y19.58938
G01 X16.36915 Y19.58608
G01 X16.36617 Y19.58938
G01 X16.42183 Y19.65121
G01 X16.46341 Y19.72322
G01 X16.46747 Y19.72139
G01 X16.46341 Y19.72322
G01 X16.48908 Y19.80229
G01 X16.49780 Y19.88501
G01 X16.50227 Y19.88501
G01 X16.49780 Y19.88501
G01 X16.48908 Y19.96772
G01 X16.46341 Y20.04681
G01 X16.46747 Y20.04862
G01 X16.46341 Y20.04681
G01 X16.42183 Y20.11882
G01 X16.36617 Y20.18064
G01 X16.36915 Y20.18395
G01 X16.36617 Y20.18064
G01 X16.29889 Y20.22951
G01 X16.22381 Y20.26566
G01 X16.14169 Y20.28313
G01 X16.05840 Y20.28064
G01 X15.97705 Y20.26335
G01 X15.97567 Y20.26759
G01 X15.97705 Y20.26335
G01 X15.90107 Y20.22951
G01 X15.83382 Y20.18064
G01 X15.83082 Y20.18395
G01 X15.83382 Y20.18064
G01 X15.77816 Y20.11882
G01 X15.73658 Y20.04681
G01 X15.73250 Y20.04862
G01 X15.73658 Y20.04681
G01 X15.71088 Y19.96772
G01 X15.70219 Y19.88501
G01 X15.90328 Y19.88501
G01 X15.90758 Y19.84412
G01 X15.92030 Y19.80498
G01 X15.91370 Y19.80246
G01 X15.92030 Y19.80498
G01 X15.94085 Y19.76939
G01 X15.96838 Y19.73881
G01 X15.96539 Y19.73548
G01 X15.96838 Y19.73881
G01 X16.00161 Y19.71468
G01 X16.03920 Y19.69794
G01 X16.03780 Y19.69370
G01 X16.03920 Y19.69794
G01 X16.07943 Y19.68938
G01 X16.12053 Y19.68938
G01 X16.12101 Y19.68494
G01 X16.12053 Y19.68938
G01 X16.16079 Y19.69794
G01 X16.19836 Y19.71466
G01 X16.20059 Y19.71080
G01 X16.19836 Y19.71466
G01 X16.23161 Y19.73881
G01 X16.25911 Y19.76939
G01 X16.26275 Y19.76678
G01 X16.25911 Y19.76939
G01 X16.27969 Y19.80500
G01 X16.29239 Y19.84412
G01 X16.29676 Y19.84318
G01 X16.29239 Y19.84412
G01 X16.29668 Y19.88501
G01 X16.29239 Y19.92591
G01 X16.29676 Y19.92685
G01 X16.29239 Y19.92591
G01 X16.27969 Y19.96500
G01 X16.25911 Y20.00063
G01 X16.26460 Y20.00508
G01 X16.25911 Y20.00063
G01 X16.23161 Y20.03119
G01 X16.19833 Y20.05537
G01 X16.16079 Y20.07209
G01 X16.16330 Y20.07866
G01 X16.16079 Y20.07209
G01 X16.12053 Y20.08064
G01 X16.07943 Y20.08064
G01 X16.07898 Y20.08509
G01 X16.07943 Y20.08064
G01 X16.03920 Y20.07209
G01 X16.00163 Y20.05537
G01 X15.99940 Y20.05923
G01 X16.00163 Y20.05537
G01 X15.96836 Y20.03119
G01 X15.94085 Y20.00063
G01 X15.93722 Y20.00325
G01 X15.94085 Y20.00063
G01 X15.92030 Y19.96502
G01 X15.90758 Y19.92591
G01 X15.90062 Y19.92703
G01 X15.90758 Y19.92591
G01 X15.90328 Y19.88501
G04 P0 ( dwell for no time -- G64 should not smooth over this point )
G00 Z0.50000 ( retract )

G00 X15.50110 Y17.34501 ( rapid move to begin. )
G01 F100.00000
( Mill infeed pass 1/1 )
G01 Z-0.15000
G04 P0 ( dwell for no time -- G64 should not smooth over this point )
G01 F200.00000
G01 X15.50110 Y17.34501
G01 X15.51418 Y17.22050
G01 X15.55287 Y17.10140
G01 X15.61548 Y16.99297
G01 X15.69925 Y16.89993
G01 X15.80052 Y16.82635
G01 X15.91492 Y16.77542
G01 X16.03740 Y16.74938
G01 X16.16259 Y16.74938
G01 X16.28505 Y16.77542
G01 X16.39945 Y16.82635
G01 X16.50072 Y16.89993
G01 X16.58451 Y16.99300
G01 X16.64710 Y17.10140
G01 X16.68581 Y17.22050
G01 X16.69889 Y17.34501
G01 X16.68581 Y17.46952
G01 X16.64710 Y17.58863
G01 X16.58451 Y17.69703
G01 X16.50074 Y17.79007
G01 X16.39942 Y17.86368
G01 X16.28505 Y17.91461
G01 X16.16257 Y17.94064
G01 X16.03740 Y17.94064
G01 X15.91492 Y17.91461
G01 X15.80054 Y17.86368
G01 X15.69925 Y17.79007
G01 X15.61548 Y17.69703
G01 X15.55287 Y17.58863
G01 X15.51418 Y17.46952
G01 X15.50110 Y17.34501
G01 X15.70219 Y17.34501
G01 X15.71088 Y17.42772
G01 X15.73658 Y17.50681
G01 X15.73250 Y17.50862
G01 X15.73658 Y17.50681
G01 X15.77816 Y17.57882
G01 X15.83382 Y17.64064
G01 X15.83082 Y17.64397
G01 X15.83382 Y17.64064
G01 X15.90107 Y17.68951
G01 X15.97705 Y17.72335
G01 X15.97567 Y17.72759
G01 X15.97705 Y17.72335
G01 X16.05840 Y17.74064
G01 X16.14156 Y17.74064
G01 X16.14202 Y17.74509
G01 X16.14156 Y17.74064
G01 X16.22292 Y17.72335
G01 X16.29889 Y17.68951
G01 X16.30112 Y17.69338
G01 X16.29889 Y17.68951
G01 X16.36617 Y17.64064
G01 X16.42183 Y17.57882
G01 X16.42543 Y17.58146
G01 X16.42183 Y17.57882
G01 X16.46341 Y17.50681
G01 X16.48908 Y17.42772
G01 X16.49345 Y17.42866
G01 X16.48908 Y17.42772
G01 X16.49780 Y17.34501
G01 X16.49155 Y17.26191
G01 X16.46562 Y17.18207
G01 X16.42180 Y17.11118
G01 X16.36617 Y17.04938
G01 X16.36915 Y17.04608
G01 X16.36617 Y17.04938
G01 X16.29889 Y17.00051
G01 X16.22292 Y16.96668
G01 X16.22429 Y16.96244
G01 X16.22292 Y16.96668
G01 X16.14156 Y16.94938
G01 X16.05840 Y16.94938
G01 X16.05795 Y16.94494
G01 X16.05840 Y16.94938
G01 X15.97705 Y16.96668
G01 X15.90107 Y17.00051
G01 X15.89884 Y16.99663
G01 X15.90107 Y17.00051
G01 X15.83382 Y17.04938
G01 X15.77816 Y17.11118
G01 X15.77456 Y17.10857
G01 X15.77816 Y17.11118
G01 X15.73658 Y17.18322
G01 X15.70847 Y17.26165
G01 X15.69970 Y17.34514
G01 X15.90328 Y17.34501
G01 X15.90758 Y17.30409
G01 X15.90321 Y17.30318
G01 X15.90758 Y17.30409
G01 X15.92030 Y17.26500
G01 X15.94085 Y17.22939
G01 X15.93536 Y17.22495
G01 X15.94085 Y17.22939
G01 X15.96836 Y17.19884
G01 X16.00163 Y17.17466
G01 X16.03920 Y17.15794
G01 X16.03669 Y17.15134
G01 X16.03920 Y17.15794
G01 X16.07943 Y17.14938
G01 X16.12053 Y17.14938
G01 X16.12101 Y17.14494
G01 X16.12053 Y17.14938
G01 X16.16076 Y17.15794
G01 X16.19833 Y17.17466
G01 X16.20057 Y17.17080
G01 X16.19833 Y17.17466
G01 X16.23161 Y17.19884
G01 X16.25911 Y17.22939
G01 X16.26275 Y17.22678
G01 X16.25911 Y17.22939
G01 X16.27969 Y17.26503
G01 X16.29239 Y17.30409
G01 X16.29676 Y17.30318
G01 X16.29239 Y17.30409
G01 X16.29668 Y17.34501
G01 X16.29239 Y17.38591
G01 X16.29676 Y17.38685
G01 X16.29239 Y17.38591
G01 X16.27969 Y17.42502
G01 X16.25911 Y17.46063
G01 X16.26272 Y17.46328
G01 X16.25911 Y17.46063
G01 X16.23161 Y17.49119
G01 X16.19836 Y17.51535
G01 X16.20059 Y17.51923
G01 X16.19836 Y17.51535
G01 X16.16079 Y17.53209
G01 X16.12053 Y17.54064
G01 X16.12091 Y17.54768
G01 X16.12053 Y17.54064
G01 X16.07943 Y17.54064
G01 X16.03920 Y17.53209
G01 X16.00161 Y17.51535
G01 X15.99841 Y17.52165
G01 X16.00161 Y17.51535
G01 X15.96836 Y17.49119
G01 X15.94085 Y17.46063
G01 X15.93724 Y17.46325
G01 X15.94085 Y17.46063
G01 X15.92030 Y17.42502
G01 X15.90758 Y17.38591
G01 X15.90321 Y17.38685
G01 X15.90758 Y17.38591
G01 X15.90328 Y17.34501
G04 P0 ( dwell for no time -- G64 should not smooth over this point )
G00 Z0.50000 ( retract )

G00 X15.50110 Y14.80501 ( rapid move to begin. )
G01 F100.00000
( Mill infeed pass 1/1 )
G01 Z-0.15000
G04 P0 ( dwell for no time -- G64 should not smooth over this point )
G01 F200.00000
G01 X15.50110 Y14.80501
G01 X15.51418 Y14.68050
G01 X15.55287 Y14.56143
G01 X15.61548 Y14.45297
G01 X15.69925 Y14.35993
G01 X15.80052 Y14.28635
G01 X15.91492 Y14.23542
G01 X16.03740 Y14.20938
G01 X16.16259 Y14.20938
G01 X16.28505 Y14.23542
G01 X16.39945 Y14.28635
G01 X16.50072 Y14.35993
G01 X16.58451 Y14.45297
G01 X16.64710 Y14.56143
G01 X16.68581 Y14.68050
G01 X16.69889 Y14.80501
G01 X16.68581 Y14.92952
G01 X16.64710 Y15.04860
G01 X16.58451 Y15.15703
G01 X16.50074 Y15.25007
G01 X16.39942 Y15.32368
G01 X16.28505 Y15.37461
G01 X16.16257 Y15.40064
G01 X16.03740 Y15.40064
G01 X15.91494 Y15.37461
G01 X15.80054 Y15.32368
G01 X15.69925 Y15.25007
G01 X15.61548 Y15.15703
G01 X15.55287 Y15.04860
G01 X15.51418 Y14.92952
G01 X15.50110 Y14.80501
G01 X15.70219 Y14.80501
G01 X15.71088 Y14.72231
G01 X15.70651 Y14.72137
G01 X15.71088 Y14.72231
G01 X15.73658 Y14.64322
G01 X15.77816 Y14.57118
G01 X15.77456 Y14.56857
G01 X15.77816 Y14.57118
G01 X15.83382 Y14.50938
G01 X15.90107 Y14.46051
G01 X15.89884 Y14.45665
G01 X15.90107 Y14.46051
G01 X15.97707 Y14.42668
G01 X16.05838 Y14.40938
G01 X16.05792 Y14.40494
G01 X16.05838 Y14.40938
G01 X16.14159 Y14.40938
G01 X16.22289 Y14.42668
G01 X16.22429 Y14.42241
G01 X16.22289 Y14.42668
G01 X16.29889 Y14.46051
G01 X16.36617 Y14.50938
G01 X16.36915 Y14.50608
G01 X16.36617 Y14.50938
G01 X16.42180 Y14.57118
G01 X16.46562 Y14.64207
G01 X16.49155 Y14.72191
G01 X16.49780 Y14.80501
G01 X16.48908 Y14.88772
G01 X16.49345 Y14.88866
G01 X16.48908 Y14.88772
G01 X16.46341 Y14.96681
G01 X16.42183 Y15.03882
G01 X16.42543 Y15.04146
G01 X16.42183 Y15.03882
G01 X16.36615 Y15.10064
G01 X16.29889 Y15.14951
G01 X16.30112 Y15.15338
G01 X16.29889 Y15.14951
G01 X16.22289 Y15.18335
G01 X16.14156 Y15.20064
G01 X16.14204 Y15.20509
G01 X16.14156 Y15.20064
G01 X16.05840 Y15.20064
G01 X15.97707 Y15.18335
G01 X15.97570 Y15.18759
G01 X15.97707 Y15.18335
G01 X15.90107 Y15.14951
G01 X15.83227 Y15.10260
G01 X15.77606 Y15.04019
G01 X15.73658 Y14.96681
G01 X15.71088 Y14.88772
G01 X15.70651 Y14.88866
G01 X15.71088 Y14.88772
G01 X15.70219 Y14.80501
G01 X15.90328 Y14.80501
G01 X15.90758 Y14.84593
G01 X15.90062 Y14.84703
G01 X15.90758 Y14.84593
G01 X15.92030 Y14.88502
G01 X15.94085 Y14.92063
G01 X15.93724 Y14.92325
G01 X15.94085 Y14.92063
G01 X15.96836 Y14.95119
G01 X16.00163 Y14.97537
G01 X15.99940 Y14.97923
G01 X16.00163 Y14.97537
G01 X16.03920 Y14.99209
G01 X16.07941 Y15.00064
G01 X16.07895 Y15.00509
G01 X16.07941 Y15.00064
G01 X16.12056 Y15.00064
G01 X16.16079 Y14.99209
G01 X16.16216 Y14.99633
G01 X16.16079 Y14.99209
G01 X16.19833 Y14.97537
G01 X16.23161 Y14.95119
G01 X16.23460 Y14.95449
G01 X16.23161 Y14.95119
G01 X16.25911 Y14.92063
G01 X16.27969 Y14.88500
G01 X16.28378 Y14.88683
G01 X16.27969 Y14.88500
G01 X16.29239 Y14.84593
G01 X16.29668 Y14.80501
G01 X16.30115 Y14.80501
G01 X16.29668 Y14.80501
G01 X16.29239 Y14.76409
G01 X16.27969 Y14.72503
G01 X16.28599 Y14.72180
G01 X16.27969 Y14.72503
G01 X16.25911 Y14.68939
G01 X16.23161 Y14.65884
G01 X16.19833 Y14.63466
G01 X16.20217 Y14.62874
G01 X16.19833 Y14.63466
G01 X16.16076 Y14.61794
G01 X16.12053 Y14.60938
G01 X16.12101 Y14.60494
G01 X16.12053 Y14.60938
G01 X16.07943 Y14.60938
G01 X16.03920 Y14.61794
G01 X16.03783 Y14.61368
G01 X16.03920 Y14.61794
G01 X16.00163 Y14.63466
G01 X15.96836 Y14.65884
G01 X15.96539 Y14.65551
G01 X15.96836 Y14.65884
G01 X15.94085 Y14.68939
G01 X15.92030 Y14.72500
G01 X15.91370 Y14.72246
G01 X15.92030 Y14.72500
G01 X15.90758 Y14.76409
G01 X15.90328 Y14.80501
G04 P0 ( dwell for no time -- G64 should not smooth over this point )
G00 Z0.50000 ( retract )

G00 X15.50110 Y12.26501 ( rapid move to begin. )
G01 F100.00000
( Mill infeed pass 1/1 )
G01 Z-0.15000
G04 P0 ( dwell for no time -- G64 should not smooth over this point )
G01 F200.00000
G01 X15.50110 Y12.26501
G01 X15.51418 Y12.14050
G01 X15.55287 Y12.02143
G01 X15.61548 Y11.91297
G01 X15.69925 Y11.81996
G01 X15.80052 Y11.74635
G01 X15.91492 Y11.69542
G01 X16.03740 Y11.66938
G01 X16.16259 Y11.66938
G01 X16.28505 Y11.69542
G01 X16.39945 Y11.74635
G01 X16.50074 Y11.81996
G01 X16.58451 Y11.91297
G01 X16.64710 Y12.02143
G01 X16.68581 Y12.14050
G01 X16.69889 Y12.26501
G01 X16.68581 Y12.38952
G01 X16.64710 Y12.50863
G01 X16.58451 Y12.61703
G01 X16.50072 Y12.71010
G01 X16.39942 Y12.78368
G01 X16.28507 Y12.83458
G01 X16.16259 Y12.86064
G01 X16.03740 Y12.86064
G01 X15.91489 Y12.83458
G01 X15.80052 Y12.78366
G01 X15.69925 Y12.71010
G01 X15.61548 Y12.61703
G01 X15.55287 Y12.50860
G01 X15.51418 Y12.38952
G01 X15.50110 Y12.26501
G01 X15.70219 Y12.26501
G01 X15.71088 Y12.18231
G01 X15.70651 Y12.18137
G01 X15.71088 Y12.18231
G01 X15.73658 Y12.10322
G01 X15.77816 Y12.03121
G01 X15.77453 Y12.02857
G01 X15.77816 Y12.03121
G01 X15.83382 Y11.96941
G01 X15.90107 Y11.92051
G01 X15.89884 Y11.91665
G01 X15.90107 Y11.92051
G01 X15.97707 Y11.88668
G01 X16.05840 Y11.86938
G01 X16.05795 Y11.86496
G01 X16.05840 Y11.86938
G01 X16.14156 Y11.86938
G01 X16.22289 Y11.88668
G01 X16.22429 Y11.88244
G01 X16.22289 Y11.88668
G01 X16.29889 Y11.92051
G01 X16.36772 Y11.96745
G01 X16.42391 Y12.02984
G01 X16.46341 Y12.10322
G01 X16.48908 Y12.18231
G01 X16.49345 Y12.18137
G01 X16.48908 Y12.18231
G01 X16.49780 Y12.26501
G01 X16.48908 Y12.34772
G01 X16.49345 Y12.34866
G01 X16.48908 Y12.34772
G01 X16.46341 Y12.42681
G01 X16.42180 Y12.49885
G01 X16.42543 Y12.50146
G01 X16.42180 Y12.49885
G01 X16.36617 Y12.56064
G01 X16.29889 Y12.60951
G01 X16.30112 Y12.61338
G01 X16.29889 Y12.60951
G01 X16.22289 Y12.64335
G01 X16.14159 Y12.66064
G01 X16.14207 Y12.66509
G01 X16.14159 Y12.66064
G01 X16.05838 Y12.66064
G01 X15.97707 Y12.64335
G01 X15.97570 Y12.64759
G01 X15.97707 Y12.64335
G01 X15.90107 Y12.60951
G01 X15.83382 Y12.56064
G01 X15.83082 Y12.56395
G01 X15.83382 Y12.56064
G01 X15.77816 Y12.49885
G01 X15.73435 Y12.42793
G01 X15.70842 Y12.34810
G01 X15.70219 Y12.26501
G01 X15.90328 Y12.26501
G01 X15.90758 Y12.30593
G01 X15.90062 Y12.30703
G01 X15.90758 Y12.30593
G01 X15.92030 Y12.34502
G01 X15.94085 Y12.38063
G01 X15.93724 Y12.38325
G01 X15.94085 Y12.38063
G01 X15.96836 Y12.41119
G01 X16.00163 Y12.43537
G01 X15.99940 Y12.43923
G01 X16.00163 Y12.43537
G01 X16.03920 Y12.45209
G01 X16.07941 Y12.46064
G01 X16.07895 Y12.46509
G01 X16.07941 Y12.46064
G01 X16.12058 Y12.46064
G01 X16.16076 Y12.45209
G01 X16.16214 Y12.45635
G01 X16.16076 Y12.45209
G01 X16.19833 Y12.43537
G01 X16.23161 Y12.41119
G01 X16.23460 Y12.41449
G01 X16.23161 Y12.41119
G01 X16.25911 Y12.38063
G01 X16.27969 Y12.34500
G01 X16.28378 Y12.34683
G01 X16.27969 Y12.34500
G01 X16.29239 Y12.30593
G01 X16.29668 Y12.26501
G01 X16.30115 Y12.26501
G01 X16.29668 Y12.26501
G01 X16.29239 Y12.22409
G01 X16.27969 Y12.18503
G01 X16.28599 Y12.18183
G01 X16.27969 Y12.18503
G01 X16.25911 Y12.14939
G01 X16.23161 Y12.11886
G01 X16.19833 Y12.09466
G01 X16.20217 Y12.08874
G01 X16.19833 Y12.09466
G01 X16.16076 Y12.07794
G01 X16.12058 Y12.06938
G01 X16.12104 Y12.06496
G01 X16.12058 Y12.06938
G01 X16.07941 Y12.06938
G01 X16.03920 Y12.07794
G01 X16.03783 Y12.07368
G01 X16.03920 Y12.07794
G01 X16.00163 Y12.09466
G01 X15.96836 Y12.11886
G01 X15.96539 Y12.11551
G01 X15.96836 Y12.11886
G01 X15.94085 Y12.14939
G01 X15.92030 Y12.18503
G01 X15.91370 Y12.18249
G01 X15.92030 Y12.18503
G01 X15.90758 Y12.22409
G01 X15.90328 Y12.26501
G04 P0 ( dwell for no time -- G64 should not smooth over this point )
G00 Z0.50000 ( retract )

G00 X23.12110 Y12.26501 ( rapid move to begin. )
G01 F100.00000
( Mill infeed pass 1/1 )
G01 Z-0.15000
G04 P0 ( dwell for no time -- G64 should not smooth over this point )
G01 F200.00000
G01 X23.12110 Y12.26501
G01 X23.13418 Y12.14048
G01 X23.17287 Y12.02143
G01 X23.23545 Y11.91300
G01 X23.31925 Y11.81996
G01 X23.42052 Y11.74637
G01 X23.53492 Y11.69542
G01 X23.65740 Y11.66938
G01 X23.78259 Y11.66938
G01 X23.90505 Y11.69542
G01 X24.01945 Y11.74635
G01 X24.12074 Y11.81996
G01 X24.20451 Y11.91300
G01 X24.26712 Y12.02143
G01 X24.30581 Y12.14048
G01 X24.31889 Y12.26501
G01 X24.30581 Y12.38955
G01 X24.26710 Y12.50860
G01 X24.20451 Y12.61703
G01 X24.12072 Y12.71007
G01 X24.01945 Y12.78368
G01 X23.90505 Y12.83461
G01 X23.78259 Y12.86064
G01 X23.65740 Y12.86064
G01 X23.53492 Y12.83461
G01 X23.42052 Y12.78366
G01 X23.31925 Y12.71007
G01 X23.23545 Y12.61703
G01 X23.17287 Y12.50863
G01 X23.13418 Y12.38955
G01 X23.12110 Y12.26501
G01 X23.32219 Y12.26501
G01 X23.33088 Y12.18231
G01 X23.32651 Y12.18137
G01 X23.33088 Y12.18231
G01 X23.35658 Y12.10322
G01 X23.39816 Y12.03121
G01 X23.39453 Y12.02857
G01 X23.39816 Y12.03121
G01 X23.45382 Y11.96941
G01 X23.52110 Y11.92051
G01 X23.51887 Y11.91663
G01 X23.52110 Y11.92051
G01 X23.59707 Y11.88668
G01 X23.67840 Y11.86938
G01 X23.67795 Y11.86496
G01 X23.67840 Y11.86938
G01 X23.76156 Y11.86938
G01 X23.84292 Y11.88668
G01 X23.84429 Y11.88244
G01 X23.84292 Y11.88668
G01 X23.91889 Y11.92051
G01 X23.98772 Y11.96745
G01 X24.04391 Y12.02984
G01 X24.08341 Y12.10322
G01 X24.10911 Y12.18234
G01 X24.11348 Y12.18140
G01 X24.10911 Y12.18234
G01 X24.11780 Y12.26501
G01 X24.10911 Y12.34769
G01 X24.11348 Y12.34863
G01 X24.10911 Y12.34769
G01 X24.08341 Y12.42681
G01 X24.04180 Y12.49885
G01 X24.04543 Y12.50146
G01 X24.04180 Y12.49885
G01 X23.98617 Y12.56064
G01 X23.91889 Y12.60951
G01 X23.92112 Y12.61338
G01 X23.91889 Y12.60951
G01 X23.84289 Y12.64335
G01 X23.76159 Y12.66064
G01 X23.76207 Y12.66509
G01 X23.76159 Y12.66064
G01 X23.67838 Y12.66064
G01 X23.59644 Y12.64576
G01 X23.51973 Y12.61160
G01 X23.45379 Y12.56062
G01 X23.39816 Y12.49885
G01 X23.39456 Y12.50146
G01 X23.39816 Y12.49885
G01 X23.35658 Y12.42681
G01 X23.33088 Y12.34772
G01 X23.32651 Y12.34866
G01 X23.33088 Y12.34772
G01 X23.32219 Y12.26501
G01 X23.52328 Y12.26501
G01 X23.52758 Y12.30593
G01 X23.52321 Y12.30685
G01 X23.52758 Y12.30593
G01 X23.54028 Y12.34500
G01 X23.56085 Y12.38063
G01 X23.55724 Y12.38325
G01 X23.56085 Y12.38063
G01 X23.58836 Y12.41119
G01 X23.62163 Y12.43537
G01 X23.61940 Y12.43923
G01 X23.62163 Y12.43537
G01 X23.65920 Y12.45209
G01 X23.69941 Y12.46064
G01 X23.69903 Y12.46768
G01 X23.69941 Y12.46064
G01 X23.74056 Y12.46064
G01 X23.78076 Y12.45209
G01 X23.81833 Y12.43537
G01 X23.82153 Y12.44165
G01 X23.81833 Y12.43537
G01 X23.85161 Y12.41119
G01 X23.87911 Y12.38063
G01 X23.88275 Y12.38325
G01 X23.87911 Y12.38063
G01 X23.89969 Y12.34502
G01 X23.91239 Y12.30591
G01 X23.91676 Y12.30682
G01 X23.91239 Y12.30591
G01 X23.91668 Y12.26501
G01 X23.91239 Y12.22412
G01 X23.91676 Y12.22321
G01 X23.91239 Y12.22412
G01 X23.89969 Y12.18503
G01 X23.87911 Y12.14939
G01 X23.88275 Y12.14678
G01 X23.87911 Y12.14939
G01 X23.85161 Y12.11886
G01 X23.81833 Y12.09466
G01 X23.82057 Y12.09080
G01 X23.81833 Y12.09466
G01 X23.78076 Y12.07794
G01 X23.74056 Y12.06938
G01 X23.74094 Y12.06237
G01 X23.74056 Y12.06938
G01 X23.69941 Y12.06938
G01 X23.65920 Y12.07794
G01 X23.62163 Y12.09466
G01 X23.61843 Y12.08838
G01 X23.62163 Y12.09466
G01 X23.58836 Y12.11886
G01 X23.56085 Y12.14939
G01 X23.55724 Y12.14678
G01 X23.56085 Y12.14939
G01 X23.54028 Y12.18503
G01 X23.52758 Y12.22409
G01 X23.52321 Y12.22318
G01 X23.52758 Y12.22409
G01 X23.52328 Y12.26501
G04 P0 ( dwell for no time -- G64 should not smooth over this point )
G00 Z0.50000 ( retract )

G00 X23.12110 Y14.80501 ( rapid move to begin. )
G01 F100.00000
( Mill infeed pass 1/1 )
G01 Z-0.15000
G04 P0 ( dwell for no time -- G64 should not smooth over this point )
G01 F200.00000
G01 X23.12110 Y14.80501
G01 X23.13418 Y14.68048
G01 X23.17287 Y14.56143
G01 X23.23545 Y14.45300
G01 X23.31925 Y14.35993
G01 X23.42052 Y14.28637
G01 X23.53492 Y14.23542
G01 X23.65740 Y14.20938
G01 X23.78259 Y14.20938
G01 X23.90507 Y14.23542
G01 X24.01945 Y14.28635
G01 X24.12072 Y14.35996
G01 X24.20451 Y14.45300
G01 X24.26712 Y14.56143
G01 X24.30581 Y14.68048
G01 X24.31889 Y14.80501
G01 X24.30581 Y14.92955
G01 X24.26712 Y15.04860
G01 X24.20451 Y15.15703
G01 X24.12074 Y15.25007
G01 X24.01945 Y15.32368
G01 X23.90505 Y15.37461
G01 X23.78257 Y15.40064
G01 X23.65740 Y15.40064
G01 X23.53494 Y15.37461
G01 X23.42054 Y15.32368
G01 X23.31925 Y15.25007
G01 X23.23545 Y15.15703
G01 X23.17287 Y15.04860
G01 X23.13418 Y14.92955
G01 X23.12110 Y14.80501
G01 X23.32219 Y14.80501
G01 X23.33088 Y14.72231
G01 X23.32651 Y14.72137
G01 X23.33088 Y14.72231
G01 X23.35658 Y14.64322
G01 X23.39816 Y14.57118
G01 X23.39456 Y14.56857
G01 X23.39816 Y14.57118
G01 X23.45379 Y14.50938
G01 X23.52110 Y14.46051
G01 X23.51887 Y14.45663
G01 X23.52110 Y14.46051
G01 X23.59707 Y14.42668
G01 X23.67838 Y14.40938
G01 X23.67792 Y14.40494
G01 X23.67838 Y14.40938
G01 X23.76159 Y14.40938
G01 X23.84355 Y14.42427
G01 X23.92026 Y14.45843
G01 X23.98617 Y14.50938
G01 X24.04180 Y14.57118
G01 X24.04543 Y14.56857
G01 X24.04180 Y14.57118
G01 X24.08341 Y14.64322
G01 X24.10911 Y14.72234
G01 X24.11348 Y14.72140
G01 X24.10911 Y14.72234
G01 X24.11780 Y14.80501
G01 X24.10911 Y14.88769
G01 X24.11348 Y14.88863
G01 X24.10911 Y14.88769
G01 X24.08341 Y14.96681
G01 X24.04183 Y15.03882
G01 X24.04543 Y15.04146
G01 X24.04183 Y15.03882
G01 X23.98615 Y15.10064
G01 X23.91889 Y15.14951
G01 X23.92112 Y15.15338
G01 X23.91889 Y15.14951
G01 X23.84292 Y15.18335
G01 X23.76156 Y15.20064
G01 X23.76204 Y15.20509
G01 X23.76156 Y15.20064
G01 X23.67840 Y15.20064
G01 X23.59707 Y15.18335
G01 X23.59570 Y15.18759
G01 X23.59707 Y15.18335
G01 X23.52110 Y15.14951
G01 X23.45224 Y15.10260
G01 X23.39606 Y15.04019
G01 X23.35658 Y14.96681
G01 X23.33088 Y14.88772
G01 X23.32651 Y14.88866
G01 X23.33088 Y14.88772
G01 X23.32219 Y14.80501
G01 X23.52328 Y14.80501
G01 X23.52758 Y14.84593
G01 X23.52321 Y14.84685
G01 X23.52758 Y14.84593
G01 X23.54028 Y14.88500
G01 X23.56085 Y14.92063
G01 X23.55724 Y14.92325
G01 X23.56085 Y14.92063
G01 X23.58836 Y14.95119
G01 X23.62163 Y14.97537
G01 X23.61940 Y14.97923
G01 X23.62163 Y14.97537
G01 X23.65920 Y14.99209
G01 X23.69941 Y15.00064
G01 X23.69905 Y15.00768
G01 X23.69941 Y15.00064
G01 X23.74056 Y15.00064
G01 X23.78079 Y14.99209
G01 X23.81833 Y14.97537
G01 X23.82153 Y14.98165
G01 X23.81833 Y14.97537
G01 X23.85161 Y14.95119
G01 X23.87911 Y14.92063
G01 X23.88275 Y14.92325
G01 X23.87911 Y14.92063
G01 X23.89969 Y14.88502
G01 X23.91239 Y14.84591
G01 X23.91676 Y14.84682
G01 X23.91239 Y14.84591
G01 X23.91668 Y14.80501
G01 X23.91239 Y14.76412
G01 X23.91676 Y14.76321
G01 X23.91239 Y14.76412
G01 X23.89969 Y14.72500
G01 X23.87914 Y14.68939
G01 X23.88275 Y14.68678
G01 X23.87914 Y14.68939
G01 X23.85161 Y14.65884
G01 X23.81833 Y14.63466
G01 X23.82057 Y14.63080
G01 X23.81833 Y14.63466
G01 X23.78076 Y14.61794
G01 X23.74053 Y14.60938
G01 X23.74091 Y14.60235
G01 X23.74053 Y14.60938
G01 X23.69943 Y14.60938
G01 X23.65920 Y14.61794
G01 X23.62163 Y14.63466
G01 X23.61843 Y14.62838
G01 X23.62163 Y14.63466
G01 X23.58836 Y14.65884
G01 X23.56085 Y14.68939
G01 X23.55722 Y14.68678
G01 X23.56085 Y14.68939
G01 X23.54028 Y14.72503
G01 X23.52758 Y14.76409
G01 X23.52321 Y14.76318
G01 X23.52758 Y14.76409
G01 X23.52328 Y14.80501
G04 P0 ( dwell for no time -- G64 should not smooth over this point )
G00 Z0.50000 ( retract )

G00 X23.12110 Y17.34501 ( rapid move to begin. )
G01 F100.00000
( Mill infeed pass 1/1 )
G01 Z-0.15000
G04 P0 ( dwell for no time -- G64 should not smooth over this point )
G01 F200.00000
G01 X23.12110 Y17.34501
G01 X23.13418 Y17.22048
G01 X23.17287 Y17.10140
G01 X23.23545 Y16.99302
G01 X23.31925 Y16.89993
G01 X23.42052 Y16.82637
G01 X23.53492 Y16.77542
G01 X23.65740 Y16.74938
G01 X23.78259 Y16.74938
G01 X23.90505 Y16.77542
G01 X24.01945 Y16.82635
G01 X24.12074 Y16.89996
G01 X24.20451 Y16.99300
G01 X24.26710 Y17.10140
G01 X24.30581 Y17.22048
G01 X24.31889 Y17.34501
G01 X24.30581 Y17.46955
G01 X24.26712 Y17.58860
G01 X24.20449 Y17.69706
G01 X24.12074 Y17.79007
G01 X24.01942 Y17.86368
G01 X23.90505 Y17.91461
G01 X23.78257 Y17.94064
G01 X23.65740 Y17.94064
G01 X23.53492 Y17.91461
G01 X23.42054 Y17.86368
G01 X23.31922 Y17.79007
G01 X23.23545 Y17.69703
G01 X23.17287 Y17.58863
G01 X23.13418 Y17.46955
G01 X23.12110 Y17.34501
G01 X23.32219 Y17.34501
G01 X23.33088 Y17.26231
G01 X23.35658 Y17.18322
G01 X23.35250 Y17.18139
G01 X23.35658 Y17.18322
G01 X23.39816 Y17.11118
G01 X23.45379 Y17.04938
G01 X23.45082 Y17.04608
