( pcb2gcode 2.4.0 )
( Software-independent Gcode )

G94 ( Millimeters per minute feed rate. )
G21 ( Units == Millimeters. )

G90 ( Absolute coordinates. )
G00 S40 ( RPM spindle speed. )
G64 P0.01016 ( set maximum deviation from commanded toolpath )
G01 F40.00000 ( Feedrate. )


G00 Z0.50000 (Retract to tool change height)
T0
M5      (Spindle stop.)
G04 P1.00000 (Wait for spindle to stop)
(MSG, Change tool bit to cutter diameter 0.80000mm)
M6      (Tool change.)
M0      (Temporary machine stop.)
M3 ( Spindle on clockwise. )
G04 P1.00000 (Wait for spindle to get up to speed)
G04 P0 ( dwell for no time -- G64 should not smooth over this point )
G00 Z0.50000 ( retract )

G00 X56.21888 Y5.29503 ( rapid move to begin. )
G01 Z-2.00000 F20.00000 ( plunge. )
G04 P0 ( dwell for no time -- G64 should not smooth over this point )
G01 F40.00000
G00 Z-0.20000
G01 X56.18842 Y5.00524
G01 X56.09838 Y4.72810
G01 X55.95268 Y4.47572
G01 X55.77676 Y4.28037
G01 Z-2.00000 F20.00000
G01 F40.00000
G01 X55.75769 Y4.25919
G01 X55.52195 Y4.08792
G01 X55.25573 Y3.96940
G01 X54.97072 Y3.90882
G01 X54.67933 Y3.90882
G01 X54.39432 Y3.96940
G01 X54.12810 Y4.08792
G01 X53.89236 Y4.25919
G01 X53.69737 Y4.47572
G01 X53.55167 Y4.72810
G01 X53.46163 Y5.00521
G01 X53.45865 Y5.03356
G00 Z-0.20000
G01 X53.43117 Y5.29503
G01 X53.46163 Y5.58484
G01 X53.55167 Y5.86195
G01 X53.69737 Y6.11430
G01 X53.87330 Y6.30969
G01 Z-2.00000 F20.00000
G01 F40.00000
G01 X53.89236 Y6.33086
G01 X54.12810 Y6.50216
G01 X54.39432 Y6.62065
G01 X54.67933 Y6.68123
G01 X54.97072 Y6.68123
G01 X55.25573 Y6.62065
G01 X55.52195 Y6.50216
G01 X55.75769 Y6.33086
G01 X55.95268 Y6.11430
G01 X56.09838 Y5.86195
G01 X56.18842 Y5.58484
G01 X56.19140 Y5.55650
G00 Z-0.20000
G01 X56.21888 Y5.29503
G04 P0 ( dwell for no time -- G64 should not smooth over this point )
G00 Z0.50000 ( retract )

G00 X56.21888 Y65.62003 ( rapid move to begin. )
G01 Z-2.00000 F20.00000 ( plunge. )
G04 P0 ( dwell for no time -- G64 should not smooth over this point )
G01 F40.00000
G00 Z-0.20000
G01 X56.18842 Y65.33024
G01 X56.09838 Y65.05310
G01 X55.95268 Y64.80075
G01 X55.77676 Y64.60537
G01 Z-2.00000 F20.00000
G01 F40.00000
G01 X55.75769 Y64.58419
G01 X55.52195 Y64.41289
G01 X55.25576 Y64.29440
G01 X54.97069 Y64.23380
G01 X54.67936 Y64.23380
G01 X54.39429 Y64.29440
G01 X54.12810 Y64.41289
G01 X53.89236 Y64.58419
G01 X53.69737 Y64.80075
G01 X53.55167 Y65.05310
G01 X53.46163 Y65.33021
G01 X53.45865 Y65.35855
G00 Z-0.20000
G01 X53.43117 Y65.62003
G01 X53.46163 Y65.90981
G01 X53.55167 Y66.18695
G01 X53.69737 Y66.43933
G01 X53.87329 Y66.63468
G01 Z-2.00000 F20.00000
G01 F40.00000
G01 X53.89236 Y66.65586
G01 X54.12810 Y66.82714
G01 X54.39434 Y66.94565
G01 X54.67933 Y67.00623
G01 X54.97072 Y67.00623
G01 X55.25571 Y66.94565
G01 X55.52195 Y66.82714
G01 X55.75769 Y66.65586
G01 X55.95268 Y66.43933
G01 X56.09838 Y66.18695
G01 X56.18842 Y65.90981
G01 X56.19140 Y65.88150
G00 Z-0.20000
G01 X56.21888 Y65.62003
G04 P0 ( dwell for no time -- G64 should not smooth over this point )
G00 Z0.50000 ( retract )

G00 X7.32388 Y65.62003 ( rapid move to begin. )
G01 Z-2.00000 F20.00000 ( plunge. )
G04 P0 ( dwell for no time -- G64 should not smooth over this point )
G01 F40.00000
G00 Z-0.20000
G01 X7.29342 Y65.33024
G01 X7.20338 Y65.05310
G01 X7.05768 Y64.80075
G01 X6.88176 Y64.60537
G01 Z-2.00000 F20.00000
G01 F40.00000
G01 X6.86269 Y64.58419
G01 X6.62695 Y64.41289
G01 X6.36076 Y64.29440
G01 X6.07569 Y64.23380
G01 X5.78436 Y64.23380
G01 X5.49929 Y64.29440
G01 X5.23310 Y64.41289
G01 X4.99736 Y64.58419
G01 X4.80237 Y64.80075
G01 X4.65667 Y65.05310
G01 X4.56663 Y65.33021
G01 X4.56365 Y65.35855
G00 Z-0.20000
G01 X4.53617 Y65.62003
G01 X4.56663 Y65.90981
G01 X4.65667 Y66.18695
G01 X4.80237 Y66.43933
G01 X4.97829 Y66.63468
G01 Z-2.00000 F20.00000
G01 F40.00000
G01 X4.99736 Y66.65586
G01 X5.23310 Y66.82714
G01 X5.49934 Y66.94565
G01 X5.78433 Y67.00623
G01 X6.07572 Y67.00623
G01 X6.36071 Y66.94565
G01 X6.62695 Y66.82714
G01 X6.86269 Y66.65586
G01 X7.05768 Y66.43933
G01 X7.20338 Y66.18695
G01 X7.29342 Y65.90981
G01 X7.29640 Y65.88150
G00 Z-0.20000
G01 X7.32388 Y65.62003
G04 P0 ( dwell for no time -- G64 should not smooth over this point )
G00 Z0.50000 ( retract )

G00 X7.32388 Y5.93003 ( rapid move to begin. )
G01 Z-2.00000 F20.00000 ( plunge. )
G04 P0 ( dwell for no time -- G64 should not smooth over this point )
G01 F40.00000
G00 Z-0.20000
G01 X7.29342 Y5.64021
G01 X7.20338 Y5.36310
G01 X7.05768 Y5.11075
G01 X6.88176 Y4.91535
G01 Z-2.00000 F20.00000
G01 F40.00000
G01 X6.86271 Y4.89419
G01 X6.62695 Y4.72292
G01 X6.36073 Y4.60440
G01 X6.07569 Y4.54380
G01 X5.78436 Y4.54380
G01 X5.49932 Y4.60440
G01 X5.23310 Y4.72292
G01 X4.99734 Y4.89419
G01 X4.80237 Y5.11075
G01 X4.65667 Y5.36310
G01 X4.56663 Y5.64021
G01 X4.56365 Y5.66855
G00 Z-0.20000
G01 X4.53617 Y5.93003
G01 X4.56663 Y6.21981
G01 X4.65667 Y6.49695
G01 X4.80237 Y6.74930
G01 X4.97829 Y6.94468
G01 Z-2.00000 F20.00000
G01 F40.00000
G01 X4.99736 Y6.96586
G01 X5.23310 Y7.13714
G01 X5.49932 Y7.25565
G01 X5.78436 Y7.31626
G01 X6.07569 Y7.31626
G01 X6.36073 Y7.25565
G01 X6.62695 Y7.13714
G01 X6.86269 Y6.96586
G01 X7.05768 Y6.74930
G01 X7.20338 Y6.49695
G01 X7.29342 Y6.21981
G01 X7.29640 Y6.19149
G00 Z-0.20000
G01 X7.32388 Y5.93003
G04 P0 ( dwell for no time -- G64 should not smooth over this point )
G00 Z0.50000 ( retract )

G00 X60.30502 Y5.93000 ( rapid move to begin. )
G01 Z-2.00000 F20.00000 ( plunge. )
G04 P0 ( dwell for no time -- G64 should not smooth over this point )
G01 F40.00000
G01 X60.30502 Y65.62000
G01 X60.19974 Y66.68914
G01 X59.90109 Y67.68017
G01 X59.87109 Y67.75261
G01 X59.38148 Y68.66457
G01 X58.69997 Y69.49497
G01 X57.86957 Y70.17648
G01 X56.95761 Y70.66609
G01 X56.88517 Y70.69609
G01 X55.89414 Y70.99474
G01 X54.82500 Y71.10002
G01 X31.07750 Y71.10002
G00 Z-0.20000
G01 X29.67750 Y71.10002
G01 Z-2.00000 F20.00000
G01 F40.00000
G01 X5.93000 Y71.10002
G01 X4.86091 Y70.99474
G01 X3.86988 Y70.69609
G01 X3.79744 Y70.66609
G01 X2.88548 Y70.17648
G01 X2.05508 Y69.49497
G01 X1.37357 Y68.66457
G01 X0.88396 Y67.75261
G01 X0.85396 Y67.68017
G01 X0.55531 Y66.68914
G01 X0.45000 Y65.62000
G01 X0.45000 Y5.93000
G01 X0.55531 Y4.86091
G01 X0.85396 Y3.86988
G01 X0.88396 Y3.79744
G01 X1.37357 Y2.88548
G01 X2.05508 Y2.05508
G01 X2.88548 Y1.37357
G01 X3.79744 Y0.88396
G01 X3.86988 Y0.85396
G01 X4.86091 Y0.55531
G01 X5.93000 Y0.45000
G01 X29.69711 Y0.45094
G00 Z-0.20000
G01 X31.09711 Y0.45099
G01 Z-2.00000 F20.00000
G01 F40.00000
G01 X54.86422 Y0.45193
G01 X55.89414 Y0.55531
G01 X56.88517 Y0.85396
G01 X56.95761 Y0.88396
G01 X57.86957 Y1.37357
G01 X58.69997 Y2.05508
G01 X59.38148 Y2.88548
G01 X59.87109 Y3.79744
G01 X59.90109 Y3.86988
G01 X60.19974 Y4.86091
G01 X60.30502 Y5.93000

G04 P0 ( dwell for no time -- G64 should not smooth over this point )
G00 Z0.500000 ( retract )

M5 ( Spindle off. )
G04 P1.000000
M9 ( Coolant off. )
M2 ( Program end. )

