( pcb2gcode 2.4.0 )
( Software-independent Gcode )

G94 ( Millimeters per minute feed rate. )
G21 ( Units == Millimeters. )

G90 ( Absolute coordinates. )
G00 S40 ( RPM spindle speed. )
G64 P0.01016 ( set maximum deviation from commanded toolpath )
G01 F40.00000 ( Feedrate. )


G00 Z0.50000 (Retract to tool change height)
T0
M5      (Spindle stop.)
G04 P1.00000 (Wait for spindle to stop)
(MSG, Change tool bit to cutter diameter 0.80000mm)
M6      (Tool change.)
M0      (Temporary machine stop.)
M3 ( Spindle on clockwise. )
G04 P1.00000 (Wait for spindle to get up to speed)
G04 P0 ( dwell for no time -- G64 should not smooth over this point )
G00 Z0.50000 ( retract )

G00 X7.32388 Y65.62003 ( rapid move to begin. )
G01 Z-2.00000 F20.00000 ( plunge. )
G04 P0 ( dwell for no time -- G64 should not smooth over this point )
G01 F40.00000
G00 Z-0.30000
G01 X7.29342 Y65.33024
G01 X7.20338 Y65.05310
G01 X7.05768 Y64.80075
G01 X6.98213 Y64.71684
G01 Z-2.00000 F20.00000
G01 F40.00000
G01 X6.86269 Y64.58419
G01 X6.62695 Y64.41292
G01 X6.36073 Y64.29440
G01 X6.07569 Y64.23380
G01 X5.78436 Y64.23380
G01 X5.49929 Y64.29440
G01 X5.23310 Y64.41289
G01 X4.99736 Y64.58419
G01 X4.80237 Y64.80075
G01 X4.65667 Y65.05312
G01 X4.56663 Y65.33021
G01 X4.54798 Y65.50772
G00 Z-0.30000
G01 X4.53617 Y65.62003
G01 X4.56663 Y65.90981
G01 X4.65667 Y66.18693
G01 X4.80239 Y66.43933
G01 X4.87792 Y66.52320
G01 Z-2.00000 F20.00000
G01 F40.00000
G01 X4.99736 Y66.65586
G01 X5.23310 Y66.82714
G01 X5.49932 Y66.94565
G01 X5.78431 Y67.00623
G01 X6.07575 Y67.00623
G01 X6.36071 Y66.94565
G01 X6.62698 Y66.82714
G01 X6.86269 Y66.65586
G01 X7.05766 Y66.43933
G01 X7.20338 Y66.18695
G01 X7.29342 Y65.90981
G01 X7.31207 Y65.73232
G00 Z-0.30000
G01 X7.32388 Y65.62003
G04 P0 ( dwell for no time -- G64 should not smooth over this point )
G00 Z0.50000 ( retract )

G00 X7.32388 Y5.93003 ( rapid move to begin. )
G01 Z-2.00000 F20.00000 ( plunge. )
G04 P0 ( dwell for no time -- G64 should not smooth over this point )
G01 F40.00000
G00 Z-0.30000
G01 X7.29342 Y5.64021
G01 X7.20338 Y5.36310
G01 X7.05768 Y5.11075
G01 X6.98212 Y5.02683
G01 Z-2.00000 F20.00000
G01 F40.00000
G01 X6.86269 Y4.89419
G01 X6.62698 Y4.72292
G01 X6.36073 Y4.60440
G01 X6.07569 Y4.54380
G01 X5.78436 Y4.54380
G01 X5.49929 Y4.60440
G01 X5.23310 Y4.72292
G01 X4.99736 Y4.89419
G01 X4.80237 Y5.11075
G01 X4.65667 Y5.36312
G01 X4.56663 Y5.64021
G01 X4.54798 Y5.81772
G00 Z-0.30000
G01 X4.53617 Y5.93003
G01 X4.56663 Y6.21981
G01 X4.65667 Y6.49693
G01 X4.80237 Y6.74930
G01 X4.87791 Y6.83320
G01 Z-2.00000 F20.00000
G01 F40.00000
G01 X4.99736 Y6.96586
G01 X5.23310 Y7.13714
G01 X5.49929 Y7.25565
G01 X5.78436 Y7.31626
G01 X6.07569 Y7.31626
G01 X6.36073 Y7.25565
G01 X6.62698 Y7.13714
G01 X6.86269 Y6.96586
G01 X7.05768 Y6.74930
G01 X7.20338 Y6.49695
G01 X7.29342 Y6.21981
G01 X7.31208 Y6.04231
G00 Z-0.30000
G01 X7.32388 Y5.93003
G04 P0 ( dwell for no time -- G64 should not smooth over this point )
G00 Z0.50000 ( retract )

G00 X56.85388 Y65.62003 ( rapid move to begin. )
G01 Z-2.00000 F20.00000 ( plunge. )
G04 P0 ( dwell for no time -- G64 should not smooth over this point )
G01 F40.00000
G00 Z-0.30000
G01 X56.82342 Y65.33024
G01 X56.73338 Y65.05310
G01 X56.58768 Y64.80075
G01 X56.51213 Y64.71684
G01 Z-2.00000 F20.00000
G01 F40.00000
G01 X56.39269 Y64.58419
G01 X56.15695 Y64.41289
G01 X55.89076 Y64.29440
G01 X55.60569 Y64.23380
G01 X55.31436 Y64.23380
G01 X55.02929 Y64.29440
G01 X54.76310 Y64.41289
G01 X54.52736 Y64.58419
G01 X54.33237 Y64.80075
G01 X54.18667 Y65.05310
G01 X54.09663 Y65.33021
G01 X54.07798 Y65.50773
G00 Z-0.30000
G01 X54.06617 Y65.62003
G01 X54.09663 Y65.90981
G01 X54.18667 Y66.18695
G01 X54.33237 Y66.43933
G01 X54.40791 Y66.52322
G01 Z-2.00000 F20.00000
G01 F40.00000
G01 X54.52736 Y66.65586
G01 X54.76310 Y66.82714
G01 X55.02934 Y66.94565
G01 X55.31433 Y67.00623
G01 X55.60572 Y67.00623
G01 X55.89071 Y66.94565
G01 X56.15695 Y66.82714
G01 X56.39269 Y66.65586
G01 X56.58768 Y66.43933
G01 X56.73338 Y66.18695
G01 X56.82342 Y65.90981
G01 X56.84207 Y65.73232
G00 Z-0.30000
G01 X56.85388 Y65.62003
G04 P0 ( dwell for no time -- G64 should not smooth over this point )
G00 Z0.50000 ( retract )

G00 X56.85388 Y5.93003 ( rapid move to begin. )
G01 Z-2.00000 F20.00000 ( plunge. )
G04 P0 ( dwell for no time -- G64 should not smooth over this point )
G01 F40.00000
G00 Z-0.30000
G01 X56.82342 Y5.64021
G01 X56.73338 Y5.36310
G01 X56.58768 Y5.11075
G01 X56.51213 Y5.02683
G01 Z-2.00000 F20.00000
G01 F40.00000
G01 X56.39271 Y4.89419
G01 X56.15695 Y4.72292
G01 X55.89073 Y4.60440
G01 X55.60569 Y4.54380
G01 X55.31436 Y4.54380
G01 X55.02932 Y4.60440
G01 X54.76310 Y4.72292
G01 X54.52734 Y4.89419
G01 X54.33237 Y5.11075
G01 X54.18667 Y5.36310
G01 X54.09663 Y5.64021
G01 X54.07798 Y5.81773
G00 Z-0.30000
G01 X54.06617 Y5.93003
G01 X54.09663 Y6.21981
G01 X54.18667 Y6.49695
G01 X54.33237 Y6.74930
G01 X54.40792 Y6.83321
G01 Z-2.00000 F20.00000
G01 F40.00000
G01 X54.52736 Y6.96586
G01 X54.76310 Y7.13714
G01 X55.02932 Y7.25565
G01 X55.31436 Y7.31626
G01 X55.60569 Y7.31626
G01 X55.89073 Y7.25565
G01 X56.15695 Y7.13714
G01 X56.39269 Y6.96586
G01 X56.58768 Y6.74930
G01 X56.73338 Y6.49695
G01 X56.82342 Y6.21981
G01 X56.84208 Y6.04231
G00 Z-0.30000
G01 X56.85388 Y5.93003
G04 P0 ( dwell for no time -- G64 should not smooth over this point )
G00 Z0.50000 ( retract )

G00 X60.94002 Y5.93000 ( rapid move to begin. )
G01 Z-2.00000 F20.00000 ( plunge. )
G04 P0 ( dwell for no time -- G64 should not smooth over this point )
G01 F40.00000
G01 X60.94002 Y65.62000
G01 X60.83474 Y66.68914
G01 X60.53609 Y67.68017
G01 X60.50609 Y67.75261
G01 X60.01648 Y68.66457
G01 X59.33497 Y69.49497
G01 X58.50457 Y70.17648
G01 X57.59261 Y70.66609
G01 X57.52017 Y70.69609
G01 X56.52914 Y70.99474
G01 X55.46000 Y71.10002
G01 X31.24500 Y71.10002
G00 Z-0.30000
G01 X30.14500 Y71.10002
G01 Z-2.00000 F20.00000
G01 F40.00000
G01 X5.93000 Y71.10002
G01 X4.86091 Y70.99474
G01 X3.86988 Y70.69609
G01 X3.79744 Y70.66609
G01 X2.88548 Y70.17648
G01 X2.05508 Y69.49497
G01 X1.37357 Y68.66457
G01 X0.88396 Y67.75261
G01 X0.85396 Y67.68017
G01 X0.55531 Y66.68914
G01 X0.45000 Y65.62000
G01 X0.45000 Y5.93000
G01 X0.55531 Y4.86091
G01 X0.85396 Y3.86988
G01 X0.88396 Y3.79744
G01 X1.37357 Y2.88548
G01 X2.05508 Y2.05508
G01 X2.88548 Y1.37357
G01 X3.79744 Y0.88396
G01 X3.86988 Y0.85396
G01 X4.86091 Y0.55531
G01 X5.93000 Y0.45000
G01 X30.16461 Y0.45094
G00 Z-0.30000
G01 X31.26461 Y0.45099
G01 Z-2.00000 F20.00000
G01 F40.00000
G01 X55.49922 Y0.45193
G01 X56.52914 Y0.55531
G01 X57.52017 Y0.85396
G01 X57.59261 Y0.88396
G01 X58.50457 Y1.37357
G01 X59.33497 Y2.05508
G01 X60.01648 Y2.88548
G01 X60.50609 Y3.79744
G01 X60.53609 Y3.86988
G01 X60.83474 Y4.86091
G01 X60.94002 Y5.93000

G04 P0 ( dwell for no time -- G64 should not smooth over this point )
G00 Z0.500000 ( retract )

M5 ( Spindle off. )
G04 P1.000000
M9 ( Coolant off. )
M2 ( Program end. )

